diyakadadi/agilex-hackathon/recordings/trajectory_20260524_110718.csv
dt,j1,j2,j3,j4,j5,j6,gripper_m
0.0,-0.015219,0.523669,-0.524192,0.109903,0.392507,-0.157149,0.0
0.0504,-0.015219,0.523669,-0.524192,0.109903,0.392507,-0.157149,0.0
0.1009,-0.015219,0.523669,-0.524192,0.109903,0.392507,-0.157149,0.0
0.1514,-0.015219,0.523669,-0.524192,0.109903,0.392507,-0.157149,0.0
0.2017,-0.015219,0.523669,-0.524192,0.109903,0.392507,-0.157149,0.0
0.2522,-0.015219,0.523669,-0.524192,0.109903,0.392507,-0.157149,0.0
0.3027,-0.015219,0.523669,-0.524192,0.109903,0.392507,-0.157149,0.0
0.353,-0.015219,0.523669,-0.524192,0.109903,0.392507,-0.157149,0.0
0.4035,-0.015219,0.523669,-0.524192,0.109903,0.392507,-0.157149,0.0
0.454,-0.015219,0.523669,-0.524192,0.109903,0.392507,-0.157149,0.0
0.5043,-0.015219,0.523669,-0.524192,0.109903,0.392507,-0.157149,0.0
0.5549,-0.015219,0.523669,-0.524192,0.109903,0.392507,-0.157149,0.0
0.6054,-0.015219,0.523669,-0.524192,0.109903,0.392507,-0.157149,0.0
0.6558,-0.015219,0.523669,-0.524192,0.109903,0.392507,-0.157149,0.0
0.7062,-0.015219,0.523669,-0.524192,0.109903,0.392507,-0.157149,0.0
0.7566,-0.015219,0.523669,-0.524192,0.109903,0.392507,-0.157149,0.0
0.807,-0.015219,0.523669,-0.524192,0.109903,0.392507,-0.157149,0.0
0.8574,-0.015219,0.523669,-0.524192,0.109903,0.392507,-0.157149,0.0
0.9079,-0.015219,0.523669,-0.524192,0.109903,0.392507,-0.157149,0.0
0.9583,-0.015219,0.523669,-0.524192,0.109903,0.392507,-0.157149,0.0
1.0087,-0.015219,0.523669,-0.524192,0.109903,0.392507,-0.157149,0.0
1.0592,-0.015219,0.523669,-0.524192,0.109903,0.392507,-0.157149,0.0
1.1097,-0.015219,0.523669,-0.524192,0.109903,0.392507,-0.157149,0.0
1.1601,-0.015219,0.523669,-0.524192,0.109903,0.392507,-0.157149,0.0
1.2106,-0.015219,0.523669,-0.524192,0.109903,0.392507,-0.157149,0.0
1.2611,-0.015219,0.523669,-0.524192,0.109903,0.392507,-0.157149,0.0
1.3113,-0.015219,0.523669,-0.524192,0.109903,0.392507,-0.157149,0.0
1.3618,-0.015219,0.523669,-0.524192,0.109903,0.392507,-0.157149,0.0
1.4122,-0.015219,0.523669,-0.524192,0.109903,0.392507,-0.157149,0.0
1.4627,-0.015219,0.523669,-0.524192,0.109903,0.392507,-0.157149,0.0
1.513,-0.015219,0.523669,-0.524192,0.109903,0.392507,-0.157149,0.0
1.5635,-0.015219,0.523669,-0.524192,0.109903,0.392507,-0.157149,0.0
1.614,-0.015219,0.523669,-0.524192,0.109903,0.392507,-0.157149,0.0
1.6645,-0.015219,0.523669,-0.524192,0.109903,0.392507,-0.157149,0.0
1.715,-0.015219,0.523669,-0.524192,0.109903,0.392507,-0.157149,0.0
1.7655,-0.015219,0.523669,-0.524192,0.109903,0.392507,-0.157149,0.0
1.8158,-0.015219,0.523669,-0.524192,0.109903,0.392507,-0.157149,0.0
1.8662,-0.015219,0.523669,-0.524192,0.109903,0.392507,-0.157149,0.0
1.9167,-0.015219,0.523669,-0.524192,0.109903,0.392507,-0.157149,0.0
1.9672,-0.015219,0.523669,-0.524192,0.109903,0.392507,-0.157149,0.0
2.0177,-0.015219,0.523669,-0.524192,0.109903,0.392507,-0.157149,0.0
2.068,-0.015219,0.523669,-0.524192,0.109903,0.392507,-0.157149,0.0
2.1185,-0.015219,0.523669,-0.524192,0.109903,0.392507,-0.157149,0.0
2.1689,-0.015219,0.523669,-0.524192,0.109903,0.392507,-0.157149,0.0
2.2194,-0.015219,0.523669,-0.524192,0.109903,0.392507,-0.157149,0.0
2.27,-0.015219,0.523669,-0.524192,0.109903,0.392507,-0.157149,0.0
2.3202,-0.015219,0.523669,-0.524192,0.109903,0.392507,-0.157149,0.0
2.3708,-0.015219,0.523669,-0.524192,0.109903,0.392507,-0.157149,0.0
2.4213,-0.015219,0.523669,-0.524192,0.109903,0.392507,-0.157149,0.0
2.4716,-0.015219,0.523669,-0.524192,0.109903,0.392507,-0.157149,0.0
2.5221,-0.015219,0.523669,-0.524192,0.109903,0.392507,-0.157149,0.0
2.5725,-0.015219,0.523669,-0.524192,0.109903,0.392507,-0.157149,0.0
2.6229,-0.015219,0.523669,-0.524192,0.109903,0.392507,-0.157149,0.0
2.6734,-0.015219,0.523669,-0.524192,0.109903,0.392507,-0.157149,0.0
2.7238,-0.015219,0.523669,-0.524192,0.109903,0.392507,-0.157149,0.0
2.7743,-0.015219,0.523669,-0.524192,0.109903,0.392507,-0.157149,0.0
2.8248,-0.015219,0.523669,-0.524192,0.109903,0.392507,-0.157149,0.0
2.8752,-0.015219,0.523669,-0.524192,0.109903,0.392507,-0.157149,0.0
2.9257,-0.015219,0.523669,-0.524192,0.109903,0.392507,-0.157149,0.0
2.9761,-0.015219,0.523669,-0.524192,0.109903,0.392507,-0.157149,0.0
3.0265,-0.015219,0.523669,-0.524192,0.109903,0.392507,-0.157149,0.0
3.077,-0.015219,0.523669,-0.524192,0.109903,0.392507,-0.157149,0.0
3.1274,-0.015219,0.523669,-0.524192,0.109903,0.392507,-0.157149,0.0
3.1778,-0.015219,0.523669,-0.524192,0.109903,0.392507,-0.157149,0.0
3.2282,-0.015219,0.523669,-0.524192,0.109903,0.392507,-0.157149,0.0
3.2788,-0.015219,0.523669,-0.524192,0.109903,0.392507,-0.157149,0.0
3.3291,-0.015219,0.523669,-0.524192,0.109903,0.392507,-0.157149,0.0
3.3797,-0.015219,0.523669,-0.524192,0.109903,0.392507,-0.157149,0.0
3.4301,-0.015219,0.523669,-0.524192,0.109903,0.392507,-0.157149,0.0
3.4804,-0.015219,0.523669,-0.524192,0.109903,0.392507,-0.157149,0.0
3.531,-0.015219,0.523669,-0.524192,0.109903,0.392507,-0.157149,0.0
3.5814,-0.015219,0.523669,-0.524192,0.109903,0.392507,-0.157149,0.0
3.6318,-0.015219,0.523669,-0.524192,0.109903,0.392507,-0.157149,0.0
3.6822,-0.015219,0.523669,-0.524192,0.109903,0.392507,-0.157149,0.0
3.7327,-0.015219,0.523669,-0.524192,0.109903,0.392507,-0.157149,0.0
3.7831,-0.015219,0.523669,-0.524192,0.109903,0.392507,-0.157149,0.0
3.8335,-0.015219,0.523669,-0.524192,0.109903,0.392507,-0.157149,0.0
3.884,-0.015219,0.523669,-0.524192,0.109903,0.392507,-0.157149,0.0
3.9344,-0.015219,0.523669,-0.524192,0.109903,0.392507,-0.157149,0.0
3.9849,-0.015219,0.523669,-0.524192,0.109903,0.392507,-0.157149,0.0
4.0355,-0.015219,0.523669,-0.524192,0.109903,0.392507,-0.157149,0.0
4.0858,-0.015219,0.523669,-0.524192,0.109903,0.392507,-0.157149,0.0
4.1363,-0.015219,0.523669,-0.524192,0.109903,0.392507,-0.157149,0.0
4.1867,-0.015219,0.523669,-0.524192,0.109903,0.392507,-0.157149,0.0
4.2372,-0.015219,0.523669,-0.524192,0.109903,0.392507,-0.157149,0.0
4.2876,-0.015219,0.523669,-0.524192,0.109903,0.392507,-0.157149,0.0
4.338,-0.015219,0.523669,-0.524192,0.109903,0.392507,-0.157149,0.0
4.3885,-0.015219,0.523669,-0.524192,0.109903,0.392507,-0.157149,0.0
4.4389,-0.015219,0.523669,-0.524192,0.109903,0.392507,-0.157149,0.0
4.4893,-0.015219,0.523669,-0.524192,0.109903,0.392507,-0.157149,0.0
4.5399,-0.015219,0.523669,-0.524192,0.109903,0.392507,-0.157149,0.0
4.5904,-0.015219,0.523669,-0.524192,0.109903,0.392507,-0.157149,0.0
4.6408,-0.015219,0.523669,-0.524192,0.109903,0.392507,-0.157149,0.0
4.6912,-0.015219,0.523669,-0.524192,0.109903,0.392507,-0.157149,0.0
4.7416,-0.015219,0.523669,-0.524192,0.109903,0.392507,-0.157149,0.0
4.7921,-0.015219,0.523669,-0.524192,0.109903,0.392507,-0.157149,0.0
4.8425,-0.015219,0.523669,-0.524192,0.109903,0.392507,-0.157149,0.0
4.8929,-0.015219,0.523669,-0.524192,0.109903,0.392507,-0.157149,0.0
4.9433,-0.015219,0.523669,-0.524192,0.109903,0.392507,-0.157149,0.0
4.9938,-0.015219,0.523669,-0.524192,0.109903,0.392507,-0.157149,0.0
5.0442,-0.015219,0.523669,-0.524192,0.109903,0.392507,-0.157149,0.0
5.0947,-0.015219,0.523669,-0.524192,0.109903,0.392507,-0.157149,0.0
5.1452,-0.015219,0.523669,-0.524192,0.109903,0.392507,-0.157149,0.0
5.1955,-0.015219,0.523669,-0.524192,0.109903,0.392507,-0.157149,0.0
5.2461,-0.015219,0.523669,-0.524192,0.109903,0.392507,-0.157149,0.0
5.2964,-0.015219,0.523669,-0.524192,0.109903,0.392507,-0.157149,0.0
5.3469,-0.015219,0.523669,-0.524192,0.109903,0.392507,-0.157149,0.0
5.3972,-0.015219,0.523669,-0.524192,0.109903,0.392507,-0.157149,0.0
5.4477,-0.015219,0.523669,-0.524192,0.109903,0.392507,-0.157149,0.0
5.4981,-0.015219,0.523669,-0.524192,0.109903,0.392507,-0.157149,0.0
5.5486,-0.015219,0.523669,-0.524192,0.109903,0.392507,-0.157149,0.0
5.5991,-0.015219,0.523669,-0.524192,0.109903,0.392507,-0.157149,0.0
5.6495,-0.015219,0.523669,-0.524192,0.109903,0.392507,-0.157149,0.0
5.7,-0.015219,0.523669,-0.524192,0.109903,0.392507,-0.157149,0.0
5.7505,-0.015219,0.523669,-0.524192,0.109903,0.392507,-0.157149,0.0
5.8009,-0.015219,0.523669,-0.524192,0.109903,0.392507,-0.157149,0.0
5.8514,-0.015219,0.523669,-0.524192,0.109903,0.392507,-0.157149,0.0
5.9017,-0.015219,0.523669,-0.524192,0.109903,0.392507,-0.157149,0.0
5.9522,-0.015219,0.523669,-0.524192,0.109903,0.392507,-0.157149,0.0
6.0026,-0.015219,0.523669,-0.524192,0.109903,0.392507,-0.157149,0.0
6.053,-0.015219,0.523669,-0.524192,0.109903,0.392507,-0.157149,0.0
6.1035,-0.015219,0.523669,-0.524192,0.109903,0.392507,-0.157149,0.0
6.154,-0.015219,0.523669,-0.524192,0.109903,0.392507,-0.157149,0.0
6.2044,-0.015219,0.523669,-0.524192,0.109903,0.392507,-0.157149,0.0
6.2549,-0.015219,0.523669,-0.524192,0.109903,0.392507,-0.157149,0.0
6.3054,-0.015219,0.523669,-0.524192,0.109903,0.392507,-0.157149,0.0
6.3558,-0.015219,0.523669,-0.524192,0.109903,0.392507,-0.157149,0.0
6.4063,-0.015219,0.523669,-0.524192,0.109903,0.392507,-0.157149,0.0
6.4568,-0.015219,0.523669,-0.524192,0.109903,0.392507,-0.157149,0.0
6.5071,-0.015219,0.523669,-0.524192,0.109903,0.392507,-0.157149,0.0
6.5576,-0.015219,0.523669,-0.524192,0.109903,0.392507,-0.157149,0.0
6.6079,-0.015219,0.523669,-0.524192,0.109903,0.392507,-0.157149,0.0
6.6584,-0.015219,0.523669,-0.524192,0.109903,0.392507,-0.157149,0.0
6.7088,-0.015219,0.523669,-0.524192,0.109903,0.392507,-0.157149,0.0
6.7593,-0.015219,0.523669,-0.524192,0.109903,0.392507,-0.157149,0.0
6.8099,-0.015219,0.523669,-0.524192,0.109903,0.392507,-0.157149,0.0
6.8603,-0.015219,0.523669,-0.524192,0.111649,0.392507,-0.157149,0.0
6.9106,-0.015219,0.523669,-0.524192,0.111649,0.392507,-0.157149,0.0
6.9612,-0.015219,0.523669,-0.524192,0.111649,0.392507,-0.157149,0.0
7.0116,-0.015219,0.523669,-0.524192,0.111649,0.392507,-0.157149,0.0
7.062,-0.015219,0.523669,-0.524192,0.111649,0.392507,-0.157149,0.0
7.1123,-0.015219,0.523669,-0.524192,0.111649,0.392507,-0.157149,0.0
7.1628,-0.015219,0.523669,-0.524192,0.111649,0.392507,-0.157149,0.0
7.2132,-0.015219,0.523669,-0.524192,0.111649,0.392507,-0.157149,0.0
7.2637,-0.015219,0.523669,-0.524192,0.111649,0.392507,-0.157149,0.0
7.3141,-0.015219,0.523669,-0.524192,0.111649,0.392507,-0.157149,0.0
7.3645,-0.015219,0.523669,-0.524192,0.111649,0.392507,-0.157149,0.0
7.415,-0.015219,0.523669,-0.524192,0.111649,0.392507,-0.157149,0.0
7.4654,-0.015219,0.523669,-0.524192,0.111649,0.392507,-0.157149,0.0
7.5158,-0.015219,0.523669,-0.524192,0.111649,0.392507,-0.157149,0.0
7.5663,-0.015219,0.523669,-0.524192,0.111649,0.392507,-0.157149,0.0
7.6167,-0.015219,0.523669,-0.524192,0.111649,0.392507,-0.157149,0.0
7.6672,-0.015219,0.523669,-0.524192,0.111649,0.392507,-0.157149,0.0
7.7176,-0.015219,0.523669,-0.524192,0.111649,0.392507,-0.157149,0.0
7.7681,-0.015219,0.523669,-0.524192,0.111649,0.392507,-0.157149,0.0
7.8186,-0.015219,0.523669,-0.524192,0.111649,0.392507,-0.157149,0.0
7.869,-0.015219,0.523669,-0.524192,0.111649,0.392507,-0.157149,0.0
7.9194,-0.015219,0.523669,-0.524192,0.111649,0.392507,-0.157149,0.0
7.97,-0.015219,0.523669,-0.524192,0.111649,0.392507,-0.157149,0.0
8.0204,-0.015219,0.523669,-0.524192,0.111649,0.392507,-0.157149,0.0
8.0708,-0.015219,0.523669,-0.524192,0.111649,0.392507,-0.157149,0.0
8.1213,-0.015219,0.523669,-0.524192,0.111649,0.392507,-0.157149,0.0
8.1716,-0.015219,0.523669,-0.524192,0.111649,0.392507,-0.157149,0.0
8.2221,-0.015219,0.523669,-0.524192,0.111649,0.392507,-0.157149,0.0
8.2724,-0.015219,0.523669,-0.524192,0.111649,0.392507,-0.157149,0.0
8.3229,-0.015219,0.523669,-0.524192,0.111649,0.392507,-0.157149,0.0
8.3734,-0.015219,0.523669,-0.524192,0.111649,0.392507,-0.157149,0.0
8.4237,-0.015219,0.523669,-0.524192,0.111649,0.392507,-0.157149,0.0
8.4742,-0.015219,0.523669,-0.524192,0.111649,0.392507,-0.157149,0.0
8.5247,-0.015219,0.523669,-0.524192,0.111649,0.392507,-0.157149,0.0
8.5752,-0.015219,0.523669,-0.524192,0.111649,0.392507,-0.157149,0.0
8.6257,-0.015219,0.523669,-0.524192,0.111649,0.392507,-0.157149,0.0
8.6761,-0.015219,0.523669,-0.524192,0.111649,0.392507,-0.157149,0.0
8.7265,-0.015219,0.523669,-0.524192,0.111649,0.392507,-0.157149,0.0
8.777,-0.015219,0.523669,-0.524192,0.111649,0.392507,-0.157149,0.0
8.8274,-0.015219,0.523669,-0.524192,0.111649,0.392507,-0.157149,0.0
8.8778,-0.015219,0.523669,-0.524192,0.111649,0.392507,-0.157149,0.0
8.9284,-0.015219,0.523669,-0.524192,0.111649,0.392507,-0.157149,0.0
8.9787,-0.015219,0.523669,-0.524192,0.111649,0.392507,-0.157149,0.0
9.0291,-0.015219,0.523669,-0.524192,0.111649,0.392507,-0.157149,0.0
9.0796,-0.015219,0.523669,-0.524192,0.111649,0.392507,-0.157149,0.0
9.1302,-0.015219,0.523669,-0.524192,0.111649,0.392507,-0.157149,0.0
9.1807,-0.015219,0.523669,-0.524192,0.111649,0.392507,-0.157149,0.0
9.2311,-0.015219,0.523669,-0.524192,0.111649,0.392507,-0.157149,0.0
9.2816,-0.015219,0.523669,-0.524192,0.111649,0.392507,-0.157149,0.0
9.3318,-0.015219,0.523669,-0.524192,0.111649,0.392507,-0.157149,0.0
9.382,-0.015219,0.523669,-0.524192,0.111649,0.392507,-0.157149,0.0
9.4323,-0.015219,0.523669,-0.524192,0.111649,0.392507,-0.157149,0.0
9.4826,-0.015219,0.523669,-0.524192,0.111649,0.392507,-0.157149,0.0
9.533,-0.015219,0.523669,-0.524192,0.111649,0.392507,-0.157149,0.0
9.5832,-0.015219,0.523669,-0.524192,0.111649,0.392507,-0.157149,0.0
9.6335,-0.015219,0.523669,-0.524192,0.111649,0.392507,-0.157149,0.0
9.6838,-0.015219,0.523669,-0.524192,0.111649,0.392507,-0.157149,0.0
9.7342,-0.015219,0.523669,-0.524192,0.111649,0.392507,-0.157149,0.0
9.7846,-0.015219,0.523669,-0.524192,0.111649,0.392507,-0.157149,0.0
9.8348,-0.015219,0.523669,-0.524192,0.111649,0.392507,-0.157149,0.0
9.8854,-0.015219,0.523669,-0.524192,0.111649,0.392507,-0.157149,0.0
9.9357,-0.015219,0.523669,-0.524192,0.111649,0.392507,-0.157149,0.0
9.9861,-0.015219,0.523669,-0.524192,0.111649,0.392507,-0.157149,0.0
10.0363,-0.015219,0.523669,-0.524192,0.111649,0.392507,-0.157149,0.0
10.0867,-0.015219,0.523669,-0.524192,0.111649,0.392507,-0.157149,0.0
10.1369,-0.015219,0.523669,-0.524192,0.111649,0.392507,-0.157149,0.0
10.1873,-0.015219,0.523669,-0.524192,0.111649,0.392507,-0.157149,0.0
10.2377,-0.015219,0.523669,-0.524192,0.111649,0.392507,-0.157149,0.0
10.2878,-0.015219,0.523669,-0.524192,0.111649,0.392507,-0.157149,0.0
10.3381,-0.015219,0.523669,-0.524192,0.103865,0.404515,-0.157149,0.0
10.3884,-0.012881,0.523669,-0.524192,0.106133,0.480088,-0.157149,0.0
10.4388,-0.003142,0.523669,-0.524192,0.117094,0.561944,-0.157149,0.0
10.489,0.01131,0.523669,-0.524192,0.118665,0.621075,-0.157149,0.0
10.5393,0.029234,0.521836,-0.525414,0.118665,0.623973,-0.157149,0.0
10.5898,0.043773,0.521836,-0.543338,0.118665,0.607916,-0.157149,0.0
10.6402,0.049044,0.521836,-0.567511,0.118665,0.600987,-0.157149,0.0
10.6905,0.050684,0.521836,-0.595559,0.118665,0.603011,-0.157149,0.0
10.7409,0.050684,0.521836,-0.618178,0.121056,0.606292,-0.157149,0.0
10.7912,0.050684,0.521836,-0.6353,0.144583,0.618457,-0.157149,0.0
10.8416,0.050684,0.521836,-0.641077,0.16893,0.620412,-0.157149,0.0
10.8919,0.050684,0.521836,-0.643363,0.171671,0.620412,-0.157149,0.0
10.9423,0.050684,0.521836,-0.641059,0.171671,0.621686,-0.157149,0.0
10.9927,0.050684,0.521836,-0.634619,0.159837,0.627533,-0.157149,0.0
11.0429,0.050684,0.521836,-0.627603,0.157586,0.627533,-0.157149,0.0
11.0933,0.050684,0.521836,-0.620028,0.142489,0.627533,-0.157149,0.0
11.1435,0.050684,0.521836,-0.61275,0.131772,0.627533,-0.157149,0.0
11.1939,0.050684,0.521836,-0.605542,0.124617,0.617742,-0.157149,0.0
11.2442,0.050684,0.521836,-0.595105,0.111666,0.60076,-0.157149,0.0
11.2946,0.050684,0.523599,-0.587041,0.10917,0.565085,-0.157149,0.0
11.3449,0.050684,0.523599,-0.57348,0.10917,0.516949,-0.157149,0.0
11.3952,0.050684,0.523599,-0.563532,0.10917,0.464031,-0.157149,0.0
11.4456,0.050684,0.523599,-0.55566,0.10917,0.416436,-0.157149,0.0
11.4961,0.050684,0.523599,-0.552519,0.10917,0.392751,-0.157149,0.0
11.5463,0.050684,0.523599,-0.552519,0.10917,0.390832,-0.157149,0.0
11.5966,0.050684,0.523599,-0.552519,0.107076,0.388615,-0.157149,0.0
11.6469,0.050684,0.523599,-0.552519,0.104004,0.38399,-0.157149,0.0
11.6974,0.050684,0.523599,-0.552519,0.095993,0.381581,-0.157149,0.0
11.7477,0.050684,0.523599,-0.552519,0.085364,0.362086,-0.159925,0.0
11.798,0.050684,0.523599,-0.552519,0.082729,0.340584,-0.159925,0.0
11.8483,0.050684,0.523599,-0.552519,0.082729,0.323026,-0.159925,0.0
11.899,0.050684,0.523599,-0.552519,0.082729,0.318435,-0.159925,0.0
11.9496,0.050684,0.523599,-0.552519,0.082729,0.318435,-0.159925,0.0
12.0001,0.050684,0.523599,-0.552519,0.082729,0.322554,-0.159925,0.0
12.0505,0.050684,0.523599,-0.552519,0.082729,0.325207,-0.159925,0.0
12.101,0.050684,0.523599,-0.552519,0.082729,0.327389,-0.159925,0.0
12.1514,0.050684,0.523599,-0.552519,0.082729,0.335086,-0.159925,0.0
12.2019,0.050684,0.523599,-0.552519,0.082729,0.350078,-0.159925,0.0
12.2523,0.050684,0.523599,-0.552519,0.082729,0.364652,-0.159925,0.0
12.3026,0.050684,0.523599,-0.552519,0.082729,0.381372,-0.159925,0.0
12.3531,0.050684,0.523599,-0.552519,0.082729,0.394043,-0.159925,0.0
12.4036,0.050684,0.523599,-0.552519,0.082729,0.39879,-0.159925,0.0
12.4541,0.050684,0.523599,-0.552519,0.082729,0.39879,-0.159925,0.0
12.5044,0.050684,0.523599,-0.550424,0.082729,0.39879,-0.159925,0.0
12.555,0.050684,0.523599,-0.550424,0.082729,0.39879,-0.159925,0.0
12.6055,0.050684,0.523599,-0.550424,0.082729,0.39879,-0.159925,0.0
12.6559,0.050684,0.523599,-0.550424,0.082729,0.394148,-0.159925,0.0
12.7063,0.050684,0.523599,-0.550424,0.082729,0.391861,-0.159925,0.0
12.7567,0.050684,0.523599,-0.550424,0.082729,0.384496,-0.159925,0.0
12.8072,0.050684,0.523599,-0.550424,0.082729,0.380185,-0.159925,0.0
12.8576,0.050684,0.523599,-0.549273,0.082729,0.378283,-0.159925,0.0
12.9082,0.050684,0.523599,-0.534158,0.082729,0.362871,-0.159925,0.0
12.9586,0.050684,0.523599,-0.500665,0.082729,0.327563,-0.159925,0.0
13.0091,0.050684,0.523599,-0.460732,0.082729,0.264278,-0.159925,0.0
13.0595,0.050684,0.523599,-0.421445,0.082729,0.164654,-0.159925,0.0
13.1099,0.050684,0.523599,-0.393746,0.082729,0.083444,-0.159925,0.0
13.1605,0.050684,0.523599,-0.380796,0.082729,0.034889,-0.159925,0.0
13.211,0.050684,0.523599,-0.379365,0.082729,0.028693,-0.159925,0.0
13.2614,0.050684,0.523599,-0.379365,0.082729,0.033702,-0.159925,0.0
13.3118,0.050684,0.523599,-0.379365,0.082729,0.045413,-0.159925,0.0
13.3622,0.050684,0.523599,-0.379365,0.082729,0.059882,-0.159925,0.0
13.4127,0.050684,0.523599,-0.379365,0.082729,0.078854,-0.159925,0.0
13.4631,0.050684,0.523599,-0.379365,0.082729,0.092223,-0.159925,0.0
13.5136,0.050684,0.523599,-0.376799,0.082729,0.094405,-0.159925,0.0
13.564,0.050684,0.523599,-0.364163,0.082729,0.075224,-0.159925,0.0
13.6145,0.050684,0.523599,-0.344947,0.082729,0.040038,-0.159925,0.0
13.665,0.050684,0.523599,-0.320914,0.082729,0.0,-0.159925,0.0
13.7155,0.050684,0.523599,-0.293425,0.082729,-0.041678,-0.159925,0.0
13.766,0.050684,0.523599,-0.274401,0.082729,-0.074491,-0.159925,0.0
13.8163,0.050684,0.523599,-0.261817,0.082729,-0.088506,-0.159925,0.0
13.8668,0.050684,0.523599,-0.258501,0.082729,-0.090164,-0.159925,0.0
13.9172,0.050684,0.523599,-0.258501,0.082729,-0.087877,-0.159925,0.0
13.9676,0.050684,0.523599,-0.258501,0.082729,-0.087877,-0.159925,0.0
14.0181,0.050684,0.523599,-0.258501,0.082729,-0.087877,-0.159925,0.0
14.0685,0.050684,0.523599,-0.258501,0.082729,-0.087877,-0.159925,0.0
14.119,0.050684,0.523599,-0.258501,0.082729,-0.087877,-0.159925,0.0
14.1694,0.050684,0.523599,-0.258501,0.082729,-0.087877,-0.159925,0.0
14.2199,0.050684,0.523599,-0.258501,0.082729,-0.087877,-0.159925,0.0
14.2705,0.050684,0.523599,-0.258501,0.082729,-0.087877,-0.159925,0.0
14.321,0.050684,0.523599,-0.258501,0.082729,-0.087877,-0.159925,0.0
14.3713,0.050684,0.523599,-0.258501,0.082729,-0.087877,-0.159925,0.0
14.4217,0.050684,0.523599,-0.258501,0.08772,-0.087877,-0.159925,0.0
14.4722,0.050684,0.523599,-0.258501,0.094178,-0.087877,-0.159925,0.0
14.5226,0.050684,0.523599,-0.258501,0.093672,-0.087877,-0.159925,0.0
14.5731,0.044611,0.523599,-0.258501,0.103934,-0.087877,-0.159925,0.0
14.6235,0.031329,0.523599,-0.258501,0.116728,-0.087877,-0.159925,0.0
14.6741,0.014678,0.523599,-0.258501,0.118194,-0.087877,-0.159925,0.0
14.7246,-0.004381,0.523599,-0.258501,0.118194,-0.087877,-0.159925,0.0
14.775,-0.02447,0.523599,-0.258501,0.118194,-0.087877,-0.159925,0.0
14.8255,-0.045588,0.523599,-0.258501,0.118194,-0.086237,-0.159925,0.0
14.8759,-0.068452,0.523599,-0.258501,0.118194,-0.086237,-0.159925,0.0
14.9263,-0.093777,0.523599,-0.258501,0.118194,-0.079098,-0.159925,0.0
14.9767,-0.125367,0.523599,-0.258501,0.118194,-0.065432,-0.159925,0.0
15.0272,-0.155683,0.523599,-0.258501,0.118194,-0.045536,-0.159925,0.0
15.0777,-0.191271,0.523599,-0.258501,0.118194,-0.02995,-0.159925,0.0
15.1281,-0.221098,0.523599,-0.258501,0.118194,-0.0148,-0.159925,0.0
15.1786,-0.249181,0.523599,-0.258501,0.118194,-0.009687,-0.159925,0.0
15.229,-0.274069,0.523599,-0.258501,0.118194,-0.009687,-0.159925,0.0
15.2795,-0.295921,0.523599,-0.258501,0.118194,-0.009687,-0.159925,0.0
15.33,-0.314875,0.523599,-0.258501,0.118194,-0.009687,-0.159925,0.0
15.3805,-0.331141,0.523599,-0.258501,0.118194,-0.009687,-0.159925,0.0
15.431,-0.347268,0.523599,-0.258501,0.118194,-0.009687,-0.159925,0.0
15.4814,-0.360114,0.523599,-0.258501,0.118194,-0.009687,-0.159925,0.0
15.5318,-0.372383,0.523599,-0.258501,0.118194,-0.009687,-0.159925,0.0
15.5822,-0.388388,0.523599,-0.258501,0.118194,-0.009687,-0.159925,0.0
15.6327,-0.404986,0.523599,-0.258501,0.118194,-0.009687,-0.159925,0.0
15.6831,-0.422858,0.523599,-0.258501,0.118194,-0.009687,-0.159925,0.0
15.7335,-0.439177,0.523599,-0.258501,0.118194,-0.009687,-0.159925,0.0
15.784,-0.451761,0.523599,-0.258501,0.118194,-0.009687,-0.159925,0.0
15.8346,-0.459248,0.523599,-0.258501,0.118194,0.0,-0.159925,0.0
15.885,-0.46047,0.523599,-0.258501,0.118194,0.016493,-0.159925,0.0
15.9354,-0.46047,0.523599,-0.258501,0.118194,0.036774,-0.159925,0.0
15.986,-0.46047,0.523599,-0.258501,0.118194,0.053198,-0.159925,0.0
16.0364,-0.46047,0.523599,-0.258501,0.118194,0.064071,-0.159925,0.0
16.0868,-0.46047,0.523599,-0.258501,0.118194,0.080163,-0.159925,0.0
16.1372,-0.46047,0.523599,-0.258501,0.118194,0.098594,-0.159925,0.0
16.1877,-0.46047,0.523599,-0.258501,0.118194,0.125768,-0.159925,0.0
16.2381,-0.46047,0.523599,-0.258501,0.118194,0.154182,-0.159925,0.0
16.2886,-0.46047,0.523599,-0.258501,0.118194,0.188513,-0.159925,0.0
16.3391,-0.458236,0.523599,-0.258501,0.118194,0.228882,-0.159925,0.0
16.3896,-0.455758,0.523599,-0.258501,0.118194,0.260892,-0.159925,0.0
16.4401,-0.454396,0.523599,-0.258501,0.118194,0.293285,-0.159925,0.0
16.4905,-0.454396,0.523599,-0.258501,0.120602,0.329047,-0.159925,0.0
16.541,-0.454396,0.523599,-0.258501,0.139923,0.366362,-0.159925,0.0
16.5914,-0.454396,0.523599,-0.258501,0.17757,0.404253,-0.159925,0.0
16.6418,-0.454396,0.523599,-0.258501,0.225601,0.439875,-0.159925,0.0
16.6923,-0.454396,0.523599,-0.258501,0.277333,0.462547,-0.159925,0.0
16.7427,-0.454396,0.523599,-0.256878,0.320984,0.483229,-0.159925,0.0
16.7932,-0.454396,0.523599,-0.251746,0.329518,0.49419,-0.159925,0.0
16.8436,-0.454396,0.523599,-0.241274,0.329518,0.504138,-0.159925,0.0
16.894,-0.454396,0.523599,-0.221255,0.329518,0.504243,-0.159925,0.0
16.9445,-0.454396,0.523599,-0.194447,0.329518,0.50152,-0.159925,0.0
16.995,-0.454396,0.523599,-0.163258,0.329518,0.489862,-0.159925,0.0
17.0455,-0.454396,0.523599,-0.142314,0.329518,0.472705,-0.159925,0.0
17.096,-0.454396,0.523599,-0.130411,0.329518,0.453314,-0.159925,0.0
17.1464,-0.454396,0.523599,-0.124983,0.329518,0.450888,-0.159925,0.0
17.1968,-0.454396,0.523599,-0.123691,0.329518,0.450888,-0.159925,0.0
17.2472,-0.454396,0.523599,-0.123691,0.329518,0.452965,-0.159925,0.0
17.2976,-0.454396,0.523599,-0.121335,0.329518,0.455601,-0.159925,0.0
17.3481,-0.454396,0.523599,-0.118787,0.329518,0.460069,-0.159925,0.0
17.3985,-0.454396,0.523599,-0.116239,0.329518,0.467626,-0.159925,0.0
17.449,-0.454396,0.523599,-0.111788,0.329518,0.474887,-0.159925,0.0
17.4995,-0.454396,0.523599,-0.106378,0.329518,0.475934,-0.159925,0.0
17.5499,-0.454396,0.523599,-0.101299,0.329518,0.475934,-0.159925,0.0
17.6005,-0.454396,0.523599,-0.096709,0.329518,0.475934,-0.159925,0.0
17.6509,-0.454396,0.523599,-0.090076,0.329518,0.475934,-0.159925,0.0
17.7013,-0.454396,0.523599,-0.087406,0.329518,0.475934,-0.159925,0.0
17.7518,-0.454396,0.523599,-0.086027,0.329518,0.475934,-0.159925,0.0
17.8022,-0.454396,0.523599,-0.086027,0.329518,0.473019,-0.159925,0.0
17.8526,-0.454396,0.523599,-0.086027,0.329518,0.45677,-0.159925,0.0
17.903,-0.454396,0.523599,-0.086027,0.329518,0.43614,-0.159925,0.0
17.9535,-0.454396,0.523599,-0.085067,0.329518,0.408826,-0.159925,0.0
18.004,-0.454396,0.523599,-0.085067,0.329518,0.396486,-0.159925,0.0
18.0543,-0.454396,0.523599,-0.083322,0.351335,0.392402,-0.159925,0.0
18.1049,-0.454396,0.523599,-0.083706,0.381232,0.392402,-0.159925,0.0
18.1554,-0.454396,0.523599,-0.083706,0.38193,0.392402,-0.159925,0.0
18.2059,-0.454396,0.523599,-0.083706,0.38193,0.389366,-0.159925,0.0
18.2563,-0.454396,0.523599,-0.08135,0.38193,0.364477,-0.159925,0.0
18.3067,-0.454396,0.523599,-0.08135,0.38193,0.345296,-0.159925,0.0
18.3571,-0.454396,0.523599,-0.08135,0.38193,0.330373,-0.159925,0.0
18.4075,-0.454396,0.523599,-0.08135,0.38193,0.328227,-0.159925,0.0
18.458,-0.454396,0.523599,-0.076515,0.38193,0.321751,-0.159925,0.0
18.5084,-0.454396,0.523599,-0.057177,0.38193,0.294071,-0.159925,0.0
18.5588,-0.454396,0.523599,-0.025866,0.38193,0.252322,-0.159925,0.0
18.6093,-0.453419,0.521609,0.018535,0.38193,0.201481,-0.159925,0.0
18.6597,-0.443593,0.521609,0.042289,0.37741,0.152489,-0.159925,0.0
18.7103,-0.438601,0.521609,0.034697,0.356815,0.158808,-0.159925,0.0
18.7608,-0.428286,0.521609,0.034697,0.351527,0.126222,-0.159925,0.0
18.8112,-0.420764,0.521609,0.034697,0.351527,0.105121,-0.159925,0.0
18.8617,-0.413626,0.521609,0.034697,0.351527,0.086725,-0.159925,0.0
18.9121,-0.407744,0.521609,0.034697,0.351527,0.07292,-0.159925,0.0
18.9626,-0.404532,0.521609,0.028571,0.351527,0.066427,-0.159925,0.0
19.0129,-0.397795,0.521609,0.017122,0.353324,0.074316,-0.159925,0.0
19.0636,-0.389627,0.521609,0.001868,0.356134,0.085853,-0.159925,0.0
19.1142,-0.382663,0.521609,-0.00644,0.370359,0.092834,-0.159925,0.0
19.1646,-0.377881,0.521609,-0.013265,0.37926,0.092834,-0.159925,0.0
19.2148,-0.370987,0.521609,-0.017925,0.380691,0.092834,-0.159925,0.0
19.2655,-0.368718,0.521609,-0.018867,0.380691,0.092834,-0.159925,0.0
19.3159,-0.368718,0.521609,-0.018867,0.380691,0.092834,-0.159925,0.0
19.3664,-0.368718,0.521609,-0.018867,0.380691,0.092834,-0.159925,0.0
19.4168,-0.368718,0.521609,-0.018867,0.380691,0.092834,-0.159925,0.0
19.4672,-0.368718,0.521609,-0.018867,0.380691,0.092834,-0.159925,0.0
19.5177,-0.368718,0.521609,-0.018867,0.380691,0.092834,-0.159925,0.0
19.5681,-0.368718,0.521609,-0.018867,0.380691,0.092834,-0.159925,0.0
19.6186,-0.368718,0.521609,-0.018867,0.380691,0.092834,-0.159925,0.0
19.669,-0.368718,0.518136,-0.018867,0.380691,0.092834,-0.159925,0.0
19.7194,-0.368718,0.494836,-0.018867,0.380691,0.092834,-0.159925,0.0
19.77,-0.368718,0.451883,-0.018867,0.380691,0.092834,-0.159925,0.0
19.8205,-0.368718,0.40085,-0.018867,0.380691,0.092834,-0.159925,0.0
19.871,-0.368718,0.35034,-0.018867,0.381564,0.12802,-0.154723,0.0
19.9215,-0.368718,0.328122,-0.018867,0.381564,0.163799,-0.154723,0.0
19.9718,-0.368718,0.316428,-0.018867,0.381564,0.16242,-0.154723,0.0
20.0222,-0.368718,0.302169,-0.023038,0.381564,0.160466,-0.154723,0.0
20.0728,-0.368718,0.286199,-0.025517,0.381564,0.160466,-0.154723,0.0
20.1232,-0.368718,0.267891,-0.025517,0.381564,0.162263,-0.154723,0.0
20.1737,-0.368718,0.247732,-0.025517,0.381564,0.164253,-0.154723,0.0
20.224,-0.368718,0.226072,-0.025517,0.381564,0.164253,-0.154723,0.0
20.2745,-0.368718,0.204046,-0.025517,0.381564,0.164253,-0.154723,0.0
20.325,-0.368718,0.179734,-0.025517,0.381564,0.168826,-0.154723,0.0
20.3755,-0.368718,0.159488,-0.025517,0.381564,0.179263,-0.154723,0.0
20.426,-0.368718,0.140412,-0.025517,0.381564,0.19724,-0.154723,0.0
20.4764,-0.368718,0.119939,-0.025517,0.381564,0.220138,-0.154723,0.0
20.5268,-0.368718,0.098419,-0.02337,0.381564,0.234747,-0.154723,0.0
20.5773,-0.368718,0.072396,-0.011135,0.381564,0.234747,-0.154723,0.0
20.6277,-0.368718,0.046775,0.0,0.381564,0.234747,-0.154723,0.0
20.6781,-0.368718,0.018518,0.009163,0.381564,0.234747,-0.154723,0.0
20.7286,-0.368718,-0.012078,0.016546,0.381564,0.234747,-0.154723,0.0
20.7791,-0.363482,-0.032515,0.020822,0.381564,0.234747,-0.154723,0.0
20.8295,-0.355192,-0.039165,0.020839,0.381564,0.234747,-0.154723,0.0
20.88,-0.347844,-0.039165,0.020839,0.381564,0.234747,-0.154723,0.0
20.9305,-0.338367,-0.039165,0.020839,0.381564,0.234747,-0.154723,0.0
20.9809,-0.33163,-0.039165,0.020839,0.381564,0.234747,-0.154723,0.0
21.0313,-0.321978,-0.039165,0.020839,0.381564,0.234747,-0.154723,0.0
21.0817,-0.310895,-0.039165,0.020839,0.381564,0.232775,-0.154723,0.0
21.1322,-0.291069,-0.039165,0.020839,0.381564,0.227504,-0.154723,0.0
21.1827,-0.268955,-0.039165,0.020839,0.381564,0.220522,-0.154723,0.0
21.2331,-0.246249,-0.039165,0.020839,0.381564,0.217957,-0.154723,0.0
21.2835,-0.225758,-0.039165,0.020839,0.381564,0.217957,-0.154723,0.0
21.3339,-0.207205,-0.039165,0.020839,0.379574,0.217957,-0.154723,0.0
21.3844,-0.195215,-0.037228,0.020839,0.379574,0.217957,-0.154723,0.0
21.4348,-0.187518,-0.035308,0.020839,0.378073,0.217957,-0.154723,0.0
21.4854,-0.187518,-0.033318,0.020839,0.378073,0.217957,-0.154723,0.0
21.5358,-0.187518,-0.033318,0.020839,0.378073,0.217957,-0.154723,0.0
21.5862,-0.187518,-0.033318,0.020839,0.378073,0.217957,-0.154723,0.0
21.6367,-0.187518,-0.033318,0.020839,0.378073,0.217957,-0.154723,0.0
21.6871,-0.187518,-0.033318,0.020839,0.378073,0.217957,-0.154723,0.0
21.7375,-0.187518,-0.033318,0.020839,0.378073,0.22136,-0.154723,0.0
21.788,-0.187518,-0.033318,0.020839,0.378073,0.229197,-0.154723,0.0
21.8384,-0.187518,-0.033318,0.020839,0.378073,0.240035,-0.154723,0.0
21.8889,-0.187518,-0.033318,0.020839,0.375368,0.259827,-0.154723,0.0
21.9393,-0.187518,-0.033318,0.020839,0.370586,0.280509,-0.154723,0.0
21.9899,-0.187518,-0.033318,0.020839,0.365245,0.298731,-0.154723,0.0
22.0404,-0.187518,-0.033318,0.020839,0.347582,0.320896,-0.154723,0.0
22.0907,-0.187518,-0.033318,0.020839,0.338419,0.326132,-0.154723,0.0
22.1413,-0.187518,-0.033318,0.020839,0.338419,0.323287,-0.154723,0.0
22.1917,-0.187518,-0.033318,0.020839,0.337442,0.318505,-0.154723,0.0
22.2422,-0.187518,-0.033318,0.020839,0.337442,0.313583,-0.154723,0.0
22.2927,-0.187518,-0.033318,0.020839,0.333742,0.302518,-0.154723,0.0
22.3431,-0.187518,-0.026232,0.020839,0.313356,0.29346,-0.154723,0.0
22.3935,-0.18949,-0.008674,0.020839,0.298259,0.270229,-0.154723,0.0
22.444,-0.18949,0.020036,0.020839,0.243753,0.24953,-0.157917,0.0
22.4944,-0.18949,0.054507,0.020839,0.182125,0.237452,-0.164375,0.0
22.545,-0.18949,0.09074,0.020839,0.131668,0.227067,-0.177256,0.0
22.5955,-0.18949,0.127409,0.020839,0.126641,0.212738,-0.196734,0.0
22.6458,-0.18949,0.162612,0.020839,0.126641,0.186698,-0.2119,0.0
22.6963,-0.18949,0.203872,0.020839,0.126641,0.14954,-0.218829,0.0
22.7468,-0.18949,0.241484,0.017244,0.126641,0.126327,-0.220173,0.0
22.7972,-0.18949,0.286025,0.016266,0.126641,0.09978,-0.220173,0.0
22.8477,-0.18949,0.327092,0.016266,0.126641,0.079587,-0.220173,0.0
22.8981,-0.18949,0.369085,0.016266,0.126641,0.067771,-0.223943,0.0
22.9486,-0.18949,0.413015,0.016266,0.125088,0.054384,-0.229825,0.0
22.999,-0.18949,0.458236,0.016266,0.111404,0.029758,-0.229825,0.0
23.0494,-0.18949,0.503999,0.016266,0.109607,-0.008674,-0.229825,0.0
23.1,-0.18949,0.558278,0.016266,0.109607,-0.056252,-0.229825,0.0
23.1505,-0.18949,0.607497,0.014713,0.107338,-0.106273,-0.229825,0.0
23.2009,-0.18949,0.660223,0.014713,0.104074,-0.139696,-0.231605,0.0
23.2512,-0.18949,0.71459,0.014713,0.104074,-0.169611,-0.247802,0.0
23.3017,-0.18949,0.771104,0.014713,0.104074,-0.210085,-0.252008,0.0
23.3523,-0.18949,0.835803,0.012671,0.104074,-0.274505,-0.252008,0.0
23.4026,-0.18949,0.890676,0.004363,0.088,-0.334196,-0.252008,0.0
23.453,-0.18764,0.942652,-0.014713,0.080617,-0.363709,-0.252008,0.0
23.5035,-0.180851,0.988363,-0.040457,0.080617,-0.363378,-0.252008,0.0
23.554,-0.16338,1.032031,-0.057718,0.080617,-0.363325,-0.252008,0.0
23.6045,-0.140028,1.059694,-0.066165,0.082572,-0.363325,-0.252008,0.0
23.6549,-0.116379,1.078683,-0.070337,0.094876,-0.376258,-0.243508,0.0
23.7055,-0.095784,1.087009,-0.070337,0.119922,-0.38762,-0.243596,0.0
23.7559,-0.080617,1.087759,-0.070337,0.147096,-0.397272,-0.243596,0.0
23.8063,-0.075765,1.087759,-0.070337,0.162996,-0.398371,-0.243596,0.0
23.8567,-0.074142,1.087759,-0.070337,0.165405,-0.405178,-0.243596,0.0
23.9073,-0.074142,1.087759,-0.070337,0.172264,-0.416924,-0.243596,0.0
23.9576,-0.074142,1.083029,-0.070337,0.192143,-0.430189,-0.243596,0.0
24.0081,-0.074142,1.079347,-0.070337,0.203453,-0.438497,-0.243596,0.0
24.0586,-0.074142,1.073377,-0.070337,0.212686,-0.440765,-0.243596,0.0
24.1089,-0.074142,1.071667,-0.068574,0.219213,-0.440765,-0.243596,0.0
24.1595,-0.074142,1.070096,-0.068574,0.227469,-0.446542,-0.243596,0.0
24.21,-0.074142,1.069136,-0.068574,0.241536,-0.448724,-0.243596,0.0
24.2605,-0.074142,1.065105,-0.068574,0.245376,-0.448724,-0.243596,0.0
24.311,-0.074142,1.059048,-0.068574,0.247889,-0.448724,-0.243596,0.0
24.3614,-0.074142,1.048402,-0.06086,0.247889,-0.448724,-0.243596,0.0
24.4118,-0.074142,1.035242,-0.047037,0.247889,-0.448724,-0.243596,0.0
24.4622,-0.074142,1.014508,-0.028292,0.25679,-0.448724,-0.243596,0.0
24.5126,-0.074142,0.993668,-0.006754,0.263754,-0.454204,-0.243596,0.0
24.5631,-0.074142,0.973632,0.003124,0.268117,-0.454204,-0.243596,0.0
24.6136,-0.074142,0.959757,0.005899,0.270369,-0.449597,-0.243596,0.0
24.664,-0.074142,0.95302,0.005899,0.270369,-0.447729,-0.243596,0.0
24.7146,-0.074142,0.95302,0.005899,0.278013,-0.445042,-0.243596,0.0
24.7651,-0.074142,0.95302,0.005899,0.289829,-0.43635,-0.243596,0.0
24.8155,-0.074142,0.95302,0.005899,0.31374,-0.428897,-0.243596,0.0
24.866,-0.074142,0.95302,0.005899,0.338245,-0.428897,-0.243596,0.0
24.9165,-0.074142,0.95302,0.004136,0.352068,-0.428897,-0.243596,0.0
24.9669,-0.074142,0.95302,0.0,0.356396,-0.420572,-0.243596,0.0
25.0173,-0.074142,0.95302,-0.006964,0.377375,-0.395823,-0.243596,0.0
25.0677,-0.074142,0.95302,-0.014364,0.381634,-0.367723,-0.243596,0.0
25.1181,-0.074142,0.95302,-0.019862,0.381634,-0.344057,-0.243596,0.0
25.1686,-0.074142,0.95302,-0.022288,0.383972,-0.334335,-0.243596,0.0
25.219,-0.074142,0.95302,-0.022288,0.399454,-0.331735,-0.243596,0.0
25.2696,-0.074142,0.95302,-0.022288,0.421043,-0.331735,-0.243596,0.0
25.3201,-0.074142,0.95302,-0.02344,0.438741,-0.331735,-0.243596,0.0
25.3706,-0.074142,0.95302,-0.024574,0.457206,-0.336726,-0.243596,0.0
25.4211,-0.074142,0.95302,-0.02604,0.457206,-0.340636,-0.243596,0.0
25.4714,-0.074142,0.95302,-0.033842,0.457206,-0.340636,-0.243596,0.0
25.5218,-0.074142,0.95302,-0.036198,0.457206,-0.340636,-0.243596,0.0
25.5723,-0.074142,0.95302,-0.039933,0.457206,-0.336709,-0.243596,0.0
25.6227,-0.074142,0.95302,-0.039933,0.457206,-0.325329,-0.243596,0.0
25.6732,-0.074142,0.95302,-0.039933,0.457206,-0.306707,-0.243596,0.0
25.7235,-0.074142,0.95302,-0.039933,0.457206,-0.290894,-0.243596,0.0
25.774,-0.074142,0.95302,-0.039933,0.457206,-0.280911,-0.245463,0.0
25.8244,-0.074142,0.95302,-0.039933,0.457206,-0.281417,-0.245463,0.0
25.875,-0.074142,0.95302,-0.044715,0.457206,-0.281417,-0.245463,0.0
25.9255,-0.074142,0.95302,-0.044296,0.457206,-0.283372,-0.245463,0.0
25.9759,-0.074142,0.95302,-0.044296,0.457206,-0.283494,-0.245463,0.0
26.0262,-0.074142,0.95302,-0.044296,0.457206,-0.283494,-0.245463,0.0
26.0767,-0.074142,0.95302,-0.044296,0.455339,-0.283494,-0.245463,0.0
26.1272,-0.074142,0.95302,-0.044296,0.450714,-0.283494,-0.245463,0.0
26.1777,-0.074142,0.95302,-0.044296,0.450539,-0.283494,-0.247296,0.0
26.2281,-0.074142,0.95302,-0.044296,0.450539,-0.283494,-0.251816,0.0
26.2784,-0.074142,0.95302,-0.044296,0.450539,-0.283494,-0.251816,0.0
26.3289,-0.074142,0.95302,-0.044296,0.450539,-0.281469,-0.251816,0.0
26.3793,-0.073164,0.95302,-0.044296,0.450539,-0.281399,-0.251816,0.0
26.4299,-0.071401,0.95302,-0.048031,0.450539,-0.278694,-0.251816,0.0
26.4803,-0.071401,0.95302,-0.055484,0.450539,-0.260665,-0.251816,0.0
26.5308,-0.071401,0.95302,-0.062797,0.450539,-0.239704,-0.251816,0.0
26.5813,-0.071401,0.95302,-0.069935,0.450539,-0.219423,-0.251816,0.0
26.6316,-0.071401,0.95302,-0.07477,0.450539,-0.207921,-0.251816,0.0
26.682,-0.071401,0.95302,-0.07477,0.450539,-0.205408,-0.251816,0.0
26.7324,-0.071401,0.95302,-0.07477,0.450539,-0.201568,-0.251816,0.0
26.783,-0.071401,0.95302,-0.07477,0.450539,-0.198985,-0.251816,0.0
26.8333,-0.071401,0.95302,-0.07477,0.450539,-0.198985,-0.251816,0.0
26.8838,-0.071401,0.95302,-0.07477,0.450539,-0.198985,-0.251816,0.0
26.9343,-0.071401,0.95302,-0.07477,0.450539,-0.198985,-0.251816,0.0
26.9847,-0.071401,0.95302,-0.07477,0.450539,-0.198985,-0.251816,0.0
27.0351,-0.071401,0.95302,-0.07477,0.450539,-0.198985,-0.251816,0.0
27.0857,-0.071401,0.95302,-0.07477,0.450539,-0.198985,-0.251816,0.0
27.1362,-0.071401,0.95302,-0.07477,0.450539,-0.198985,-0.251816,0.0
27.1866,-0.071401,0.95302,-0.07477,0.450539,-0.198985,-0.251816,0.0
27.237,-0.071401,0.95302,-0.07477,0.450539,-0.198985,-0.251816,0.0
27.2874,-0.071401,0.95302,-0.07477,0.450539,-0.198985,-0.251816,0.0
27.3379,-0.071401,0.95302,-0.07477,0.450539,-0.198985,-0.251816,0.0
27.3883,-0.071401,0.95302,-0.07477,0.450539,-0.198985,-0.251816,0.0
27.4388,-0.071401,0.95302,-0.07477,0.450539,-0.196943,-0.251816,0.0
27.4891,-0.071401,0.95302,-0.07477,0.450539,-0.19237,-0.251816,0.0
27.5397,-0.071401,0.95302,-0.07477,0.450539,-0.190573,-0.251816,0.0
27.5901,-0.071401,0.95302,-0.07477,0.450539,-0.190573,-0.251816,0.0
27.6407,-0.071401,0.95302,-0.07477,0.450539,-0.190573,-0.251816,0.0
27.6912,-0.071401,0.95302,-0.07477,0.450539,-0.190573,-0.251816,0.0
27.7415,-0.071401,0.95302,-0.07477,0.450539,-0.190573,-0.251816,0.0
27.792,-0.071401,0.95302,-0.07477,0.450539,-0.190573,-0.251816,0.0
27.8425,-0.071401,0.95302,-0.07477,0.450539,-0.190573,-0.251816,0.0
27.8928,-0.071401,0.95302,-0.07477,0.450539,-0.184429,-0.251816,0.0
27.9434,-0.071401,0.95302,-0.07477,0.450539,-0.176872,-0.251816,0.0
27.9938,-0.071401,0.95302,-0.07477,0.450539,-0.172683,-0.251816,0.0
28.0443,-0.071401,0.95302,-0.07477,0.450539,-0.172857,-0.251816,0.0
28.0948,-0.071401,0.95302,-0.07477,0.450539,-0.174603,-0.251816,0.0
28.1453,-0.071401,0.95302,-0.07477,0.450539,-0.174603,-0.251816,0.0
28.1957,-0.071401,0.95302,-0.07477,0.450539,-0.174603,-0.251816,0.0
28.2462,-0.071401,0.95302,-0.07477,0.450539,-0.174603,-0.251816,0.0
28.2965,-0.071401,0.95302,-0.07477,0.450539,-0.174603,-0.251816,0.0
28.347,-0.071401,0.95302,-0.07477,0.450539,-0.174603,-0.251816,0.0
28.3974,-0.071401,0.95302,-0.07477,0.450539,-0.174603,-0.251816,0.0
28.4478,-0.071401,0.95302,-0.07477,0.450539,-0.174603,-0.251816,0.0
28.4983,-0.071401,0.95302,-0.07477,0.450539,-0.174603,-0.251816,0.0
28.5487,-0.071401,0.95302,-0.07477,0.450539,-0.174603,-0.251816,0.0
28.5993,-0.071401,0.95302,-0.07477,0.450539,-0.174603,-0.251816,0.0
28.6496,-0.071401,0.95302,-0.07477,0.450539,-0.174603,-0.251816,0.0
28.7003,-0.071401,0.95302,-0.07477,0.450539,-0.174603,-0.251816,0.0
28.7507,-0.071401,0.95302,-0.07477,0.450539,-0.174603,-0.251816,0.0
28.801,-0.071401,0.95302,-0.07477,0.450539,-0.174603,-0.251816,0.0
28.8516,-0.071401,0.95302,-0.07477,0.450539,-0.174603,-0.251816,0.0
28.902,-0.071401,0.95302,-0.07477,0.450539,-0.174603,-0.251816,0.0
28.9525,-0.071401,0.95302,-0.07477,0.450539,-0.174603,-0.251816,0.0
29.0029,-0.071401,0.95302,-0.07477,0.450539,-0.174603,-0.251816,0.0
29.0533,-0.071401,0.95302,-0.07477,0.450539,-0.174603,-0.251816,0.0
29.1038,-0.071401,0.95302,-0.07477,0.450539,-0.174603,-0.251816,0.0
29.1543,-0.071401,0.95302,-0.07477,0.450539,-0.174603,-0.251816,0.0
29.2047,-0.071401,0.95302,-0.07477,0.450539,-0.174603,-0.251816,0.0
29.2552,-0.071401,0.95302,-0.07477,0.450539,-0.174603,-0.251816,0.0
29.3056,-0.071401,0.95302,-0.07477,0.450539,-0.174603,-0.251816,0.0
29.3561,-0.071401,0.95302,-0.07477,0.450539,-0.174603,-0.251816,0.0
29.4065,-0.071401,0.95302,-0.07477,0.450539,-0.174603,-0.251816,0.0
29.457,-0.071401,0.95302,-0.07477,0.450539,-0.174603,-0.251816,0.0
29.5074,-0.071401,0.95302,-0.07477,0.450539,-0.174603,-0.251816,0.0
29.5579,-0.071401,0.95302,-0.07477,0.450539,-0.174603,-0.251816,0.0
29.6084,-0.071401,0.95302,-0.07477,0.450539,-0.174603,-0.251816,0.0
29.6588,-0.071401,0.95302,-0.07477,0.450539,-0.174603,-0.251816,0.0
29.7091,-0.071401,0.95302,-0.07477,0.450539,-0.174603,-0.251816,0.0
29.7596,-0.071401,0.95302,-0.07477,0.450539,-0.174603,-0.251816,0.0
29.8102,-0.071401,0.95302,-0.07477,0.450539,-0.174603,-0.251816,0.0
29.8607,-0.071401,0.95302,-0.07477,0.450539,-0.174603,-0.251816,0.0
29.9111,-0.071401,0.95302,-0.07477,0.450539,-0.174603,-0.251816,0.0
29.9615,-0.071401,0.95302,-0.07477,0.450539,-0.174603,-0.251816,0.0
30.012,-0.071401,0.95302,-0.07477,0.450539,-0.174603,-0.251816,0.0
30.0624,-0.071401,0.95302,-0.07477,0.450539,-0.174603,-0.251816,0.0
30.1128,-0.071401,0.95302,-0.07477,0.450539,-0.174603,-0.251816,0.0
30.1633,-0.071401,0.95302,-0.07477,0.450539,-0.174603,-0.251816,0.0
30.2137,-0.071401,0.95302,-0.07477,0.450539,-0.174603,-0.251816,0.0
30.2642,-0.071401,0.95302,-0.07477,0.450539,-0.174603,-0.251816,0.0
30.3147,-0.071401,0.95302,-0.07477,0.450539,-0.174603,-0.251816,0.0
30.3652,-0.071401,0.95302,-0.07477,0.450539,-0.174603,-0.251816,0.0
30.4156,-0.071401,0.95302,-0.07477,0.450539,-0.174603,-0.251816,0.0
30.4661,-0.071401,0.95302,-0.07477,0.450539,-0.174603,-0.251816,0.0
30.5164,-0.071401,0.95302,-0.07477,0.450539,-0.174603,-0.251816,0.0
30.5668,-0.071401,0.95302,-0.07477,0.450539,-0.174603,-0.251816,0.0
30.6173,-0.071401,0.95302,-0.07477,0.450539,-0.17277,-0.251816,0.0
30.6677,-0.071401,0.95302,-0.07477,0.450539,-0.168128,-0.251816,0.0
30.7181,-0.071401,0.95302,-0.07477,0.450539,-0.168093,-0.251816,0.0
30.7686,-0.071401,0.95302,-0.07477,0.450539,-0.168093,-0.251816,0.0
30.819,-0.071401,0.95302,-0.07477,0.450539,-0.168093,-0.251816,0.0
30.8694,-0.071401,0.95302,-0.07477,0.450539,-0.168093,-0.251816,0.0
30.92,-0.071401,0.95302,-0.07477,0.450539,-0.168093,-0.251816,0.0
30.9703,-0.071401,0.95302,-0.07477,0.450539,-0.168093,-0.251816,0.0
31.0209,-0.071401,0.95302,-0.07477,0.450539,-0.168093,-0.251816,0.0
31.0713,-0.071401,0.95302,-0.07477,0.450539,-0.165998,-0.251816,0.0
31.1217,-0.071401,0.95302,-0.07477,0.450539,-0.153746,-0.251816,0.0
31.1722,-0.071401,0.95302,-0.07477,0.450539,-0.135071,-0.251816,0.0
31.2227,-0.071401,0.95302,-0.07477,0.450539,-0.120567,-0.251816,0.0
31.2731,-0.071401,0.95302,-0.07477,0.450539,-0.116623,-0.251816,0.0
31.3236,-0.071401,0.95302,-0.07477,0.450539,-0.116623,-0.251816,0.0
31.3741,-0.071401,0.95302,-0.07477,0.450539,-0.124198,-0.251816,0.0
31.4246,-0.071401,0.95302,-0.07477,0.450539,-0.130079,-0.251816,0.0
31.475,-0.071401,0.95302,-0.07477,0.450539,-0.131511,-0.251816,0.005
31.5254,-0.071401,0.95302,-0.07477,0.450539,-0.131511,-0.251816,0.005
31.5759,-0.071401,0.95302,-0.07477,0.450539,-0.131511,-0.251816,0.005
31.6263,-0.071401,0.95302,-0.07477,0.450539,-0.131511,-0.251816,0.005
31.6768,-0.071401,0.95302,-0.07477,0.450539,-0.131511,-0.251816,0.005
31.7272,-0.071401,0.95302,-0.07477,0.450539,-0.131511,-0.251816,0.005
31.7776,-0.071401,0.95302,-0.07477,0.450539,-0.131511,-0.251816,0.005
31.8281,-0.071401,0.95302,-0.07477,0.450539,-0.131511,-0.251816,0.005
31.8785,-0.071401,0.95302,-0.07477,0.450539,-0.131511,-0.251816,0.005
31.9289,-0.071401,0.95302,-0.07477,0.450539,-0.131511,-0.251816,0.005
31.9794,-0.071401,0.95302,-0.07477,0.450539,-0.131511,-0.251816,0.005
32.0299,-0.071401,0.95302,-0.07477,0.450539,-0.131511,-0.251816,0.005
32.0804,-0.071401,0.95302,-0.07477,0.450539,-0.131511,-0.251816,0.005
32.1309,-0.071401,0.95302,-0.07477,0.450539,-0.131511,-0.251816,0.005
32.1812,-0.071401,0.95302,-0.07477,0.450539,-0.131511,-0.251816,0.005
32.2317,-0.071401,0.95302,-0.07477,0.450539,-0.131511,-0.251816,0.005
32.2823,-0.071401,0.95302,-0.07477,0.450539,-0.131511,-0.251816,0.005
32.3326,-0.071401,0.95302,-0.07477,0.450539,-0.131511,-0.251816,0.005
32.3831,-0.071401,0.95302,-0.07477,0.450539,-0.131511,-0.251816,0.005
32.4336,-0.071401,0.95302,-0.07477,0.450539,-0.131511,-0.251816,0.005
32.484,-0.071401,0.95302,-0.07477,0.450539,-0.131511,-0.251816,0.005
32.5345,-0.071401,0.95302,-0.07477,0.450539,-0.131511,-0.251816,0.005
32.5851,-0.071401,0.95302,-0.07477,0.450539,-0.131511,-0.251816,0.005
32.6355,-0.071401,0.95302,-0.07477,0.450539,-0.131511,-0.251816,0.005
32.686,-0.071401,0.95302,-0.07477,0.450539,-0.131511,-0.251816,0.005
32.7364,-0.071401,0.95302,-0.07477,0.450539,-0.131511,-0.251816,0.005
32.7868,-0.071401,0.95302,-0.07477,0.450539,-0.131511,-0.251816,0.005
32.8373,-0.071401,0.95302,-0.07477,0.450539,-0.131511,-0.251816,0.005
32.8878,-0.071401,0.95302,-0.07477,0.450539,-0.131511,-0.251816,0.005
32.9381,-0.071401,0.95302,-0.07477,0.450539,-0.131511,-0.251816,0.005
32.9886,-0.071401,0.95302,-0.07477,0.450539,-0.131511,-0.251816,0.005
33.0391,-0.071401,0.95302,-0.07477,0.450539,-0.131511,-0.251816,0.005
33.0897,-0.071401,0.95302,-0.07477,0.450539,-0.131511,-0.251816,0.005
33.1402,-0.071401,0.95302,-0.07477,0.450539,-0.131511,-0.251816,0.005
33.1905,-0.071401,0.95302,-0.07477,0.450539,-0.131511,-0.251816,0.005
33.2408,-0.071401,0.95302,-0.07477,0.450539,-0.131511,-0.251816,0.005
33.2912,-0.071401,0.95302,-0.07477,0.450539,-0.131511,-0.251816,0.005
33.3414,-0.071401,0.95302,-0.07477,0.450539,-0.131511,-0.251816,0.005
33.3917,-0.071401,0.95302,-0.07477,0.450539,-0.131511,-0.251816,0.005
33.4421,-0.071401,0.95302,-0.07477,0.450539,-0.131511,-0.251816,0.005
33.4923,-0.071401,0.95302,-0.07477,0.450539,-0.131511,-0.251816,0.005
33.5427,-0.071401,0.95302,-0.07477,0.450539,-0.131511,-0.251816,0.005
33.593,-0.071401,0.95302,-0.07477,0.450539,-0.131511,-0.251816,0.005
33.6434,-0.071401,0.95302,-0.07477,0.450539,-0.131511,-0.251816,0.005
33.6937,-0.071401,0.95302,-0.07477,0.450539,-0.131511,-0.251816,0.005
33.7439,-0.071401,0.95302,-0.07477,0.450539,-0.131511,-0.251816,0.005
33.7943,-0.071401,0.95302,-0.07477,0.450539,-0.131511,-0.251816,0.005
33.8447,-0.071401,0.95302,-0.07477,0.450539,-0.131511,-0.251816,0.005
33.8953,-0.071401,0.95302,-0.07477,0.450539,-0.131511,-0.251816,0.005
33.9456,-0.071401,0.95302,-0.07477,0.450539,-0.131511,-0.251816,0.005
33.9959,-0.071401,0.95302,-0.07477,0.450539,-0.131511,-0.251816,0.005
34.0462,-0.071401,0.95302,-0.07477,0.450539,-0.131511,-0.251816,0.005
34.0965,-0.071401,0.95302,-0.07477,0.450539,-0.131511,-0.251816,0.005
34.1468,-0.071401,0.95302,-0.07477,0.450539,-0.131511,-0.251816,0.005
34.1971,-0.071401,0.95302,-0.07477,0.450539,-0.131511,-0.251816,0.005
34.2474,-0.071401,0.95302,-0.07477,0.450539,-0.131511,-0.251816,0.005
34.2977,-0.071401,0.95302,-0.07477,0.450539,-0.131511,-0.251816,0.005
34.348,-0.071401,0.95302,-0.07477,0.450539,-0.131511,-0.251816,0.005
34.3983,-0.071401,0.95302,-0.07477,0.450539,-0.131511,-0.251816,0.005
34.4486,-0.071401,0.95302,-0.07477,0.450539,-0.131511,-0.251816,0.005
34.499,-0.071401,0.95302,-0.07477,0.450539,-0.131511,-0.251816,0.005
34.5492,-0.071401,0.95302,-0.07477,0.450539,-0.131511,-0.251816,0.005
34.5995,-0.071401,0.95302,-0.07477,0.450539,-0.131511,-0.251816,0.005
34.65,-0.071401,0.95302,-0.07477,0.450539,-0.131511,-0.251816,0.005
34.7003,-0.071401,0.95302,-0.07477,0.450539,-0.131511,-0.251816,0.005
34.7507,-0.071401,0.95302,-0.07477,0.450539,-0.131511,-0.251816,0.005
34.8011,-0.071401,0.95302,-0.07477,0.450539,-0.131511,-0.251816,0.005
34.8513,-0.071401,0.95302,-0.07477,0.450539,-0.131511,-0.251816,0.005
34.9016,-0.071401,0.95302,-0.07477,0.450539,-0.131511,-0.251816,0.005
34.9518,-0.071401,0.95302,-0.07477,0.450539,-0.131511,-0.251816,0.005
35.0022,-0.071401,0.95302,-0.07477,0.450539,-0.14392,-0.251816,0.005
35.0526,-0.071401,0.95302,-0.07477,0.450539,-0.165771,-0.251816,0.005
35.1027,-0.076829,0.95302,-0.07477,0.461657,-0.210085,-0.253614,0.005
35.1531,-0.086394,0.95302,-0.07477,0.461378,-0.22232,-0.264103,0.005
35.2034,-0.095679,0.95302,-0.07477,0.461378,-0.22232,-0.284489,0.005
35.2536,-0.102346,0.95302,-0.07477,0.461378,-0.218393,-0.317266,0.005
35.304,-0.107338,0.95302,-0.07477,0.461378,-0.214815,-0.35596,0.005
35.3543,-0.111753,0.95302,-0.07477,0.461378,-0.204081,-0.38954,0.005
35.4046,-0.111753,0.95302,-0.07477,0.461378,-0.19141,-0.414306,0.005
35.4551,-0.111753,0.95302,-0.07477,0.461378,-0.177221,-0.442057,0.005
35.5054,-0.111753,0.95302,-0.07477,0.459214,-0.175266,-0.466457,0.005
35.556,-0.111753,0.95302,-0.07271,0.457206,-0.175266,-0.498972,0.005
35.6066,-0.111753,0.95302,-0.07271,0.457206,-0.179437,-0.537596,0.005
35.6569,-0.111753,0.95302,-0.07271,0.457206,-0.182125,-0.569309,0.005
35.7074,-0.111753,0.95302,-0.07271,0.457206,-0.185092,-0.597653,0.005
35.7575,-0.111753,0.95302,-0.07271,0.457206,-0.192248,-0.611267,0.005
35.808,-0.111753,0.95302,-0.07271,0.457206,-0.200119,-0.611267,0.005
35.8583,-0.111753,0.95302,-0.07271,0.457206,-0.204989,-0.611267,0.005
35.9089,-0.111753,0.95302,-0.07271,0.457206,-0.204989,-0.611267,0.005
35.9595,-0.111753,0.95302,-0.07271,0.457206,-0.204989,-0.611267,0.005
36.0102,-0.111753,0.95302,-0.07271,0.457206,-0.197187,-0.609364,0.005
36.0607,-0.111753,0.95302,-0.07271,0.457206,-0.193487,-0.603657,0.005
36.1111,-0.109921,0.95302,-0.07271,0.457206,-0.191253,-0.603552,0.005
36.1616,-0.109921,0.95302,-0.07271,0.457206,-0.191253,-0.603552,0.005
36.212,-0.109921,0.95302,-0.07271,0.457206,-0.191253,-0.603552,0.005
36.2624,-0.109921,0.95302,-0.07271,0.457206,-0.194395,-0.603552,0.005
36.3129,-0.109921,0.95302,-0.07271,0.457206,-0.199491,-0.603552,0.005
36.3636,-0.109921,0.95302,-0.07271,0.457206,-0.201551,-0.603552,0.005
36.414,-0.109921,0.95302,-0.07271,0.457206,-0.201551,-0.603552,0.005
36.4642,-0.109921,0.95302,-0.07271,0.457206,-0.203558,-0.603552,0.005
36.5146,-0.109921,0.95302,-0.07271,0.457206,-0.205984,-0.603552,0.005
36.5651,-0.109921,0.95302,-0.07271,0.457206,-0.205984,-0.603552,0.005
36.6155,-0.109921,0.95302,-0.07271,0.457206,-0.205984,-0.603552,0.005
36.6662,-0.109921,0.95302,-0.07271,0.457206,-0.211272,-0.603552,0.005
36.7166,-0.109921,0.95302,-0.07271,0.457206,-0.223437,-0.61083,0.005
36.767,-0.109921,0.95302,-0.07271,0.443087,-0.236754,-0.610761,0.005
36.8174,-0.109921,0.95302,-0.07271,0.39968,-0.242007,-0.610761,0.005
36.8679,-0.109921,0.95302,-0.07271,0.363796,-0.239093,-0.610761,0.005
36.9182,-0.109921,0.95302,-0.07271,0.341142,-0.23171,-0.610761,0.005
36.9687,-0.109921,0.95302,-0.07271,0.336133,-0.219213,-0.610761,0.005
37.0193,-0.109921,0.95302,-0.07271,0.336133,-0.217328,-0.621285,0.005
37.0697,-0.109921,0.95302,-0.07271,0.336133,-0.217154,-0.651706,0.005
37.1201,-0.109921,0.95302,-0.07271,0.336133,-0.217154,-0.685164,0.005
37.1707,-0.109921,0.95302,-0.07271,0.336133,-0.213122,-0.697765,0.005
37.2211,-0.109921,0.95302,-0.07271,0.336133,-0.205425,-0.700086,0.005
37.2713,-0.109921,0.95302,-0.07271,0.336133,-0.200015,-0.700086,0.005
37.322,-0.109921,0.95302,-0.07271,0.336133,-0.198426,-0.700086,0.005
37.3723,-0.109921,0.95302,-0.07271,0.347704,-0.195948,-0.700086,0.005
37.423,-0.109921,0.95302,-0.07271,0.347425,-0.191986,-0.700086,0.005
37.4734,-0.109921,0.95302,-0.07271,0.347425,-0.191986,-0.700086,0.005
37.5238,-0.109921,0.95302,-0.07271,0.347425,-0.191986,-0.700086,0.005
37.5742,-0.109921,0.95302,-0.07271,0.347425,-0.183469,-0.700086,0.005
37.6248,-0.109921,0.95302,-0.07271,0.347425,-0.175842,-0.700086,0.005
37.6751,-0.109921,0.95302,-0.07271,0.347425,-0.165702,-0.700086,0.005
37.7255,-0.109921,0.95302,-0.07271,0.347425,-0.16146,-0.700086,0.005
37.7761,-0.109921,0.95302,-0.07271,0.347425,-0.158808,-0.700086,0.005
37.8264,-0.109921,0.95302,-0.07271,0.347425,-0.155195,-0.700086,0.005
37.877,-0.109921,0.95302,-0.07271,0.347425,-0.150639,-0.700086,0.005
37.9273,-0.109921,0.95302,-0.07271,0.347425,-0.150063,-0.700086,0.005
37.978,-0.109921,0.95302,-0.07271,0.347425,-0.147568,-0.700086,0.005
38.0285,-0.109921,0.957331,-0.07271,0.347425,-0.14303,-0.700086,0.005
38.0788,-0.109921,0.9659,-0.07271,0.347425,-0.141895,-0.700086,0.005
38.1295,-0.109921,0.979042,-0.07271,0.347425,-0.141895,-0.700086,0.005
38.1798,-0.109921,1.002604,-0.07271,0.345086,-0.157045,-0.700086,0.005
38.2301,-0.109921,1.042642,-0.07271,0.344825,-0.208008,-0.700086,0.005
38.2806,-0.109921,1.082942,-0.07271,0.342294,-0.257209,-0.700086,0.005
38.331,-0.105488,1.112874,-0.075102,0.334824,-0.286042,-0.700086,0.005
38.3816,-0.098384,1.144168,-0.08039,0.317563,-0.301314,-0.700086,0.005
38.432,-0.09074,1.170034,-0.084509,0.31751,-0.308627,-0.700086,0.005
38.4826,-0.086481,1.189582,-0.084509,0.31751,-0.321367,-0.700086,0.005
38.533,-0.086481,1.196214,-0.084509,0.31751,-0.332468,-0.700086,0.005
38.5834,-0.086481,1.196214,-0.084509,0.31751,-0.333271,-0.700086,0.005
38.6338,-0.086481,1.196214,-0.084509,0.31751,-0.333271,-0.700086,0.005
38.6843,-0.086481,1.196214,-0.084509,0.31751,-0.333271,-0.700086,0.005
38.7349,-0.086481,1.192095,-0.084509,0.31751,-0.333271,-0.700086,0.005
38.7852,-0.086481,1.192095,-0.084509,0.31751,-0.333271,-0.700086,0.005
38.8358,-0.086481,1.192095,-0.084509,0.31751,-0.333271,-0.700086,0.005
38.8863,-0.086481,1.192095,-0.084509,0.31751,-0.333271,-0.700086,0.005
38.9366,-0.086481,1.192095,-0.084509,0.31751,-0.333271,-0.700086,0.005
38.9871,-0.086481,1.192095,-0.084509,0.31751,-0.333271,-0.700086,0.005
39.0378,-0.086481,1.192095,-0.084509,0.31936,-0.333271,-0.700086,0.005
39.0879,-0.086481,1.192095,-0.084509,0.31936,-0.333271,-0.700086,0.005
39.1385,-0.086481,1.192095,-0.084509,0.31936,-0.333271,-0.700086,0.005
39.1889,-0.086481,1.192095,-0.084509,0.321158,-0.333271,-0.700086,0.005
39.2395,-0.086481,1.192095,-0.084509,0.321158,-0.333271,-0.696351,0.005
39.2899,-0.086481,1.192095,-0.084509,0.321158,-0.333271,-0.691133,0.005
39.3404,-0.086481,1.192095,-0.084509,0.321158,-0.33053,-0.685879,0.005
39.3907,-0.086481,1.192095,-0.084509,0.321158,-0.329571,-0.681045,0.005
39.4411,-0.086481,1.192095,-0.084509,0.321158,-0.329571,-0.67834,0.005
39.4916,-0.086481,1.192095,-0.084509,0.321158,-0.32875,-0.67834,0.005
39.5422,-0.086481,1.192095,-0.084509,0.321158,-0.32875,-0.67834,0.005
39.5925,-0.086481,1.192095,-0.084509,0.321158,-0.327075,-0.67834,0.005
39.643,-0.086481,1.192095,-0.084509,0.321158,-0.321717,-0.67834,0.005
39.6936,-0.086481,1.192095,-0.084509,0.321158,-0.319186,-0.67834,0.005
39.7439,-0.086481,1.192095,-0.084509,0.321158,-0.319186,-0.67834,0.005
39.7945,-0.086481,1.192095,-0.084509,0.321158,-0.319186,-0.67834,0.005
39.8451,-0.086481,1.192095,-0.084509,0.321158,-0.319186,-0.67834,0.005
39.8956,-0.086481,1.192095,-0.084509,0.321158,-0.319186,-0.67834,0.005
39.946,-0.086481,1.191222,-0.084509,0.321158,-0.321141,-0.67834,0.005
39.9965,-0.086481,1.191222,-0.084509,0.321158,-0.326272,-0.67834,0.005
40.0469,-0.086481,1.191222,-0.084509,0.321158,-0.331665,-0.67834,0.005
40.0973,-0.086481,1.191222,-0.084509,0.321158,-0.333637,-0.67834,0.005
40.1476,-0.086481,1.186981,-0.084509,0.321158,-0.335749,-0.67834,0.005
40.1982,-0.086481,1.174868,-0.084509,0.321158,-0.33341,-0.67834,0.005
40.2488,-0.086481,1.159667,-0.084509,0.321158,-0.324143,-0.67834,0.005
40.2992,-0.086481,1.136576,-0.084509,0.326028,-0.304543,-0.67834,0.005
40.3496,-0.086481,1.12099,-0.084509,0.346256,-0.29339,-0.67834,0.005
40.4001,-0.086481,1.108319,-0.084509,0.377585,-0.281452,-0.67834,0.005
40.4504,-0.086481,1.099331,-0.084509,0.398162,-0.281365,-0.67834,0.005
40.5009,-0.086481,1.097044,-0.084509,0.406749,-0.278939,-0.67834,0.005
40.5516,-0.086481,1.097044,-0.084509,0.406749,-0.278939,-0.67834,0.005
40.6019,-0.086481,1.097044,-0.084509,0.406749,-0.276425,-0.67834,0.005
40.6525,-0.086481,1.097044,-0.084509,0.406749,-0.267873,-0.67834,0.005
40.7028,-0.086481,1.097044,-0.084509,0.406749,-0.253928,-0.67834,0.005
40.7535,-0.086481,1.098981,-0.084509,0.406749,-0.242479,-0.67834,0.005
40.8037,-0.086481,1.098981,-0.084509,0.406749,-0.240489,-0.67834,0.005
40.8542,-0.086481,1.098981,-0.084509,0.406749,-0.24494,-0.67834,0.005
40.9047,-0.086481,1.098981,-0.084509,0.406749,-0.251153,-0.67834,0.005
40.9551,-0.086481,1.098981,-0.084509,0.416488,-0.250228,-0.67834,0.005
41.0057,-0.086481,1.098981,-0.084509,0.430468,-0.250228,-0.67834,0.005
41.0562,-0.086481,1.098981,-0.084509,0.430468,-0.250228,-0.67834,0.005
41.1064,-0.086481,1.098981,-0.084509,0.430468,-0.250228,-0.67834,0.005
41.1569,-0.086481,1.098981,-0.084509,0.430468,-0.250228,-0.67834,0.005
41.2075,-0.086481,1.098981,-0.084509,0.430468,-0.250228,-0.67834,0.005
41.258,-0.086481,1.098981,-0.084509,0.430468,-0.250228,-0.67834,0.005
41.3083,-0.086481,1.098981,-0.084509,0.430468,-0.250228,-0.67834,0.005
41.3588,-0.086481,1.098981,-0.084509,0.430468,-0.250228,-0.67834,0.005
41.4093,-0.086481,1.098981,-0.084509,0.430468,-0.250228,-0.67834,0.005
41.4597,-0.086481,1.098981,-0.084509,0.430468,-0.250228,-0.676402,0.005
41.5104,-0.086481,1.098981,-0.084509,0.430468,-0.250228,-0.665948,0.005
41.5606,-0.086481,1.098981,-0.084509,0.430468,-0.250228,-0.650275,0.005
41.6111,-0.086481,1.098981,-0.084509,0.433156,-0.250228,-0.638057,0.005
41.6617,-0.086481,1.098981,-0.084509,0.433156,-0.250228,-0.625177,0.005
41.7119,-0.086481,1.098981,-0.084509,0.433156,-0.250228,-0.625177,0.005
41.7626,-0.086481,1.098981,-0.084509,0.433156,-0.250228,-0.625177,0.005
41.8129,-0.086481,1.098981,-0.084509,0.433156,-0.250228,-0.627202,0.005
41.8635,-0.086481,1.098981,-0.084509,0.425616,-0.254137,-0.632246,0.005
41.9137,-0.086481,1.098981,-0.084509,0.41867,-0.258448,-0.634026,0.005
41.9643,-0.086481,1.098981,-0.084509,0.414132,-0.260787,-0.655232,0.005
42.0148,-0.086481,1.098981,-0.084509,0.397516,-0.264871,-0.676856,0.005
42.0652,-0.086481,1.098981,-0.084509,0.39701,-0.268763,-0.690958,0.005
42.1156,-0.086481,1.098981,-0.084509,0.39701,-0.272132,-0.699947,0.005
42.1663,-0.086481,1.098981,-0.084509,0.39701,-0.272132,-0.699319,0.005
42.2167,-0.086481,1.098981,-0.084509,0.39701,-0.272132,-0.700436,0.005
42.2671,-0.086481,1.098981,-0.084509,0.39701,-0.273423,-0.700436,0.005
42.3176,-0.086481,1.098981,-0.084509,0.39701,-0.273423,-0.710855,0.005
42.368,-0.086481,1.098981,-0.084509,0.39701,-0.273423,-0.717941,0.005
42.4185,-0.086481,1.098981,-0.084509,0.39701,-0.273423,-0.717941,0.005
42.469,-0.086481,1.098981,-0.084509,0.39701,-0.273423,-0.717941,0.005
42.5193,-0.086481,1.098981,-0.084509,0.39701,-0.273423,-0.717941,0.005
42.5697,-0.086481,1.100343,-0.084509,0.39701,-0.273423,-0.715917,0.005
42.6205,-0.086481,1.100343,-0.084509,0.39701,-0.273423,-0.715934,0.005
42.6707,-0.086481,1.101233,-0.084509,0.39701,-0.273423,-0.715934,0.005
42.7211,-0.086481,1.101233,-0.084509,0.399907,-0.273423,-0.715934,0.005
42.7716,-0.086481,1.101233,-0.084509,0.410903,-0.273423,-0.713997,0.005
42.8221,-0.086481,1.101233,-0.084509,0.415615,-0.273423,-0.713997,0.005
42.8726,-0.086481,1.101233,-0.084509,0.415615,-0.273423,-0.713997,0.005
42.923,-0.086481,1.101233,-0.084509,0.415615,-0.271346,-0.713997,0.005
42.9737,-0.086481,1.101233,-0.084509,0.420537,-0.26618,-0.713997,0.005
43.024,-0.086481,1.101233,-0.084509,0.427187,-0.266128,-0.713997,0.005
43.0744,-0.086481,1.101233,-0.084509,0.427187,-0.266128,-0.713997,0.005
43.1251,-0.086481,1.101233,-0.084509,0.427187,-0.266128,-0.713997,0.005
43.1755,-0.086481,1.101233,-0.084509,0.427187,-0.266128,-0.713997,0.005
43.2258,-0.086481,1.101233,-0.084509,0.427187,-0.266128,-0.713997,0.005
43.2763,-0.086481,1.101233,-0.084509,0.427187,-0.266128,-0.713997,0.005
43.3271,-0.086481,1.101233,-0.084509,0.427187,-0.266128,-0.713997,0.005
43.3772,-0.086481,1.101233,-0.084509,0.427187,-0.264121,-0.713997,0.005
43.4277,-0.086481,1.101233,-0.084509,0.427187,-0.264121,-0.713997,0.005
43.4783,-0.086481,1.101233,-0.084509,0.427187,-0.264121,-0.713997,0.005
43.5286,-0.084387,1.101233,-0.084509,0.436437,-0.264121,-0.699737,0.005
43.579,-0.084387,1.105369,-0.084509,0.47445,-0.264121,-0.680556,0.005
43.6297,-0.084387,1.112351,-0.084509,0.491921,-0.267088,-0.677118,0.005
43.68,-0.079465,1.12209,-0.084509,0.503719,-0.274907,-0.674378,0.005
43.7304,-0.07737,1.132649,-0.084509,0.503719,-0.289271,-0.669159,0.005
43.7808,-0.072623,1.142877,-0.084509,0.503719,-0.302343,-0.669159,0.005
43.8314,-0.066462,1.151167,-0.084509,0.503719,-0.313688,-0.666524,0.005
43.8818,-0.066898,1.162162,-0.084509,0.503719,-0.319046,-0.652701,0.005
43.9322,-0.066898,1.163244,-0.084509,0.503719,-0.320617,-0.652631,0.005
43.9828,-0.066898,1.163244,-0.086813,0.503719,-0.321612,-0.652631,0.005
44.0334,-0.066898,1.163244,-0.088226,0.503719,-0.321612,-0.652631,0.005
44.0836,-0.066898,1.163244,-0.090949,0.503719,-0.319011,-0.652631,0.005
44.1343,-0.066898,1.163244,-0.091979,0.503719,-0.316603,-0.652631,0.005
44.1846,-0.066898,1.161237,-0.091979,0.503719,-0.31477,-0.652631,0.005
44.2349,-0.066898,1.161237,-0.091979,0.503719,-0.3147,-0.652631,0.005
44.2856,-0.066898,1.161237,-0.091979,0.503719,-0.312309,-0.652631,0.005
44.336,-0.066898,1.161237,-0.091979,0.503719,-0.312309,-0.652631,0.005
44.3866,-0.066898,1.161237,-0.091979,0.503719,-0.312309,-0.652631,0.005
44.4369,-0.066898,1.161237,-0.091979,0.503719,-0.312309,-0.652631,0.005
44.4875,-0.066898,1.161237,-0.091979,0.503719,-0.312309,-0.652631,0.005
44.5379,-0.066898,1.161237,-0.091979,0.503719,-0.312309,-0.652631,0.005
44.5883,-0.066898,1.161237,-0.091979,0.503719,-0.312309,-0.652631,0.005
44.6387,-0.066898,1.161237,-0.091979,0.503719,-0.312309,-0.652631,0.005
44.6893,-0.066898,1.161237,-0.091979,0.503719,-0.312309,-0.652631,0.005
44.7396,-0.066898,1.161237,-0.091979,0.503719,-0.312309,-0.652631,0.005
44.7901,-0.066898,1.161237,-0.091979,0.503719,-0.312309,-0.652631,0.005
44.8406,-0.066898,1.161237,-0.091979,0.503719,-0.312309,-0.652631,0.005
44.891,-0.066898,1.161237,-0.091979,0.503719,-0.312309,-0.652631,0.005
44.9415,-0.066898,1.161237,-0.091979,0.503719,-0.31107,-0.652631,0.005
44.9919,-0.066898,1.161237,-0.091979,0.503719,-0.31107,-0.652631,0.005
45.0423,-0.066898,1.161237,-0.091979,0.501712,-0.31107,-0.652631,0.005
45.0928,-0.066898,1.161237,-0.091979,0.501712,-0.315172,-0.654464,0.005
45.1434,-0.066898,1.161237,-0.091979,0.501712,-0.317475,-0.654464,0.005
45.1939,-0.066898,1.161237,-0.091979,0.501712,-0.325521,-0.6597,0.005
45.2443,-0.066898,1.161237,-0.091979,0.501712,-0.331229,-0.68197,0.005
45.2949,-0.066898,1.161237,-0.091979,0.499775,-0.333602,-0.703403,0.005
45.3453,-0.066898,1.161237,-0.096063,0.497785,-0.333602,-0.720804,0.005
45.3956,-0.066898,1.161237,-0.096063,0.489233,-0.333602,-0.723072,0.005
45.4461,-0.066898,1.161237,-0.096063,0.465951,-0.333602,-0.723072,0.005
45.4967,-0.066898,1.161237,-0.096063,0.447659,-0.329256,-0.723072,0.005
45.547,-0.066898,1.161237,-0.096063,0.445897,-0.325033,-0.723072,0.005
45.5976,-0.066898,1.161237,-0.096063,0.422771,-0.32217,-0.723072,0.005
45.6481,-0.066898,1.161237,-0.096063,0.404515,-0.318802,-0.723072,0.005
45.6984,-0.066898,1.161237,-0.096063,0.373431,-0.31936,-0.723072,0.005
45.7491,-0.066898,1.161237,-0.096063,0.318261,-0.331368,-0.723072,0.005
45.7994,-0.066898,1.161237,-0.096063,0.288189,-0.349799,-0.723072,0.005
45.8498,-0.066898,1.161237,-0.096063,0.290807,-0.359189,-0.723072,0.005
45.9002,-0.066898,1.161237,-0.096063,0.299498,-0.355768,-0.721222,0.005
45.9508,-0.066898,1.172146,-0.096063,0.339397,-0.342224,-0.716493,0.005
46.0014,-0.066898,1.19096,-0.096063,0.360969,-0.342137,-0.716493,0.005
46.0518,-0.066898,1.216006,-0.096063,0.36048,-0.369731,-0.716493,0.005
46.1023,-0.066898,1.244856,-0.096063,0.346867,-0.393676,-0.716493,0.005
46.1525,-0.066898,1.266289,-0.096063,0.331822,-0.413119,-0.716493,0.005
46.203,-0.066898,1.281054,-0.096063,0.318854,-0.428321,-0.716493,0.005
46.2534,-0.066898,1.28437,-0.096063,0.317266,-0.436751,-0.716493,0.005
46.304,-0.066898,1.282328,-0.096063,0.317266,-0.437816,-0.716493,0.005
46.3543,-0.066898,1.27615,-0.096063,0.317266,-0.437816,-0.716493,0.005
46.4049,-0.066898,1.270844,-0.096063,0.317266,-0.437816,-0.714974,0.005
46.4555,-0.066898,1.262484,-0.096063,0.317266,-0.437816,-0.714974,0.005
46.5058,-0.066898,1.252047,-0.096063,0.317266,-0.437816,-0.714974,0.005
46.5564,-0.066898,1.240353,-0.096063,0.317266,-0.43052,-0.714974,0.005
46.6069,-0.066898,1.232691,-0.096063,0.319448,-0.422125,-0.714974,0.005
46.6571,-0.066898,1.230248,-0.096063,0.319378,-0.419682,-0.714974,0.005
46.7078,-0.066898,1.230248,-0.096063,0.319378,-0.419682,-0.708342,0.005
46.7581,-0.066898,1.230248,-0.096063,0.321385,-0.419682,-0.681237,0.005
46.8087,-0.066898,1.230248,-0.096063,0.326237,-0.417064,-0.633764,0.005
46.8591,-0.066898,1.230248,-0.096063,0.328262,-0.417064,-0.594599,0.005
46.9094,-0.066898,1.230248,-0.096063,0.328262,-0.414551,-0.565783,0.005
46.9599,-0.066898,1.230248,-0.096063,0.328262,-0.412194,-0.548697,0.005
47.0104,-0.066898,1.230248,-0.096063,0.328262,-0.409838,-0.548627,0.005
47.0608,-0.066898,1.230248,-0.096063,0.328262,-0.409838,-0.548627,0.005
47.1114,-0.066898,1.230248,-0.096063,0.328262,-0.409838,-0.548627,0.005
47.1617,-0.066898,1.230248,-0.096063,0.328262,-0.409838,-0.548627,0.005
47.2124,-0.066898,1.230248,-0.096063,0.328262,-0.409838,-0.548627,0.005
47.2626,-0.066898,1.230248,-0.096063,0.328262,-0.409838,-0.548627,0.005
47.3133,-0.066898,1.230248,-0.096063,0.328262,-0.409838,-0.548627,0.005
47.3636,-0.066898,1.230248,-0.096063,0.328262,-0.409838,-0.548627,0.005
47.414,-0.066898,1.230248,-0.096063,0.328262,-0.409838,-0.548627,0.005
47.4646,-0.066898,1.230248,-0.096063,0.328262,-0.409838,-0.548627,0.005
47.5152,-0.066898,1.230248,-0.096063,0.328262,-0.409838,-0.548627,0.005
47.5656,-0.066898,1.230248,-0.096063,0.328262,-0.409838,-0.548627,0.005
47.6162,-0.066898,1.230248,-0.096063,0.328262,-0.409838,-0.548627,0.005
47.6666,-0.066898,1.230248,-0.096063,0.328262,-0.409838,-0.548627,0.005
47.717,-0.066898,1.230248,-0.096063,0.328262,-0.409838,-0.548627,0.005
47.7676,-0.066898,1.230248,-0.096063,0.328262,-0.409838,-0.548627,0.005
47.818,-0.066898,1.230248,-0.096063,0.328262,-0.409838,-0.548627,0.005
47.8684,-0.066898,1.230248,-0.096063,0.328262,-0.409838,-0.548627,0.005
47.9189,-0.066898,1.230248,-0.096063,0.328262,-0.409838,-0.548627,0.005
47.9693,-0.066898,1.230248,-0.096063,0.328262,-0.409838,-0.548627,0.005
48.0198,-0.066898,1.230248,-0.096063,0.328262,-0.40825,-0.548627,0.005
48.0702,-0.066898,1.230248,-0.096063,0.328262,-0.40825,-0.548627,0.005
48.1208,-0.066898,1.230248,-0.096063,0.328262,-0.40825,-0.548627,0.005
48.1712,-0.066898,1.230248,-0.096063,0.328262,-0.40825,-0.548627,0.005
48.2216,-0.066898,1.230248,-0.096063,0.328262,-0.40825,-0.548627,0.005
48.2721,-0.066898,1.230248,-0.096063,0.328262,-0.40825,-0.548627,0.005
48.3226,-0.066898,1.230248,-0.096063,0.328262,-0.40825,-0.548627,0.005
48.3732,-0.066898,1.230248,-0.096063,0.328262,-0.40825,-0.548627,0.005
48.4236,-0.066898,1.230248,-0.096063,0.328262,-0.40825,-0.548627,0.005
48.4739,-0.066898,1.230248,-0.096063,0.328262,-0.40825,-0.548627,0.005
48.5244,-0.066898,1.230248,-0.096063,0.328262,-0.40825,-0.548627,0.005
48.5748,-0.066898,1.230248,-0.096063,0.328262,-0.40825,-0.548627,0.005
48.6254,-0.066898,1.230248,-0.096063,0.328262,-0.40825,-0.548627,0.005
48.6758,-0.066898,1.230248,-0.096063,0.328262,-0.40825,-0.548627,0.005
48.7264,-0.066898,1.230248,-0.096063,0.328262,-0.40825,-0.548627,0.005
48.7767,-0.066898,1.230248,-0.096063,0.328262,-0.40825,-0.548627,0.005
48.8272,-0.066898,1.230248,-0.096063,0.328262,-0.40825,-0.548627,0.005
48.8778,-0.066898,1.230248,-0.096063,0.328262,-0.40825,-0.548627,0.005
48.9282,-0.066898,1.230248,-0.096063,0.328262,-0.40825,-0.548627,0.005
48.9788,-0.066898,1.230248,-0.096063,0.328262,-0.406225,-0.548627,0.005
49.0293,-0.066898,1.230248,-0.096063,0.328262,-0.406225,-0.548627,0.005
49.0795,-0.066898,1.230248,-0.096063,0.328262,-0.406225,-0.548627,0.005
49.1301,-0.066898,1.230248,-0.096063,0.328262,-0.404358,-0.548627,0.005
49.1806,-0.066898,1.230248,-0.096063,0.328262,-0.404358,-0.548627,0.005
49.231,-0.066898,1.230248,-0.096063,0.328262,-0.404358,-0.548627,0.0
49.2816,-0.066898,1.230248,-0.096063,0.328262,-0.404358,-0.548627,0.0
49.3321,-0.066898,1.230248,-0.096063,0.328262,-0.404358,-0.548627,0.0
49.3824,-0.066898,1.230248,-0.096063,0.328262,-0.404358,-0.548627,0.0
49.433,-0.066898,1.230248,-0.096063,0.328262,-0.404358,-0.548627,0.0
49.4834,-0.066898,1.230248,-0.096063,0.328262,-0.404358,-0.548627,0.0
49.5337,-0.066898,1.230248,-0.096063,0.328262,-0.404358,-0.548627,0.0
49.5843,-0.066898,1.230248,-0.096063,0.328262,-0.404358,-0.548627,0.0
49.6348,-0.066898,1.230248,-0.096063,0.328262,-0.402927,-0.548627,0.0
49.6851,-0.066898,1.230248,-0.096063,0.328262,-0.402927,-0.548627,0.0
49.7358,-0.066898,1.230248,-0.096063,0.328262,-0.402927,-0.548627,0.0
49.7862,-0.066898,1.230248,-0.096063,0.328262,-0.402927,-0.548627,0.0
49.8365,-0.066898,1.230248,-0.096063,0.328262,-0.402927,-0.548627,0.0
49.8871,-0.066898,1.230248,-0.096063,0.328262,-0.402927,-0.548627,0.0
49.9374,-0.066898,1.230248,-0.096063,0.328262,-0.402927,-0.548627,0.0
49.988,-0.066898,1.230248,-0.096063,0.328262,-0.402927,-0.548627,0.0
50.0385,-0.066898,1.230248,-0.096063,0.328262,-0.402927,-0.548627,0.0
50.0888,-0.066898,1.230248,-0.096063,0.328262,-0.402927,-0.548627,0.0
50.1394,-0.066898,1.230248,-0.096063,0.328262,-0.402927,-0.548627,0.0
50.1898,-0.066898,1.230248,-0.096063,0.328262,-0.402927,-0.548627,0.0
50.2402,-0.066898,1.230248,-0.096063,0.328262,-0.402927,-0.548627,0.0
50.291,-0.066898,1.230248,-0.096063,0.328262,-0.402927,-0.548627,0.0
50.3412,-0.066898,1.230248,-0.096063,0.328262,-0.402927,-0.548627,0.0
50.3916,-0.066898,1.230248,-0.096063,0.328262,-0.402927,-0.548627,0.0
50.4421,-0.066898,1.230248,-0.096063,0.328262,-0.402927,-0.548627,0.0
50.4927,-0.066898,1.230248,-0.096063,0.328262,-0.402927,-0.548627,0.0
50.5431,-0.066898,1.230248,-0.096063,0.328262,-0.402019,-0.548627,0.0
50.5936,-0.066898,1.230248,-0.096063,0.328262,-0.402019,-0.548627,0.0
50.6439,-0.066898,1.230248,-0.096063,0.328262,-0.402019,-0.548627,0.0
50.6946,-0.066898,1.230248,-0.096063,0.328262,-0.402019,-0.548627,0.0
50.7448,-0.066898,1.230248,-0.096063,0.328262,-0.402019,-0.548627,0.0
50.7954,-0.066898,1.230248,-0.096063,0.328262,-0.402019,-0.548627,0.0
50.8458,-0.066898,1.230248,-0.096063,0.328262,-0.402019,-0.548627,0.0
50.8962,-0.066898,1.230248,-0.096063,0.328262,-0.402019,-0.548627,0.0
50.9468,-0.066898,1.230248,-0.096063,0.328262,-0.402019,-0.548627,0.0
50.9972,-0.066898,1.230248,-0.096063,0.328262,-0.402019,-0.548627,0.0
51.0477,-0.066898,1.230248,-0.096063,0.328262,-0.402019,-0.548627,0.0
51.0982,-0.066898,1.230248,-0.096063,0.328262,-0.402019,-0.548627,0.0
51.1487,-0.066898,1.230248,-0.096063,0.328262,-0.402019,-0.548627,0.0
51.1991,-0.066898,1.230248,-0.096063,0.328262,-0.402019,-0.548627,0.0
51.2494,-0.066898,1.230248,-0.096063,0.328262,-0.402019,-0.548627,0.0
51.2999,-0.066898,1.230248,-0.096063,0.328262,-0.402019,-0.548627,0.0
51.3503,-0.066898,1.230248,-0.096063,0.328262,-0.402019,-0.548627,0.0
51.4009,-0.066898,1.230248,-0.096063,0.328262,-0.402019,-0.548627,0.0
51.4514,-0.066898,1.230248,-0.096063,0.328262,-0.402019,-0.548627,0.0
51.5017,-0.066898,1.230248,-0.096063,0.328262,-0.402019,-0.548627,0.0
51.5522,-0.066898,1.230248,-0.096063,0.328262,-0.402019,-0.548627,0.0
51.6027,-0.066898,1.230248,-0.096063,0.328262,-0.402019,-0.548627,0.0
51.6533,-0.066898,1.230248,-0.096063,0.328262,-0.400448,-0.548627,0.0
51.7036,-0.066898,1.230248,-0.096063,0.328262,-0.400448,-0.548627,0.0
51.7542,-0.066898,1.230248,-0.096063,0.328262,-0.400448,-0.548627,0.0
51.8047,-0.066898,1.230248,-0.096063,0.328262,-0.400448,-0.548627,0.0
51.855,-0.066898,1.230248,-0.096063,0.328262,-0.400448,-0.548627,0.0
51.9055,-0.066898,1.230248,-0.096063,0.328262,-0.400448,-0.548627,0.0
51.956,-0.066898,1.230248,-0.096063,0.328262,-0.400448,-0.548627,0.0
52.0065,-0.066898,1.230248,-0.096063,0.328262,-0.400448,-0.548627,0.0
52.0571,-0.066898,1.230248,-0.096063,0.328262,-0.400448,-0.548627,0.0
52.1073,-0.066898,1.230248,-0.096063,0.328262,-0.400448,-0.548627,0.0
52.158,-0.066898,1.230248,-0.096063,0.328262,-0.399698,-0.548627,0.0
52.2085,-0.066898,1.230248,-0.096063,0.328262,-0.398057,-0.548627,0.0
52.2587,-0.066898,1.230248,-0.096063,0.328262,-0.398057,-0.548627,0.0
52.3092,-0.066898,1.230248,-0.096063,0.328262,-0.398057,-0.548627,0.0
52.3598,-0.066898,1.230248,-0.096063,0.328262,-0.398057,-0.548627,0.0
52.4101,-0.066898,1.230248,-0.096063,0.328262,-0.398057,-0.548627,0.0
52.4607,-0.066898,1.230248,-0.096063,0.328262,-0.398057,-0.548627,0.0
52.5112,-0.066898,1.230248,-0.096063,0.328262,-0.398057,-0.548627,0.0
52.5615,-0.066898,1.230248,-0.096063,0.328262,-0.398057,-0.548627,0.0
52.6121,-0.066898,1.230248,-0.096063,0.328262,-0.398057,-0.548627,0.0
52.6624,-0.066898,1.230248,-0.096063,0.328262,-0.398057,-0.548627,0.0
52.7128,-0.066898,1.230248,-0.096063,0.328262,-0.398057,-0.548627,0.0
52.7635,-0.066898,1.230248,-0.096063,0.328262,-0.398057,-0.548627,0.0
52.8137,-0.066898,1.230248,-0.096063,0.328262,-0.39619,-0.548627,0.0
52.8644,-0.066898,1.230248,-0.096063,0.328262,-0.39619,-0.548627,0.0
52.9149,-0.066898,1.230248,-0.096063,0.328262,-0.39619,-0.548627,0.0
52.9652,-0.066898,1.230248,-0.096063,0.328262,-0.39619,-0.548627,0.0
53.0158,-0.066898,1.230248,-0.096063,0.328262,-0.39619,-0.548627,0.0
53.0663,-0.066898,1.230248,-0.096063,0.328262,-0.39619,-0.548627,0.0
53.1167,-0.066898,1.230248,-0.096063,0.328262,-0.39619,-0.548627,0.0
53.1673,-0.066898,1.230248,-0.096063,0.328262,-0.395858,-0.548627,0.0
53.2176,-0.066898,1.230248,-0.096063,0.328262,-0.395858,-0.548627,0.0
53.2683,-0.066898,1.230248,-0.096063,0.328262,-0.395858,-0.548627,0.0
53.3187,-0.066898,1.230248,-0.096063,0.328262,-0.395858,-0.548627,0.0
53.369,-0.066898,1.230248,-0.096063,0.328262,-0.394026,-0.548627,0.0
53.4196,-0.066898,1.230248,-0.096063,0.328262,-0.39406,-0.548627,0.0
53.4701,-0.066898,1.230248,-0.096063,0.328262,-0.39406,-0.548627,0.0
53.5204,-0.066898,1.230248,-0.096063,0.328262,-0.39406,-0.548627,0.0
53.5709,-0.066898,1.230248,-0.096063,0.328262,-0.39406,-0.548627,0.0
53.6213,-0.066898,1.230248,-0.096063,0.328262,-0.39406,-0.548627,0.0
53.6719,-0.066898,1.230248,-0.096063,0.328262,-0.39406,-0.548627,0.0
53.7222,-0.066898,1.230248,-0.096063,0.328262,-0.39406,-0.548627,0.0
53.7727,-0.066898,1.230248,-0.096063,0.328262,-0.39406,-0.548627,0.0
53.8233,-0.066898,1.230248,-0.096063,0.328262,-0.39406,-0.548627,0.0
53.8737,-0.066898,1.230248,-0.096063,0.328262,-0.39406,-0.548627,0.0
53.9241,-0.066898,1.230248,-0.096063,0.328262,-0.39406,-0.548627,0.0
53.9745,-0.066898,1.230248,-0.096063,0.328262,-0.39406,-0.548627,0.0
54.0251,-0.066898,1.230248,-0.096063,0.328262,-0.39406,-0.548627,0.0
54.0756,-0.066898,1.230248,-0.096063,0.328262,-0.39406,-0.548627,0.0
54.126,-0.066898,1.230248,-0.096063,0.328262,-0.39406,-0.548627,0.0
54.1766,-0.066898,1.230248,-0.096063,0.328262,-0.39406,-0.548627,0.0
54.2269,-0.066898,1.230248,-0.096063,0.328262,-0.39406,-0.548627,0.0
54.2774,-0.066898,1.230248,-0.096063,0.328262,-0.39406,-0.548627,0.0
54.3279,-0.066898,1.230248,-0.096063,0.328262,-0.39406,-0.548627,0.0
54.3782,-0.066898,1.230248,-0.096063,0.328262,-0.39406,-0.548627,0.0
54.4288,-0.066898,1.230248,-0.096063,0.328262,-0.39406,-0.548627,0.0
54.4792,-0.066898,1.230248,-0.096063,0.328262,-0.39406,-0.548627,0.0
54.5298,-0.066898,1.230248,-0.096063,0.328262,-0.39228,-0.548627,0.0
54.5802,-0.066898,1.230248,-0.096063,0.328262,-0.39228,-0.548627,0.0
54.6305,-0.066898,1.230248,-0.096063,0.328262,-0.389749,-0.548627,0.0
54.681,-0.066898,1.230248,-0.096063,0.328262,-0.387515,-0.548627,0.0
54.7315,-0.066898,1.230248,-0.096063,0.328262,-0.387515,-0.548627,0.0
54.782,-0.066898,1.230248,-0.096063,0.328262,-0.387515,-0.548627,0.0
54.8326,-0.066898,1.230248,-0.096063,0.328262,-0.387515,-0.548627,0.0
54.883,-0.066898,1.230248,-0.096063,0.328262,-0.387515,-0.548627,0.0
54.9333,-0.066898,1.230248,-0.096063,0.328262,-0.386067,-0.548627,0.0
54.9841,-0.066898,1.230248,-0.096063,0.328262,-0.386067,-0.548627,0.0
55.0343,-0.066898,1.230248,-0.096063,0.328262,-0.386067,-0.548627,0.0
55.0846,-0.066898,1.230248,-0.096063,0.328262,-0.386067,-0.548627,0.0
55.1349,-0.066898,1.230248,-0.096063,0.328262,-0.386067,-0.548627,0.0
55.1852,-0.066898,1.230248,-0.096063,0.328262,-0.385177,-0.548627,0.0
55.2355,-0.066898,1.230248,-0.096063,0.328262,-0.385177,-0.548627,0.0
55.286,-0.066898,1.230248,-0.096063,0.328262,-0.385177,-0.548627,0.0
55.3363,-0.066898,1.230248,-0.096063,0.328262,-0.383222,-0.548627,0.0
55.3866,-0.066898,1.230248,-0.096063,0.328262,-0.380325,-0.548627,0.0
55.4368,-0.066898,1.230248,-0.096063,0.328262,-0.380639,-0.548627,0.0
55.4873,-0.066898,1.230248,-0.096063,0.328262,-0.379853,-0.548627,0.0
55.5376,-0.066898,1.230248,-0.096063,0.328262,-0.379853,-0.548627,0.0
55.5881,-0.066898,1.230248,-0.096063,0.328262,-0.3783,-0.548627,0.0
55.6382,-0.066898,1.230248,-0.096063,0.328262,-0.3783,-0.548627,0.0
55.6887,-0.066898,1.230248,-0.096063,0.328262,-0.3783,-0.548627,0.0
55.7389,-0.066898,1.230248,-0.096063,0.328262,-0.3783,-0.548627,0.0
55.7893,-0.066898,1.230248,-0.096063,0.328262,-0.3783,-0.548627,0.0
55.8396,-0.066898,1.230248,-0.096063,0.328262,-0.3783,-0.548627,0.0
55.8901,-0.066898,1.230248,-0.096063,0.328262,-0.3783,-0.548627,0.0
55.9402,-0.066898,1.230248,-0.096063,0.328262,-0.3783,-0.548627,0.0
55.9907,-0.066898,1.230248,-0.096063,0.328262,-0.3783,-0.548627,0.0
56.041,-0.066898,1.230248,-0.096063,0.329466,-0.3783,-0.548627,0.0
56.0913,-0.066898,1.230248,-0.096063,0.345453,-0.3783,-0.548627,0.0
56.1417,-0.066898,1.230248,-0.096063,0.345732,-0.377602,-0.548627,0.0
56.1919,-0.066898,1.230248,-0.096063,0.345732,-0.375909,-0.548627,0.0
56.2424,-0.066898,1.230248,-0.096063,0.345732,-0.375909,-0.548627,0.0
56.2927,-0.066898,1.230248,-0.096063,0.345732,-0.375909,-0.548627,0.0
56.3429,-0.066898,1.230248,-0.096063,0.345732,-0.375909,-0.548627,0.0
56.3934,-0.066898,1.230248,-0.096063,0.345732,-0.375909,-0.548627,0.0
56.4439,-0.066898,1.225657,-0.091228,0.345732,-0.378667,-0.548627,0.0
56.4942,-0.066898,1.211224,-0.086586,0.345732,-0.374408,-0.548627,0.0
56.5445,-0.066898,1.195743,-0.071035,0.345732,-0.357077,-0.550407,0.0
56.5947,-0.066898,1.181954,-0.050318,0.345732,-0.354302,-0.563043,0.0
56.645,-0.066898,1.169091,-0.026529,0.36322,-0.408477,-0.563043,0.0
56.6955,-0.066898,1.163436,-0.020333,0.374513,-0.465689,-0.559413,0.0
56.746,-0.066898,1.163838,-0.020333,0.374513,-0.473368,-0.559413,0.0
56.7964,-0.066898,1.163838,-0.022044,0.374513,-0.476091,-0.559413,0.0
56.8465,-0.066898,1.163838,-0.022044,0.374513,-0.472304,-0.559413,0.0
56.8969,-0.066898,1.163838,-0.022044,0.374513,-0.472199,-0.559413,0.0
56.9472,-0.066898,1.163838,-0.022044,0.374513,-0.46719,-0.559413,0.0
56.9976,-0.066898,1.163838,-0.022044,0.374513,-0.46719,-0.559413,0.0
57.0478,-0.066898,1.163838,-0.022044,0.374513,-0.46719,-0.559413,0.0
57.0981,-0.066898,1.163838,-0.022044,0.374513,-0.46719,-0.559413,0.0
57.1486,-0.066898,1.163838,-0.022044,0.374513,-0.46719,-0.559413,0.0
57.1988,-0.066898,1.163838,-0.022044,0.374513,-0.46719,-0.559413,0.0
57.2491,-0.066898,1.163838,-0.022044,0.374513,-0.46719,-0.559413,0.0
57.2995,-0.066898,1.163838,-0.022044,0.374513,-0.46719,-0.559413,0.0
57.3499,-0.066898,1.163838,-0.022044,0.374513,-0.46719,-0.559413,0.0
57.4004,-0.066898,1.163838,-0.022044,0.374513,-0.46719,-0.559413,0.0
57.4507,-0.066898,1.163838,-0.022044,0.374513,-0.46719,-0.559413,0.0
57.5011,-0.066898,1.163838,-0.022044,0.374513,-0.46719,-0.559413,0.0
57.5514,-0.066898,1.163838,-0.022044,0.374513,-0.46719,-0.559413,0.0
57.6018,-0.066898,1.163838,-0.022044,0.374513,-0.46719,-0.559413,0.0
57.6522,-0.066898,1.163838,-0.022044,0.374513,-0.465689,-0.559413,0.0
57.7025,-0.066898,1.163838,-0.022044,0.374513,-0.465689,-0.559413,0.0
57.7528,-0.066898,1.163838,-0.022044,0.374513,-0.465689,-0.559413,0.0
57.8031,-0.066898,1.163838,-0.022044,0.374513,-0.465689,-0.559413,0.0
57.8534,-0.066898,1.163838,-0.022044,0.374513,-0.465689,-0.559413,0.0
57.9038,-0.066898,1.163838,-0.022044,0.374513,-0.465689,-0.559413,0.0
57.954,-0.066898,1.163838,-0.022044,0.374513,-0.465689,-0.559413,0.0
58.0045,-0.066898,1.163838,-0.022044,0.374513,-0.465689,-0.559413,0.0
58.0549,-0.066898,1.163838,-0.022044,0.374513,-0.465689,-0.559413,0.0
58.1054,-0.066898,1.163838,-0.022044,0.374513,-0.465689,-0.559413,0.0
58.1556,-0.066898,1.163838,-0.022044,0.374513,-0.465689,-0.559413,0.0
58.2061,-0.066898,1.163838,-0.022044,0.374513,-0.465689,-0.559413,0.0
58.2564,-0.066898,1.163838,-0.022044,0.374513,-0.465689,-0.559413,0.0
58.3069,-0.066898,1.163838,-0.022044,0.374513,-0.465689,-0.559413,0.0
58.3573,-0.066898,1.163838,-0.022044,0.374513,-0.465689,-0.559413,0.0
58.4074,-0.066898,1.163838,-0.022044,0.374513,-0.465689,-0.559413,0.0
58.4577,-0.066898,1.163838,-0.022044,0.374513,-0.465689,-0.559413,0.0
58.508,-0.066898,1.163838,-0.022044,0.374513,-0.465689,-0.559413,0.0
58.5584,-0.066898,1.163838,-0.022044,0.374513,-0.465689,-0.559413,0.0
58.6088,-0.066898,1.163838,-0.022044,0.374513,-0.465689,-0.559413,0.0
58.659,-0.066898,1.163838,-0.022044,0.374513,-0.465689,-0.559413,0.0
58.7095,-0.066898,1.163838,-0.022044,0.374513,-0.465689,-0.559413,0.0
58.7598,-0.066898,1.163838,-0.022044,0.374513,-0.465689,-0.559413,0.0
58.8101,-0.066898,1.163838,-0.022044,0.374513,-0.465689,-0.559413,0.0
58.8607,-0.066898,1.163838,-0.022044,0.374513,-0.465689,-0.559413,0.0
58.911,-0.066898,1.163838,-0.022044,0.374513,-0.465689,-0.559413,0.0
58.9613,-0.066898,1.163838,-0.022044,0.374513,-0.465689,-0.559413,0.0
59.0116,-0.066898,1.163838,-0.022044,0.374513,-0.465689,-0.559413,0.0
59.0618,-0.066898,1.163838,-0.022044,0.374513,-0.465689,-0.559413,0.0
59.1123,-0.066898,1.163838,-0.022044,0.374513,-0.465689,-0.559413,0.0
59.1626,-0.066898,1.163838,-0.022044,0.374513,-0.465689,-0.559413,0.0
59.2128,-0.066898,1.163838,-0.022044,0.374513,-0.465689,-0.559413,0.0
59.2631,-0.066898,1.163838,-0.022044,0.374513,-0.465689,-0.559413,0.0
59.3134,-0.066898,1.163838,-0.022044,0.374513,-0.465689,-0.559413,0.0
59.3638,-0.066898,1.163838,-0.022044,0.374513,-0.465689,-0.559413,0.0
59.4141,-0.066898,1.163838,-0.022044,0.374513,-0.465689,-0.559413,0.0
59.4644,-0.066898,1.163838,-0.022044,0.374513,-0.465689,-0.559413,0.0
59.5147,-0.066898,1.163838,-0.022044,0.374513,-0.465689,-0.559413,0.0
59.5651,-0.066898,1.163838,-0.022044,0.374513,-0.465689,-0.559413,0.0
59.6155,-0.066898,1.163838,-0.022044,0.374513,-0.465689,-0.559413,0.0
59.6657,-0.066898,1.163838,-0.022044,0.374513,-0.465689,-0.559413,0.0
59.7161,-0.066898,1.163838,-0.022044,0.374513,-0.465689,-0.559413,0.0
59.7664,-0.066898,1.163838,-0.022044,0.374513,-0.465689,-0.559413,0.0
59.8169,-0.066898,1.163838,-0.022044,0.374513,-0.465689,-0.559413,0.0
59.8672,-0.066898,1.163838,-0.022044,0.374513,-0.465689,-0.559413,0.0
59.9174,-0.066898,1.163838,-0.022044,0.374513,-0.465689,-0.559413,0.0
59.9677,-0.066898,1.163838,-0.022044,0.374513,-0.465689,-0.559413,0.0
60.018,-0.066898,1.163838,-0.022044,0.374513,-0.465689,-0.559413,0.0
60.0685,-0.066898,1.163838,-0.022044,0.374513,-0.465689,-0.559413,0.0
60.1188,-0.066898,1.163838,-0.022044,0.374513,-0.465689,-0.559413,0.0
60.169,-0.066898,1.163838,-0.022044,0.374513,-0.465689,-0.559413,0.0
60.2195,-0.066898,1.163838,-0.022044,0.374513,-0.465689,-0.559413,0.0
60.2696,-0.066898,1.163838,-0.022044,0.374513,-0.465689,-0.559413,0.0
60.32,-0.066898,1.163838,-0.022044,0.374513,-0.465689,-0.559413,0.0
60.3705,-0.066898,1.163838,-0.022044,0.374513,-0.465689,-0.559413,0.0
60.4206,-0.066898,1.163838,-0.022044,0.374513,-0.465689,-0.559413,0.0
60.471,-0.066898,1.163838,-0.022044,0.374513,-0.465689,-0.559413,0.0
60.5213,-0.066898,1.163838,-0.022044,0.374513,-0.469878,-0.559413,0.0
60.5718,-0.066898,1.163838,-0.022044,0.374513,-0.484032,-0.559413,0.0
60.6219,-0.066898,1.163838,-0.022044,0.375839,-0.509409,-0.558313,0.0
60.6722,-0.066898,1.163838,-0.022044,0.391093,-0.533495,-0.556969,0.0
60.7227,-0.066898,1.163838,-0.022044,0.404759,-0.546672,-0.556969,0.0
60.773,-0.066898,1.161569,-0.022044,0.405405,-0.553042,-0.556969,0.0
60.8233,-0.066898,1.157345,-0.022044,0.407953,-0.553042,-0.548941,0.0
60.8737,-0.066898,1.149893,-0.022044,0.42052,-0.550826,-0.548941,0.0
60.9239,-0.066898,1.141777,-0.022044,0.429997,-0.550826,-0.548941,0.0
60.9742,-0.066898,1.130712,-0.019862,0.434133,-0.550826,-0.548941,0.0
61.0249,-0.066898,1.112787,-0.01501,0.434133,-0.550826,-0.548941,0.0
61.0754,-0.066898,1.096974,-0.008971,0.434133,-0.545904,-0.548941,0.0
61.1258,-0.066898,1.080184,-0.001326,0.434133,-0.537474,-0.548941,0.0
61.1759,-0.066898,1.056867,0.006283,0.434133,-0.529358,-0.548941,0.0
61.2264,-0.066898,1.031507,0.019618,0.434133,-0.525135,-0.548941,0.0
61.2767,-0.066898,1.013792,0.024958,0.434133,-0.519515,-0.548941,0.0
61.3273,-0.066898,1.000074,0.032219,0.434133,-0.512882,-0.548941,0.0
61.3773,-0.066898,0.991504,0.034592,0.434133,-0.502166,-0.548941,0.0
61.4277,-0.066898,0.990684,0.034592,0.434133,-0.498065,-0.548941,0.0
61.4779,-0.066898,0.990684,0.034592,0.434133,-0.496738,-0.548941,0.0
61.5283,-0.066898,0.990684,0.034592,0.434133,-0.490123,-0.548941,0.0
61.5785,-0.066898,0.990684,0.034592,0.434133,-0.489565,-0.548941,0.0
61.629,-0.066898,0.990684,0.034592,0.434133,-0.489565,-0.548941,0.0
61.6792,-0.066898,0.990684,0.034592,0.434133,-0.489565,-0.548941,0.0
61.7295,-0.066898,0.990684,0.034592,0.434133,-0.489565,-0.548941,0.0
61.7799,-0.066898,0.990684,0.034592,0.434133,-0.489565,-0.548941,0.0
61.8305,-0.066898,0.990684,0.034592,0.434133,-0.485568,-0.548941,0.0
61.8806,-0.066898,0.990684,0.034592,0.434133,-0.478691,-0.548941,0.0
61.931,-0.066898,0.990684,0.034592,0.434133,-0.464205,-0.548941,0.0
61.9813,-0.066898,0.990684,0.034592,0.434133,-0.443924,-0.548941,0.0
62.0317,-0.066898,0.990684,0.034592,0.434133,-0.428461,-0.548941,0.0
62.082,-0.066898,0.990684,0.034592,0.434133,-0.421148,-0.548941,0.0
62.1322,-0.066898,0.990684,0.034592,0.434133,-0.418809,-0.548941,0.0
62.1825,-0.066898,0.990684,0.034592,0.434133,-0.420642,-0.548941,0.0
62.2328,-0.066898,0.990684,0.034592,0.434133,-0.420642,-0.548941,0.0
62.2831,-0.066898,0.990684,0.034592,0.434133,-0.420642,-0.548941,0.0
62.3334,-0.066898,0.990684,0.034592,0.434133,-0.418879,-0.548941,0.0
62.3838,-0.066898,0.990684,0.034592,0.434133,-0.418879,-0.548941,0.0
62.434,-0.066898,0.990684,0.034592,0.434133,-0.418879,-0.548941,0.0
62.4843,-0.066898,0.990684,0.034592,0.434133,-0.41668,-0.548941,0.0
62.5348,-0.066898,0.990684,0.034592,0.434133,-0.41668,-0.548941,0.0
62.585,-0.066898,0.990684,0.034592,0.434133,-0.41668,-0.548941,0.0
62.6354,-0.066898,0.990684,0.034592,0.434133,-0.41668,-0.548941,0.0
62.6857,-0.066898,0.990684,0.034592,0.434133,-0.41668,-0.548941,0.0
62.7359,-0.066898,0.990684,0.034592,0.434133,-0.418547,-0.548941,0.0
62.7864,-0.066898,0.990684,0.034592,0.445513,-0.428688,-0.548941,0.0
62.8366,-0.066898,0.990684,0.034592,0.479704,-0.445268,-0.548941,0.0
62.8869,-0.066898,0.990684,0.034592,0.49995,-0.465078,-0.548941,0.0
62.9373,-0.066898,0.990684,0.034592,0.510736,-0.481536,-0.548941,0.0
62.9878,-0.066898,0.990684,0.034592,0.513371,-0.48384,-0.548941,0.0
63.0379,-0.066898,0.990684,0.034592,0.513511,-0.48384,-0.548941,0.0
63.0884,-0.066898,0.990684,0.034592,0.513511,-0.48384,-0.553025,0.0
63.1387,-0.066898,0.990684,0.034592,0.52119,-0.48384,-0.56238,0.0
63.1892,-0.066898,0.990684,0.034592,0.528172,-0.486353,-0.574545,0.0
63.2396,-0.066898,0.990684,0.034592,0.53613,-0.490717,-0.586623,0.0
63.2899,-0.066898,0.990684,0.034592,0.541593,-0.493858,-0.586623,0.0
63.3402,-0.066898,0.990684,0.034592,0.547056,-0.500857,-0.587443,0.0
63.3906,-0.066898,0.990684,0.034592,0.546463,-0.509392,-0.589066,0.0
63.4409,-0.066898,0.990684,0.034592,0.548993,-0.513109,-0.589066,0.0
63.4913,-0.066898,0.990684,0.034592,0.548993,-0.504732,-0.587286,0.0
63.5415,-0.066898,0.990684,0.034592,0.542029,-0.48501,-0.585401,0.0
63.5918,-0.066898,0.990684,0.034592,0.52414,-0.466457,-0.582905,0.0
63.6421,-0.066898,0.990684,0.034592,0.498675,-0.455304,-0.580933,0.0
63.6924,-0.066898,0.990684,0.034592,0.448742,-0.452756,-0.580933,0.0
63.7429,-0.066898,0.990684,0.034592,0.424621,-0.446159,-0.580933,0.0
63.7933,-0.066898,0.990684,0.034592,0.418739,-0.435966,-0.580933,0.0
63.8435,-0.066898,0.990684,0.034592,0.418739,-0.428967,-0.580933,0.0
63.8943,-0.066898,0.990684,0.034592,0.418739,-0.419211,-0.580933,0.0
63.9446,-0.066898,0.990684,0.034592,0.418739,-0.419211,-0.580933,0.0
63.995,-0.066898,0.990684,0.034592,0.418739,-0.419211,-0.580933,0.0
64.0454,-0.066898,0.990684,0.034592,0.418739,-0.419211,-0.580933,0.0
64.0959,-0.066898,0.990684,0.034592,0.418739,-0.419211,-0.580933,0.0
64.1462,-0.066898,0.990684,0.034592,0.418739,-0.419211,-0.580933,0.0
64.1964,-0.066898,0.990684,0.034592,0.418739,-0.419211,-0.580933,0.0
64.2467,-0.066898,0.990684,0.034592,0.418739,-0.419211,-0.580933,0.0
64.2969,-0.066898,0.990684,0.034592,0.418739,-0.419211,-0.580933,0.0
64.3473,-0.066898,0.990684,0.034592,0.418739,-0.419211,-0.580933,0.0
64.3976,-0.066898,0.990684,0.034592,0.418739,-0.4212,-0.580933,0.0
64.448,-0.066898,0.990684,0.030351,0.418739,-0.421218,-0.580933,0.0
64.4982,-0.066898,0.990684,0.023754,0.418739,-0.416889,-0.580933,0.0
64.5486,-0.066898,0.990684,0.022235,0.418739,-0.415388,-0.580933,0.0
64.5989,-0.066898,0.990684,0.022235,0.418739,-0.408861,-0.580933,0.0
64.6493,-0.066898,0.990684,0.022235,0.418739,-0.407936,-0.580933,0.0
64.6995,-0.066898,0.990684,0.022235,0.420904,-0.410344,-0.580933,0.0
64.7499,-0.066898,0.990684,0.022235,0.433575,-0.410344,-0.580933,0.0
64.8004,-0.066898,0.990684,0.022235,0.449719,-0.410344,-0.580933,0.0
64.8506,-0.066898,0.990684,0.022235,0.468359,-0.414184,-0.580933,0.0
64.901,-0.066898,0.990684,0.022235,0.478098,-0.425651,-0.580933,0.0
64.9513,-0.066898,0.990684,0.022235,0.478098,-0.432161,-0.580933,0.0
65.0015,-0.066898,0.990684,0.022235,0.478098,-0.436001,-0.580933,0.0
65.0519,-0.066898,0.990684,0.022235,0.478098,-0.437676,-0.580933,0.0
65.1022,-0.066898,0.990684,0.022235,0.478098,-0.435879,-0.580933,0.0
65.1524,-0.066898,0.990684,0.022235,0.478098,-0.417273,-0.58376,0.0
65.2027,-0.066898,0.990684,0.022235,0.478098,-0.414114,-0.58376,0.0
65.2531,-0.066898,0.990684,0.022235,0.478098,-0.416017,-0.58376,0.0
65.3033,-0.066898,0.990684,0.022235,0.480315,-0.416017,-0.58376,0.0
65.3538,-0.066898,0.990684,0.022235,0.491729,-0.420781,-0.58376,0.0
65.404,-0.066898,0.990684,0.022235,0.509566,-0.432877,-0.58376,0.0
65.4542,-0.066898,0.990684,0.022235,0.524768,-0.443052,-0.585174,0.0
65.5046,-0.066898,0.990684,0.022235,0.530964,-0.451866,-0.586082,0.0
65.5549,-0.066898,0.990684,0.022235,0.534053,-0.453541,-0.586082,0.0
65.6053,-0.066898,0.990684,0.022235,0.53819,-0.456142,-0.587635,0.0
65.6558,-0.066898,0.990684,0.022235,0.53819,-0.456142,-0.603587,0.0
65.7061,-0.066898,0.990684,0.022235,0.53819,-0.453332,-0.627446,0.0
65.7565,-0.066898,0.990684,0.022235,0.53819,-0.450661,-0.652526,0.0
65.8068,-0.066898,0.990684,0.022235,0.53819,-0.452651,-0.665128,0.0
65.857,-0.066898,0.990684,0.022235,0.527805,-0.44738,-0.670922,0.0
65.9073,-0.066898,0.990684,0.022235,0.524018,-0.436804,-0.670922,0.0
65.9576,-0.066898,0.990684,0.022235,0.524349,-0.430363,-0.670922,0.0
66.0079,-0.066898,0.990684,0.022235,0.524349,-0.426995,-0.670922,0.0
66.059,-0.066898,0.990684,0.022235,0.524349,-0.419036,-0.670922,0.0
66.1093,-0.066898,0.990684,0.022235,0.529533,-0.411496,-0.670922,0.0
66.1597,-0.066898,0.990684,0.022235,0.531191,-0.407918,-0.670922,0.0
66.2104,-0.066898,0.990684,0.022235,0.531191,-0.407918,-0.670922,0.0
66.2606,-0.066898,0.990684,0.022235,0.531191,-0.407918,-0.670922,0.0
66.3112,-0.066898,0.990684,0.022235,0.531191,-0.407918,-0.670922,0.0
66.3617,-0.066898,0.990684,0.022235,0.531191,-0.407918,-0.670922,0.0
66.4122,-0.066898,0.990684,0.022235,0.531191,-0.407918,-0.670922,0.0
66.4624,-0.066898,0.990684,0.022235,0.531191,-0.407918,-0.670922,0.0
66.5129,-0.066898,0.990684,0.022235,0.531191,-0.407918,-0.670922,0.0
66.5633,-0.066898,0.990684,0.022235,0.531191,-0.399715,-0.670922,0.0
66.6137,-0.066898,0.990684,0.022235,0.531191,-0.397656,-0.670922,0.0
66.6643,-0.066898,0.990684,0.022235,0.524349,-0.397656,-0.670922,0.0
66.7148,-0.066898,0.990684,0.021642,0.511661,-0.403398,-0.663923,0.0
66.7654,-0.066898,0.990684,0.021642,0.487994,-0.418495,-0.648774,0.0
66.8157,-0.066898,0.990684,0.021642,0.456107,-0.437624,-0.62701,0.0
66.8661,-0.066898,0.990684,0.021642,0.423714,-0.465235,-0.60816,0.0
66.9165,-0.066898,0.990684,0.021642,0.343481,-0.52215,-0.601371,0.0
66.967,-0.066898,0.990684,0.021642,0.298416,-0.548138,-0.589956,0.0
67.0174,-0.066898,0.990684,0.021642,0.259391,-0.566621,-0.548574,0.0
67.0678,-0.066898,0.990684,0.021642,0.235043,-0.58308,-0.511678,0.0
67.1185,-0.066898,0.990684,0.021642,0.230314,-0.594773,-0.48288,0.0
67.169,-0.066898,0.990684,0.021642,0.230314,-0.594965,-0.459074,0.0
67.2193,-0.066898,0.990684,0.021642,0.230314,-0.594965,-0.439317,0.0
67.2697,-0.066898,0.990684,0.021642,0.230314,-0.594965,-0.416593,0.0
67.3199,-0.066898,0.990684,0.021642,0.230314,-0.599224,-0.398319,0.0
67.37,-0.066898,0.990684,0.021642,0.230314,-0.608701,-0.376677,0.0
67.4203,-0.066898,0.990684,0.021642,0.224135,-0.627969,-0.364303,0.0
67.4708,-0.066898,0.990684,0.021642,0.208043,-0.660607,-0.345575,0.0
67.521,-0.066898,0.990684,0.021642,0.188059,-0.711449,-0.327319,0.0
67.5713,-0.066898,0.990684,0.021642,0.156294,-0.773931,-0.306585,0.0
67.6215,-0.066898,0.990684,0.021642,0.133256,-0.850272,-0.266756,0.0
67.6718,-0.066898,0.990684,0.021642,0.133238,-0.91361,-0.24494,0.0
67.7223,-0.066898,0.990684,0.021642,0.133238,-0.937713,-0.242095,0.0
67.7726,-0.066898,0.990684,0.021642,0.133238,-0.945829,-0.242095,0.0
67.823,-0.066898,0.990684,0.021642,0.133238,-0.94712,-0.242095,0.0
67.8733,-0.066898,0.990684,0.021642,0.133238,-0.94712,-0.242095,0.0
67.9238,-0.066898,0.990684,0.01665,0.130533,-0.944555,-0.242095,0.0
67.974,-0.066898,0.990684,0.003857,0.114476,-0.933542,-0.242095,0.0
68.0244,-0.066898,0.990684,-0.016825,0.08978,-0.907676,-0.242095,0.0
68.0748,-0.066898,0.990684,-0.065223,0.072082,-0.823167,-0.242095,0.0
68.125,-0.066898,0.990684,-0.137113,0.060214,-0.680521,-0.242095,0.0
68.1753,-0.066898,0.990684,-0.217852,0.060214,-0.527491,-0.242095,0.0
68.2258,-0.066898,0.990684,-0.296549,0.065799,-0.376939,-0.242095,0.0
68.2762,-0.066898,0.990684,-0.421288,0.087808,-0.244084,-0.242095,0.0
68.3264,-0.066898,0.990684,-0.51763,0.119712,-0.119764,-0.242095,0.0
68.3768,-0.066898,0.990684,-0.608457,0.148126,-0.042726,-0.242095,0.0
68.427,-0.066898,0.990684,-0.691325,0.193051,0.009687,-0.242095,0.0
68.4774,-0.070703,0.990684,-0.762761,0.248587,0.047979,-0.235619,0.0
68.5277,-0.078679,0.986844,-0.818141,0.285571,0.069132,-0.234956,0.0
68.5782,-0.083915,0.977768,-0.859924,0.300703,0.076341,-0.234956,0.0
68.6283,-0.084474,0.958186,-0.873415,0.300703,0.076341,-0.234956,0.0
68.6787,-0.084474,0.93054,-0.871007,0.300703,0.076341,-0.227731,0.0
68.7289,-0.084474,0.890903,-0.858004,0.300703,0.08203,-0.216787,0.0
68.7793,-0.084474,0.857253,-0.838805,0.300703,0.084509,-0.21286,0.0
68.8296,-0.08964,0.814947,-0.814964,0.300703,0.086411,-0.21286,0.0
68.88,-0.099327,0.767072,-0.785712,0.300703,0.09231,-0.21286,0.0
68.9304,-0.108245,0.725882,-0.76119,0.298888,0.11486,-0.21286,0.0
68.9808,-0.111143,0.673121,-0.725813,0.298888,0.138666,-0.21286,0.0
69.031,-0.111143,0.64256,-0.698079,0.298888,0.138666,-0.21286,0.0
69.0815,-0.111143,0.619836,-0.675373,0.298888,0.138666,-0.21286,0.0
69.1319,-0.111143,0.59987,-0.652352,0.298888,0.138666,-0.21286,0.0
69.1822,-0.111143,0.579519,-0.624426,0.298888,0.138666,-0.21286,0.0
69.2324,-0.111143,0.563759,-0.597409,0.298888,0.141092,-0.21286,0.0
69.2828,-0.111143,0.553008,-0.568366,0.296619,0.149156,-0.21286,0.0
69.3331,-0.111143,0.547545,-0.544962,0.292273,0.154636,-0.21286,0.0
69.3834,-0.111143,0.547545,-0.527037,0.292273,0.164969,-0.21286,0.0
69.4338,-0.111143,0.547545,-0.501782,0.292273,0.168459,-0.21286,0.0
69.4841,-0.111143,0.547545,-0.479843,0.292273,0.168459,-0.21286,0.0
69.5344,-0.111143,0.547545,-0.464101,0.288433,0.168459,-0.21286,0.0
69.5849,-0.111143,0.547545,-0.449091,0.261538,0.168459,-0.21286,0.0
69.6352,-0.111143,0.547545,-0.43073,0.199072,0.168459,-0.21286,0.0
69.6857,-0.111143,0.547545,-0.422597,0.1568,0.173451,-0.21286,0.0
69.736,-0.111143,0.547545,-0.422282,0.132732,0.178355,-0.21286,0.0
69.7862,-0.111143,0.547545,-0.422282,0.132732,0.178355,-0.21286,0.0
69.8367,-0.111143,0.547545,-0.422282,0.134635,0.176278,-0.21286,0.0
69.8871,-0.111143,0.547545,-0.422282,0.136467,0.176278,-0.21286,0.0
69.9373,-0.111143,0.547545,-0.422282,0.141843,0.176278,-0.21286,0.0
69.9876,-0.111143,0.547545,-0.422282,0.141843,0.178128,-0.21286,0.0
70.0381,-0.111143,0.547545,-0.422282,0.141843,0.186523,-0.21286,0.0
70.0885,-0.111143,0.547545,-0.422282,0.141843,0.204553,-0.21286,0.0
70.1386,-0.111143,0.547545,-0.422282,0.141843,0.251589,-0.21286,0.0
70.189,-0.111143,0.547545,-0.422282,0.141843,0.313199,-0.21286,0.0
70.2393,-0.111143,0.547545,-0.422282,0.141843,0.362173,-0.21286,0.0
70.2897,-0.111143,0.547545,-0.422282,0.141843,0.40249,-0.21286,0.0
70.34,-0.111143,0.547545,-0.422282,0.141843,0.412823,-0.21286,0.0
70.3905,-0.111143,0.547545,-0.422282,0.141843,0.407534,-0.21286,0.0
70.4409,-0.111143,0.547545,-0.422282,0.141843,0.39146,-0.21286,0.0
70.4912,-0.111143,0.547545,-0.422282,0.141843,0.372645,-0.21286,0.0
70.5416,-0.111143,0.547545,-0.422282,0.141843,0.353848,-0.21286,0.0
70.5918,-0.111143,0.547545,-0.422282,0.141843,0.346849,-0.21286,0.0
70.6421,-0.111143,0.547545,-0.422282,0.141843,0.346849,-0.21286,0.0
70.6925,-0.111143,0.547545,-0.420991,0.141843,0.346849,-0.21286,0.0
70.7427,-0.111143,0.547545,-0.419909,0.141843,0.346849,-0.21286,0.0
70.7931,-0.111143,0.547545,-0.418495,0.141843,0.346849,-0.21286,0.0
70.8433,-0.111143,0.547545,-0.418495,0.141843,0.346849,-0.21286,0.0
70.8937,-0.111143,0.547545,-0.418495,0.141843,0.346849,-0.21286,0.0
70.944,-0.111143,0.547545,-0.411095,0.141843,0.344074,-0.21286,0.0
70.9943,-0.111143,0.547545,-0.402211,0.141843,0.341893,-0.21286,0.0
71.0449,-0.111143,0.547545,-0.389261,0.141843,0.327912,-0.21286,0.0
71.0955,-0.111143,0.547545,-0.371301,0.141843,0.301663,-0.21286,0.0
71.1456,-0.111143,0.547545,-0.357932,0.141843,0.272219,-0.21286,0.0
71.1961,-0.111143,0.547545,-0.342748,0.141843,0.240314,-0.21286,0.0
71.2463,-0.111143,0.547545,-0.33636,0.141843,0.222791,-0.21286,0.0
71.2966,-0.111143,0.547545,-0.331857,0.141843,0.215426,-0.21286,0.0
71.3469,-0.111143,0.547545,-0.332328,0.141843,0.211132,-0.21286,0.0
71.3972,-0.111143,0.547545,-0.332328,0.141843,0.211132,-0.21286,0.0
71.4475,-0.111143,0.547545,-0.332328,0.141843,0.211132,-0.21286,0.0
71.498,-0.111143,0.547545,-0.332328,0.141843,0.211132,-0.21286,0.0
71.5481,-0.111143,0.547545,-0.332328,0.141843,0.211132,-0.21286,0.0
71.5985,-0.111143,0.547545,-0.332328,0.141843,0.211132,-0.21286,0.0
71.649,-0.111143,0.547545,-0.332328,0.141843,0.211132,-0.21286,0.0
71.6992,-0.111143,0.547545,-0.332328,0.141843,0.211132,-0.21286,0.0
71.7494,-0.111143,0.547545,-0.332328,0.141843,0.211132,-0.21286,0.0
71.8,-0.111143,0.547545,-0.332328,0.141843,0.211132,-0.21286,0.0
71.8504,-0.111143,0.547545,-0.332328,0.143326,0.211132,-0.21286,0.0
71.9013,-0.111143,0.547545,-0.332328,0.151111,0.211132,-0.21286,0.0
71.9516,-0.111143,0.547545,-0.332328,0.179577,0.211132,-0.21286,0.0
72.0017,-0.111143,0.547545,-0.331421,0.200783,0.211132,-0.21286,0.0
72.0518,-0.111143,0.547545,-0.331421,0.214379,0.211132,-0.21286,0.0
72.1022,-0.111143,0.547545,-0.331421,0.225217,0.211132,-0.21286,0.0
72.1525,-0.111143,0.547545,-0.331421,0.240384,0.211132,-0.21286,0.0
72.203,-0.111143,0.547545,-0.331421,0.2559,0.211132,-0.21286,0.0
72.2534,-0.111143,0.547545,-0.331421,0.277385,0.211132,-0.21286,0.0
72.3036,-0.111143,0.547545,-0.331421,0.296357,0.211132,-0.21286,0.0
72.3539,-0.111143,0.547545,-0.331421,0.300755,0.211132,-0.21286,0.0
72.4043,-0.111143,0.547545,-0.331421,0.300755,0.212878,-0.21286,0.0
72.4547,-0.111143,0.547545,-0.331421,0.306235,0.212878,-0.21286,0.0
72.5052,-0.111143,0.547545,-0.331421,0.323148,0.212878,-0.21286,0.0
72.5563,-0.111143,0.547545,-0.331421,0.322362,0.212878,-0.21286,0.0
72.6073,-0.111143,0.547545,-0.331421,0.322362,0.212878,-0.21286,0.0
72.6575,-0.111143,0.547545,-0.331421,0.332346,0.212878,-0.21286,0.0
72.7085,-0.111143,0.547545,-0.331421,0.356396,0.212878,-0.21286,0.0
72.7593,-0.111143,0.547545,-0.331421,0.37748,0.210295,-0.21286,0.0
72.81,-0.111143,0.547545,-0.331421,0.390954,0.207991,-0.21286,0.0
72.8609,-0.111143,0.547545,-0.331421,0.411514,0.204762,-0.21286,0.0
72.9114,-0.111143,0.547545,-0.331421,0.434133,0.204099,-0.21286,0.0
72.962,-0.111143,0.547545,-0.331421,0.457102,0.198287,-0.21286,0.0
