diyakadadi/agilex-hackathon/recordings/trajectory_20260524_141356.csv
dt,j1,j2,j3,j4,j5,j6,gripper_m
0.0,0.009495,-0.028833,-0.056357,-0.041853,-0.189089,0.331944,0.0
0.0506,0.009495,-0.028833,-0.056357,-0.041853,-0.189089,0.331944,0.0
0.1009,0.009495,-0.028833,-0.056357,-0.041853,-0.189089,0.331944,0.0
0.1515,0.009495,-0.028833,-0.056357,-0.041853,-0.189089,0.331944,0.0
0.2018,0.009495,-0.028833,-0.056357,-0.041853,-0.189089,0.331944,0.0
0.2523,0.009495,-0.028833,-0.056357,-0.041853,-0.189089,0.331944,0.0
0.3027,0.009495,-0.028833,-0.056357,-0.041853,-0.189089,0.331944,0.0
0.3534,0.009495,-0.028833,-0.056357,-0.041853,-0.189089,0.331944,0.0
0.4039,0.009495,-0.028833,-0.056357,-0.041853,-0.189089,0.331944,0.0
0.4542,0.009495,-0.028833,-0.056357,-0.041853,-0.189089,0.331944,0.0
0.5048,0.009495,-0.028833,-0.056357,-0.041853,-0.189089,0.331944,0.0
0.5552,0.009495,-0.028833,-0.056357,-0.041853,-0.189089,0.331944,0.0
0.6055,0.009495,-0.028833,-0.056357,-0.041853,-0.189089,0.331944,0.0
0.6559,0.009495,-0.028833,-0.056357,-0.041853,-0.189089,0.331944,0.0
0.7063,0.009495,-0.028833,-0.056357,-0.041853,-0.189089,0.331944,0.0
0.7565,0.009495,-0.028833,-0.056357,-0.041853,-0.189089,0.331944,0.0
0.8069,0.009495,-0.028833,-0.056357,-0.041853,-0.189089,0.331944,0.0
0.8573,0.009495,-0.028833,-0.056357,-0.041853,-0.189089,0.331944,0.0
0.9075,0.009495,-0.028833,-0.056357,-0.041853,-0.189089,0.331944,0.0
0.9578,0.009495,-0.028833,-0.056357,-0.041853,-0.189089,0.331944,0.0
1.0081,0.009495,-0.028833,-0.056357,-0.041853,-0.189089,0.331944,0.0
1.0585,0.009495,-0.028833,-0.056357,-0.041853,-0.189089,0.331944,0.0
1.109,0.009495,-0.028833,-0.056357,-0.041853,-0.189089,0.331944,0.0
1.1594,0.009495,-0.028833,-0.056357,-0.041853,-0.189089,0.331944,0.0
1.2097,0.009495,-0.028833,-0.056357,-0.041853,-0.189089,0.331944,0.0
1.2601,0.009495,-0.028833,-0.056357,-0.041853,-0.189089,0.331944,0.0
1.3106,0.009495,-0.028833,-0.056357,-0.041853,-0.189089,0.331944,0.0
1.361,0.009495,-0.028833,-0.056357,-0.041853,-0.189089,0.331944,0.0
1.4114,0.009495,-0.028833,-0.056357,-0.041853,-0.189089,0.331944,0.0
1.4618,0.009495,-0.028833,-0.056357,-0.041853,-0.189089,0.331944,0.0
1.5123,0.009495,-0.028833,-0.056357,-0.041853,-0.189089,0.331944,0.0
1.5624,0.009495,-0.028833,-0.056357,-0.041853,-0.189089,0.331944,0.0
1.6128,0.009495,-0.028833,-0.056357,-0.041853,-0.189089,0.331944,0.0
1.6631,0.009495,-0.028833,-0.056357,-0.041853,-0.189089,0.331944,0.0
1.7136,0.009495,-0.028833,-0.056357,-0.041853,-0.189089,0.331944,0.0
1.764,0.009495,-0.028833,-0.056357,-0.041853,-0.189089,0.331944,0.0
1.8144,0.009495,-0.028833,-0.056357,-0.041853,-0.189089,0.331944,0.0
1.8647,0.009495,-0.028833,-0.056357,-0.041853,-0.189089,0.331944,0.0
1.9152,0.009495,-0.028833,-0.056357,-0.041853,-0.189089,0.331944,0.0
1.9655,0.009495,-0.028833,-0.056357,-0.041853,-0.189089,0.331944,0.0
2.0158,0.009495,-0.028833,-0.056357,-0.041853,-0.189089,0.331944,0.0
2.0663,0.009495,-0.028833,-0.056357,-0.041853,-0.189089,0.331944,0.0
2.1167,0.009495,-0.028833,-0.056357,-0.041853,-0.189089,0.331944,0.0
2.167,0.009495,-0.028833,-0.056357,-0.041853,-0.189089,0.331944,0.0
2.2174,0.009495,-0.028833,-0.056357,-0.041853,-0.189089,0.331944,0.0
2.2677,0.009495,-0.028833,-0.056357,-0.041853,-0.189089,0.331944,0.0
2.318,0.009495,-0.028833,-0.056357,-0.041853,-0.189089,0.331944,0.0
2.3685,0.009495,-0.028833,-0.056357,-0.041853,-0.189089,0.331944,0.0
2.4188,0.009495,-0.028833,-0.056357,-0.041853,-0.189089,0.331944,0.0
2.4692,0.009495,-0.028833,-0.056357,-0.041853,-0.189089,0.331944,0.0
2.5195,0.009495,-0.028833,-0.056357,-0.041853,-0.189089,0.331944,0.0
2.57,0.009495,-0.028833,-0.056357,-0.041853,-0.189089,0.331944,0.0
2.6202,0.009495,-0.028833,-0.056357,-0.041853,-0.189089,0.331944,0.0
2.6706,0.009495,-0.028833,-0.056357,-0.041853,-0.189089,0.331944,0.0
2.721,0.009495,-0.028833,-0.056357,-0.041853,-0.189089,0.331944,0.0
2.7715,0.009495,-0.028833,-0.056357,-0.041853,-0.189089,0.331944,0.0
2.8218,0.009495,-0.028833,-0.056357,-0.041853,-0.189089,0.331944,0.0
2.8723,0.009495,-0.028833,-0.056357,-0.041853,-0.189089,0.331944,0.0
2.9227,0.009495,-0.028833,-0.056357,-0.041853,-0.189089,0.331944,0.0
2.9732,0.009495,-0.028833,-0.056357,-0.041853,-0.189089,0.331944,0.0
3.0234,0.009495,-0.028833,-0.056357,-0.041853,-0.189089,0.331944,0.0
3.0737,0.009495,-0.028833,-0.056357,-0.041853,-0.189089,0.331944,0.0
3.1241,0.009495,-0.028833,-0.056357,-0.041853,-0.189089,0.331944,0.0
3.1745,0.009495,-0.028833,-0.056357,-0.041853,-0.189089,0.331944,0.0
3.2247,0.009495,-0.028833,-0.056357,-0.041853,-0.189089,0.331944,0.0
3.275,0.009495,-0.028833,-0.056357,-0.041853,-0.189089,0.331944,0.0
3.3254,0.009495,-0.028833,-0.056357,-0.041853,-0.189089,0.331944,0.0
3.3757,0.009495,-0.028833,-0.056357,-0.041853,-0.189089,0.331944,0.0
3.4261,0.009495,-0.028833,-0.056357,-0.041853,-0.189089,0.331944,0.0
3.4764,0.009495,-0.028833,-0.056357,-0.041853,-0.189089,0.331944,0.0
3.527,0.009495,-0.028833,-0.056357,-0.041853,-0.189089,0.331944,0.0
3.5772,0.009495,-0.028833,-0.056357,-0.041853,-0.189089,0.331944,0.0
3.6277,0.009495,-0.028833,-0.056357,-0.041853,-0.189089,0.331944,0.0
3.678,0.009495,-0.028833,-0.056357,-0.041853,-0.189089,0.331944,0.0
3.7286,0.009495,-0.028833,-0.056357,-0.041853,-0.189089,0.331944,0.0
3.7789,0.009495,-0.028833,-0.056357,-0.041853,-0.189089,0.331944,0.0
3.8293,0.009495,-0.028833,-0.056357,-0.041853,-0.189089,0.331944,0.0
3.8795,0.009495,-0.028833,-0.056357,-0.041853,-0.189089,0.331944,0.0
3.9297,0.009495,-0.028833,-0.056357,-0.041853,-0.189089,0.331944,0.0
3.9801,0.009495,-0.028833,-0.056357,-0.041853,-0.189089,0.331944,0.0
4.0304,0.009495,-0.028833,-0.056357,-0.041853,-0.189089,0.331944,0.0
4.0806,0.009495,-0.028833,-0.056357,-0.041853,-0.189089,0.331944,0.0
4.1307,0.009495,-0.028833,-0.056357,-0.041853,-0.189089,0.331944,0.0
4.1812,0.009495,-0.028833,-0.056357,-0.041853,-0.189089,0.331944,0.0
4.2316,0.009495,-0.028833,-0.056357,-0.041853,-0.189089,0.331944,0.0
4.2816,0.009495,-0.028833,-0.056357,-0.041853,-0.189089,0.331944,0.0
4.3319,0.009495,-0.028833,-0.056357,-0.041853,-0.189089,0.331944,0.0
4.382,0.009495,-0.028833,-0.056357,-0.041853,-0.189089,0.331944,0.0
4.4323,0.009495,-0.028833,-0.056357,-0.041853,-0.189089,0.331944,0.0
4.4826,0.009495,-0.028833,-0.056357,-0.041853,-0.189089,0.331944,0.0
4.5331,0.009495,-0.028833,-0.056357,-0.041853,-0.189089,0.331944,0.0
4.5835,0.009495,-0.028833,-0.056357,-0.041853,-0.189089,0.331944,0.0
4.6341,0.009495,-0.028833,-0.056357,-0.041853,-0.189089,0.331944,0.0
4.6843,0.009495,-0.028833,-0.056357,-0.041853,-0.189089,0.331944,0.0
4.7348,0.009495,-0.028833,-0.056357,-0.041853,-0.189089,0.331944,0.0
4.7851,0.009495,-0.028833,-0.056357,-0.041853,-0.189089,0.331944,0.0
4.8354,0.009495,-0.028833,-0.056357,-0.041853,-0.189089,0.331944,0.0
4.8857,0.009495,-0.028833,-0.056357,-0.041853,-0.189089,0.331944,0.0
4.9361,0.009495,-0.028833,-0.056357,-0.041853,-0.189089,0.331944,0.0
4.9865,0.009495,-0.028833,-0.056357,-0.041853,-0.189089,0.331944,0.0
5.0368,0.009495,-0.028833,-0.056357,-0.041853,-0.189089,0.331944,0.0
5.087,0.009495,-0.028833,-0.056357,-0.041853,-0.189089,0.331944,0.0
5.1373,0.009495,-0.028833,-0.056357,-0.041853,-0.189089,0.331944,0.0
5.1876,0.009495,-0.028833,-0.056357,-0.041853,-0.189089,0.331944,0.0
5.238,0.009495,-0.028833,-0.056357,-0.041853,-0.189089,0.331944,0.0
5.2883,0.009495,-0.028833,-0.056357,-0.041853,-0.189089,0.331944,0.0
5.3385,0.009495,-0.028833,-0.056357,-0.041853,-0.189089,0.331944,0.0
5.3889,0.009495,-0.028833,-0.056357,-0.041853,-0.189089,0.331944,0.0
5.4395,0.009495,-0.028833,-0.056357,-0.041853,-0.189089,0.331944,0.0
5.49,0.009495,-0.028833,-0.056357,-0.041853,-0.189089,0.331944,0.0
5.5401,0.009495,-0.028833,-0.056357,-0.041853,-0.189089,0.331944,0.0
5.5904,0.009495,-0.028833,-0.056357,-0.041853,-0.189089,0.331944,0.0
5.6409,0.009495,-0.028833,-0.056357,-0.041853,-0.189089,0.331944,0.0
5.6911,0.009495,-0.028833,-0.056357,-0.041853,-0.189089,0.331944,0.0
5.7415,0.009495,-0.028833,-0.056357,-0.041853,-0.189089,0.331944,0.0
5.7917,0.009495,-0.028833,-0.056357,-0.041853,-0.189089,0.331944,0.0
5.8421,0.009495,-0.028833,-0.056357,-0.041853,-0.189089,0.331944,0.0
5.8924,0.009495,-0.028833,-0.057875,-0.041853,-0.189089,0.331944,0.0
5.9426,0.009495,-0.028833,-0.071244,-0.041853,-0.189089,0.331944,0.0
5.9931,0.009495,-0.019408,-0.093235,-0.041853,-0.186436,0.331944,0.0
6.0437,0.009495,0.0,-0.129818,-0.041853,-0.179193,0.331944,0.0
6.0941,0.009495,0.036844,-0.178861,-0.041853,-0.155264,0.331944,0.0
6.1445,0.009495,0.079378,-0.236457,-0.041853,-0.107547,0.331944,0.0
6.195,0.009495,0.12994,-0.309901,-0.041853,-0.059551,0.331944,0.0
6.2453,0.009495,0.185546,-0.379243,-0.041853,-0.009913,0.331944,0.0
6.2956,0.009495,0.251956,-0.451237,-0.041853,0.043249,0.331944,0.0
6.3458,0.009495,0.310197,-0.534664,-0.041853,0.10547,0.331944,0.0
6.3962,0.009495,0.366676,-0.605577,-0.041853,0.188775,0.331944,0.0
6.4465,0.009495,0.421986,-0.672353,-0.041853,0.269618,0.331944,0.0
6.4969,0.009495,0.48398,-0.734103,-0.041853,0.353359,0.331944,0.0
6.5472,0.009495,0.535223,-0.789727,-0.041853,0.44546,0.331944,0.0
6.5974,0.009495,0.58472,-0.837322,-0.041853,0.516879,0.331944,0.0
6.6478,0.009495,0.630465,-0.879122,-0.041853,0.573463,0.331944,0.0
6.6982,0.009495,0.673837,-0.904447,-0.041853,0.62118,0.331944,0.0
6.7486,0.009495,0.711641,-0.921063,-0.041853,0.65785,0.331944,0.0
6.7989,0.009495,0.746477,-0.929248,-0.041853,0.684274,0.331944,0.0
6.8493,0.009495,0.780965,-0.929248,-0.041853,0.699284,0.331944,0.0
6.8995,0.009495,0.812747,-0.929248,-0.041853,0.726615,0.331944,0.0
6.9498,0.009495,0.838893,-0.929248,-0.041853,0.760597,0.331944,0.0
7.0003,0.009495,0.868284,-0.929248,-0.041853,0.816866,0.331944,0.0
7.0505,0.009495,0.895302,-0.929248,-0.047176,0.889472,0.331944,0.0
7.1009,0.009495,0.925112,-0.930994,-0.066305,0.975901,0.331944,0.0
7.1511,0.009495,0.945794,-0.930994,-0.082781,1.030146,0.331944,0.0
7.2015,0.009495,0.970089,-0.930994,-0.103446,1.081807,0.331944,0.0
7.2516,0.009495,0.989671,-0.930994,-0.120428,1.10228,0.331944,0.0
7.302,0.009495,1.014682,-0.930994,-0.132924,1.112386,0.331944,0.0
7.3525,0.009495,1.032886,-0.930994,-0.135193,1.112386,0.331944,0.0
7.4029,0.009495,1.059712,-0.930994,-0.13844,1.112386,0.331944,0.0
7.4533,0.009495,1.086398,-0.930994,-0.145805,1.114148,0.331944,0.0
7.5038,0.009495,1.11537,-0.930994,-0.146136,1.114148,0.331944,0.0
7.5545,0.009495,1.146123,-0.930994,-0.146136,1.114148,0.331944,0.0
7.6047,0.009495,1.182967,-0.930994,-0.146136,1.114148,0.331944,0.0
7.655,0.009495,1.215831,-0.930994,-0.146136,1.114148,0.331944,0.0
7.7053,0.009495,1.249342,-0.930994,-0.146136,1.114148,0.331944,0.0
7.7557,0.009495,1.282625,-0.928917,-0.146136,1.111897,0.331944,0.0
7.806,0.009495,1.322785,-0.928917,-0.146136,1.114393,0.331944,0.0
7.8562,0.009495,1.35942,-0.928917,-0.147917,1.114393,0.331944,0.0
7.9066,0.009495,1.397154,-0.928917,-0.147829,1.114393,0.331944,0.0
7.9567,0.009495,1.43569,-0.928917,-0.147829,1.114393,0.331944,0.0
8.007,0.009495,1.47784,-0.928917,-0.147829,1.110431,0.331944,0.0
8.0571,0.009495,1.511612,-0.928917,-0.147829,1.09673,0.331944,0.0
8.1074,0.009495,1.540916,-0.928917,-0.147829,1.073325,0.331944,0.0
8.1578,0.009495,1.566328,-0.928917,-0.147829,1.046377,0.331944,0.0
8.208,0.009495,1.588058,-0.928917,-0.147829,1.021524,0.331944,0.0
8.2584,0.009495,1.606296,-0.928917,-0.149749,0.989462,0.331944,0.0
8.3088,0.009495,1.620468,-0.928917,-0.151111,0.968553,0.331944,0.0
8.3592,0.009495,1.632808,-0.928917,-0.154444,0.962025,0.331944,0.0
8.4096,0.009495,1.639143,-0.928917,-0.15612,0.962025,0.331944,0.0
8.4601,0.009495,1.646456,-0.928917,-0.158476,0.962025,0.331944,0.0
8.5105,0.009495,1.653857,-0.928917,-0.172264,0.962025,0.331944,0.0
8.561,0.009495,1.664852,-0.928917,-0.180624,0.960106,0.331944,0.0
8.6113,0.009495,1.672828,-0.923035,-0.180799,0.956912,0.331944,0.0
8.6616,0.009495,1.684295,-0.911463,-0.195861,0.942897,0.331944,0.0
8.7119,0.009495,1.690858,-0.890746,-0.22232,0.911254,0.331944,0.0
8.7622,0.009495,1.692271,-0.869558,-0.242548,0.875335,0.331944,0.0
8.8126,0.009495,1.692271,-0.85001,-0.259705,0.840289,0.331944,0.0
8.8628,0.009495,1.692271,-0.832993,-0.26454,0.808053,0.331944,0.0
8.9131,0.009495,1.692271,-0.819345,-0.26454,0.779796,0.331944,0.0
8.9635,0.009495,1.692271,-0.80718,-0.26454,0.747507,0.331944,0.0
9.0138,0.009495,1.692271,-0.798698,-0.26454,0.719564,0.331944,0.0
9.0643,0.009495,1.693092,-0.791594,-0.26454,0.697626,0.331944,0.0
9.1147,0.009495,1.693092,-0.786864,-0.26454,0.676385,0.331944,0.0
9.1651,0.009495,1.693092,-0.784875,-0.26454,0.671376,0.331944,0.0
9.2153,0.009495,1.693092,-0.784875,-0.26454,0.671376,0.331944,0.0
9.2657,0.009495,1.693092,-0.784875,-0.26454,0.671376,0.331944,0.0
9.316,0.009495,1.693092,-0.782658,-0.26454,0.669753,0.331944,0.0
9.3663,0.009495,1.69475,-0.782658,-0.26454,0.669753,0.331944,0.0
9.4166,0.009495,1.697472,-0.782658,-0.26454,0.669753,0.331944,0.0
9.4671,0.009495,1.705745,-0.782658,-0.26454,0.669753,0.331944,0.0
9.5173,0.009495,1.711959,-0.782658,-0.26454,0.669753,0.331944,0.0
9.5676,0.009495,1.722134,-0.782658,-0.26454,0.669753,0.331944,0.0
9.618,0.009495,1.72182,-0.782658,-0.26454,0.669491,0.331944,0.0
9.6685,0.009495,1.72182,-0.782658,-0.26454,0.669491,0.331944,0.0
9.7188,0.009495,1.72182,-0.782658,-0.26454,0.669491,0.331944,0.0
9.7693,0.009495,1.72182,-0.782658,-0.26454,0.669491,0.331944,0.0
9.8196,0.009495,1.72182,-0.782658,-0.254312,0.669491,0.331944,0.0
9.8702,0.009495,1.72182,-0.782658,-0.252043,0.669491,0.331944,0.0
9.9206,0.009495,1.72182,-0.782658,-0.252043,0.669491,0.331944,0.0
9.9709,0.009495,1.72182,-0.782658,-0.252043,0.669491,0.331944,0.0
10.0213,0.009495,1.72182,-0.782658,-0.252043,0.669491,0.331944,0.0
10.0716,0.009495,1.72182,-0.782658,-0.252043,0.669491,0.331944,0.0
10.1218,0.009495,1.72182,-0.782658,-0.252043,0.669491,0.331944,0.0
10.1721,0.009495,1.72182,-0.782658,-0.252043,0.669491,0.331944,0.0
10.2225,0.009495,1.72182,-0.782658,-0.252043,0.669491,0.331944,0.0
10.2728,0.009495,1.72182,-0.782658,-0.252043,0.669491,0.331944,0.0
10.3231,0.009495,1.72182,-0.782658,-0.253876,0.669491,0.331944,0.0
10.3735,0.009495,1.72182,-0.782658,-0.253876,0.669491,0.331944,0.0
10.4238,0.009495,1.72182,-0.782658,-0.253876,0.669491,0.331944,0.0
10.4742,0.009495,1.72182,-0.782658,-0.260438,0.669491,0.331944,0.0
10.5245,0.009495,1.72182,-0.782658,-0.260316,0.669491,0.331944,0.0
10.5748,0.009495,1.72182,-0.782658,-0.260316,0.669491,0.331944,0.0
10.6252,0.009495,1.72182,-0.782658,-0.260316,0.669491,0.331944,0.0
10.6756,0.009495,1.72182,-0.782658,-0.260316,0.669491,0.331944,0.0
10.7257,0.009495,1.72182,-0.782658,-0.260316,0.669491,0.331944,0.0
10.776,0.009495,1.72182,-0.782658,-0.258326,0.669491,0.331944,0.0
10.8264,0.009495,1.72182,-0.782658,-0.256546,0.669491,0.331944,0.0
10.8767,0.009495,1.72182,-0.782658,-0.256546,0.669491,0.331944,0.0
10.9268,0.009495,1.72182,-0.782658,-0.256546,0.671446,0.331944,0.0
10.9771,0.009495,1.72182,-0.782658,-0.256546,0.681272,0.331944,0.0
11.0274,0.009495,1.72182,-0.782658,-0.256546,0.690906,0.331944,0.0
11.0779,0.009495,1.72182,-0.782658,-0.256546,0.699702,0.331944,0.0
11.1283,0.009495,1.72182,-0.782658,-0.256546,0.703926,0.331944,0.0
11.1784,0.009495,1.72182,-0.782658,-0.256546,0.705096,0.331944,0.0
11.2287,0.009495,1.72182,-0.782658,-0.256546,0.705096,0.331944,0.0
11.2791,0.009495,1.72182,-0.782658,-0.256546,0.705096,0.331944,0.0
11.3293,0.009495,1.72182,-0.782658,-0.256546,0.705096,0.331944,0.0
11.3798,0.009495,1.72182,-0.782658,-0.256546,0.705096,0.331944,0.0
11.4301,0.009495,1.72182,-0.782658,-0.256546,0.705096,0.331944,0.0
11.4805,0.009495,1.72182,-0.782658,-0.256546,0.705096,0.331944,0.0
11.5307,0.009495,1.72182,-0.782658,-0.259251,0.706003,0.331944,0.0
11.5811,0.009495,1.72182,-0.782658,-0.265098,0.707644,0.331944,0.0
11.6314,0.009495,1.72182,-0.782658,-0.276722,0.709913,0.331944,0.0
11.6817,0.009495,1.72182,-0.782658,-0.278467,0.709913,0.331944,0.0
11.7321,0.009495,1.72182,-0.782658,-0.278467,0.709913,0.331944,0.0
11.7827,0.009495,1.72182,-0.782658,-0.278467,0.709913,0.331944,0.0
11.8328,0.009495,1.72182,-0.782658,-0.278467,0.709913,0.331944,0.0
11.8831,0.009495,1.72182,-0.782658,-0.278467,0.711239,0.331944,0.0
11.9337,0.009495,1.72182,-0.782658,-0.278467,0.711239,0.331944,0.0
11.9841,0.009495,1.72182,-0.782658,-0.278467,0.712112,0.331944,0.0
12.0343,0.009495,1.72182,-0.782658,-0.278467,0.712112,0.331944,0.0
12.0847,0.009495,1.72182,-0.782658,-0.278467,0.712112,0.331944,0.0
12.1351,0.009495,1.72182,-0.782658,-0.278467,0.712112,0.331944,0.0
12.1854,0.009495,1.72182,-0.782658,-0.278467,0.714032,0.331944,0.0
12.236,0.009495,1.72182,-0.782658,-0.278467,0.713717,0.331944,0.0
12.286,0.009495,1.72182,-0.782658,-0.278467,0.713717,0.331944,0.0
12.3366,0.009495,1.72182,-0.782658,-0.278467,0.713717,0.331944,0.0
12.3868,0.009495,1.72182,-0.782658,-0.278467,0.713717,0.331944,0.0
12.437,0.009495,1.72182,-0.782658,-0.278467,0.713717,0.331944,0.0
12.4874,0.009495,1.72182,-0.782658,-0.278467,0.714503,0.331944,0.0
12.5379,0.009495,1.72182,-0.782658,-0.278467,0.716109,0.331944,0.0
12.5883,0.009495,1.72182,-0.782658,-0.278467,0.716109,0.331944,0.0
12.6385,0.009495,1.72182,-0.782658,-0.278467,0.716109,0.331944,0.0
12.6889,0.009495,1.72182,-0.782658,-0.281033,0.716807,0.331944,0.0
12.7392,0.009495,1.72182,-0.782658,-0.281033,0.718465,0.331944,0.0
12.7896,0.009495,1.720039,-0.782658,-0.281033,0.720908,0.331944,0.0
12.8399,0.009495,1.720039,-0.782658,-0.281033,0.720908,0.331944,0.0
12.8903,0.009495,1.720039,-0.782658,-0.281033,0.720908,0.331944,0.0
12.9407,0.009495,1.720039,-0.782658,-0.281033,0.720908,0.331944,0.0
12.991,0.009495,1.720039,-0.782658,-0.281033,0.720908,0.331944,0.0
13.0412,0.009495,1.720039,-0.782658,-0.281033,0.720908,0.331944,0.0
13.0915,0.009495,1.720039,-0.782658,-0.282988,0.720908,0.331944,0.0
13.1418,0.009495,1.720039,-0.782658,-0.282639,0.720908,0.331944,0.0
13.1921,0.009495,1.720039,-0.782658,-0.282639,0.720908,0.331944,0.0
13.2425,0.009495,1.720039,-0.782658,-0.282639,0.720908,0.331944,0.0
13.2928,0.009495,1.720039,-0.782658,-0.282639,0.720908,0.331944,0.0
13.343,0.009495,1.720039,-0.782658,-0.282639,0.720908,0.331944,0.0
13.3933,0.009495,1.720039,-0.782658,-0.282639,0.720908,0.331944,0.0
13.4437,0.009495,1.714664,-0.782658,-0.282639,0.723456,0.331944,0.0
13.4941,0.009495,1.708974,-0.782658,-0.282639,0.726842,0.331944,0.0
13.5445,0.009495,1.700422,-0.782658,-0.282639,0.729024,0.331944,0.0
13.5948,0.011275,1.694069,-0.782658,-0.274767,0.776846,0.331944,0.0
13.6455,0.011275,1.694662,-0.782658,-0.288189,0.932512,0.331944,0.0
13.6956,0.011275,1.693598,-0.782658,-0.3036,1.124062,0.331944,0.0
13.746,0.011275,1.690945,-0.782658,-0.315433,1.228083,0.335156,0.0
13.7964,0.009303,1.68159,-0.784525,-0.343167,1.244943,0.337774,0.0
13.847,0.009303,1.672427,-0.784525,-0.344877,1.237753,0.337774,0.0
13.8973,0.009303,1.668221,-0.784525,-0.344877,1.235798,0.337774,0.0
13.9475,0.009303,1.668221,-0.784525,-0.347006,1.235815,0.337774,0.0
13.9979,0.009303,1.668221,-0.784525,-0.347006,1.233686,0.337774,0.0
14.0483,0.009303,1.668221,-0.784525,-0.34945,1.233616,0.337774,0.0
14.0986,0.009303,1.668221,-0.784525,-0.354284,1.233616,0.337774,0.0
14.149,0.009303,1.668221,-0.784525,-0.354354,1.233616,0.337774,0.0
14.1993,0.009303,1.668221,-0.784525,-0.356501,1.233616,0.337774,0.0
14.2497,0.009303,1.668221,-0.784525,-0.356501,1.233616,0.337774,0.0
14.3001,0.009303,1.668221,-0.784525,-0.356501,1.233616,0.337774,0.0
14.3506,0.009303,1.668221,-0.784525,-0.356501,1.233616,0.337774,0.0
14.4009,0.009303,1.668221,-0.784525,-0.356501,1.233616,0.337774,0.0
14.4511,0.009303,1.668221,-0.784525,-0.356501,1.233616,0.337774,0.0
14.5015,0.009303,1.668221,-0.784525,-0.356501,1.233616,0.337774,0.0
14.5517,0.009303,1.668221,-0.784525,-0.356501,1.233616,0.337774,0.0
14.6023,0.009303,1.668221,-0.784525,-0.356501,1.233616,0.337774,0.0
14.6528,0.009303,1.668221,-0.784525,-0.356501,1.233616,0.337774,0.0
14.7033,0.009303,1.668221,-0.784525,-0.356501,1.233616,0.337774,0.0
14.7537,0.009303,1.668221,-0.784525,-0.356501,1.233616,0.337774,0.0
14.8043,0.009303,1.668221,-0.784525,-0.356501,1.233616,0.337774,0.0
14.8547,0.009303,1.668221,-0.784525,-0.356501,1.233616,0.337774,0.0
14.905,0.009303,1.668221,-0.784525,-0.356501,1.233616,0.337774,0.0
14.9554,0.009303,1.668221,-0.784525,-0.356501,1.233616,0.337774,0.0
15.0056,0.009303,1.668221,-0.784525,-0.356501,1.233616,0.337774,0.0
15.056,0.009303,1.668221,-0.784525,-0.356501,1.232115,0.337774,0.0
15.1064,0.009303,1.668221,-0.784525,-0.356501,1.232115,0.337774,0.0
15.1567,0.009303,1.668221,-0.784525,-0.356501,1.232115,0.337774,0.0
15.2071,0.009303,1.668221,-0.784525,-0.356501,1.232115,0.334911,0.0
15.2573,0.009303,1.668221,-0.784525,-0.356501,1.232115,0.330338,0.0
15.3077,0.009303,1.668221,-0.784525,-0.356501,1.232115,0.328523,0.0
15.3581,0.009303,1.668221,-0.784525,-0.360376,1.232115,0.304385,0.0
15.4083,0.009303,1.668221,-0.784525,-0.36891,1.232115,0.256825,0.0
15.4588,0.009303,1.668221,-0.784525,-0.380499,1.232115,0.197379,0.0
15.5092,0.009303,1.668221,-0.784525,-0.3868,1.231469,0.163293,0.0
15.5596,0.009303,1.668221,-0.784525,-0.3868,1.222481,0.15495,0.0
15.6103,0.009303,1.668221,-0.784525,-0.3868,1.212864,0.15495,0.0
15.6606,0.009303,1.668221,-0.784525,-0.3868,1.207977,0.15495,0.0
15.7109,0.009303,1.668221,-0.784525,-0.382908,1.204015,0.15495,0.0
15.7611,0.009303,1.668221,-0.784525,-0.380098,1.198238,0.153205,0.0
15.8114,0.009303,1.668221,-0.784525,-0.380098,1.193718,0.153205,0.0
15.8618,0.009303,1.668221,-0.784525,-0.380098,1.189931,0.153205,0.0
15.9121,0.009303,1.668221,-0.784525,-0.380098,1.189931,0.153205,0.0
15.9626,0.009303,1.668221,-0.784525,-0.380098,1.189931,0.153205,0.0
16.0129,0.009303,1.668221,-0.784525,-0.382489,1.189931,0.153205,0.0
16.0632,0.009303,1.668221,-0.784525,-0.382489,1.189931,0.153205,0.0
16.1136,0.009303,1.668221,-0.784525,-0.382489,1.189931,0.153205,0.0
16.164,0.009303,1.668221,-0.784525,-0.382489,1.189931,0.153205,0.0
16.2144,0.009303,1.668221,-0.784525,-0.382489,1.189931,0.153205,0.0
16.2648,0.009303,1.668221,-0.784525,-0.382489,1.189931,0.153205,0.0
16.3151,0.009303,1.668221,-0.784525,-0.382489,1.189931,0.153205,0.0
16.3656,0.009303,1.668221,-0.784525,-0.384985,1.189931,0.153205,0.0
16.4158,0.009303,1.668221,-0.784525,-0.387393,1.189355,0.153205,0.0
16.4661,0.009303,1.668221,-0.784525,-0.387393,1.189355,0.153205,0.0
16.5164,0.009303,1.668221,-0.784525,-0.387393,1.187557,0.153205,0.0
16.5668,0.011327,1.668221,-0.784525,-0.387393,1.187627,0.153205,0.0
16.6171,0.011327,1.658918,-0.784525,-0.387393,1.173594,0.153205,0.0
16.6676,0.011327,1.637398,-0.784525,-0.387393,1.162878,0.153205,0.0
16.7181,0.011327,1.599175,-0.784525,-0.384775,1.140765,0.153205,0.0
16.7683,0.011327,1.553936,-0.782763,-0.378614,1.11743,0.153205,0.0
16.8186,0.011327,1.4995,-0.782763,-0.378614,1.093204,0.153205,0.0
16.869,0.011327,1.440507,-0.782763,-0.378614,1.064564,0.153205,0.0
16.9192,0.011327,1.386542,-0.782763,-0.378614,1.03697,0.153205,0.0
16.9697,0.011327,1.313954,-0.782763,-0.378614,1.009656,0.153205,0.0
17.0199,0.011327,1.249708,-0.782763,-0.378614,0.975342,0.153205,0.0
17.0703,0.011327,1.178254,-0.782763,-0.378614,0.944153,0.153205,0.0
17.1206,0.011327,1.117883,-0.781314,-0.378614,0.908601,0.153205,0.0
17.1708,0.011327,1.061474,-0.781314,-0.378614,0.869261,0.153205,0.0
17.221,0.011327,1.007334,-0.781314,-0.378614,0.834826,0.153205,0.0
17.2713,0.011327,0.955097,-0.781314,-0.378614,0.800251,0.153205,0.0
17.3217,0.011327,0.898356,-0.781314,-0.378614,0.76702,0.153205,0.0
17.372,0.011327,0.850447,-0.781314,-0.378614,0.736826,0.153205,0.0
17.4225,0.011327,0.806586,-0.781314,-0.378614,0.711571,0.153205,0.0
17.4729,0.011327,0.763756,-0.781314,-0.378614,0.686141,0.153205,0.0
17.5233,0.011327,0.718325,-0.781314,-0.378614,0.673802,0.153205,0.0
17.5737,0.011327,0.686997,-0.781314,-0.378614,0.66895,0.153205,0.0
17.6239,0.011327,0.648163,-0.781314,-0.378614,0.666716,0.153205,0.0
17.6742,0.011327,0.616538,-0.781314,-0.378614,0.666716,0.153205,0.0
17.7245,0.011327,0.586902,-0.781314,-0.378614,0.666716,0.153205,0.0
17.7749,0.011327,0.555992,-0.781314,-0.378614,0.664604,0.153205,0.0
17.8255,0.011327,0.531662,-0.781314,-0.378614,0.664604,0.153205,0.0
17.8759,0.011327,0.510212,-0.781314,-0.378614,0.664604,0.153205,0.0
17.9262,0.011327,0.491066,-0.781314,-0.378614,0.664604,0.153205,0.0
17.9764,0.01857,0.473927,-0.779045,-0.378614,0.664604,0.153205,0.0
18.0269,0.03817,0.459091,-0.777125,-0.378614,0.68115,0.153205,0.0
18.077,0.063966,0.445042,-0.777125,-0.378614,0.698306,0.153205,0.0
18.1273,0.094789,0.432981,-0.777125,-0.378614,0.717749,0.153205,0.0
18.1777,0.13172,0.420205,-0.777125,-0.378614,0.739583,0.153205,0.0
18.2282,0.163433,0.407238,-0.777125,-0.380429,0.763128,0.153205,0.0
18.2787,0.193033,0.390605,-0.777125,-0.383274,0.780564,0.153205,0.0
18.3288,0.207956,0.370708,-0.777125,-0.387568,0.796027,0.153205,0.0
18.3791,0.210539,0.346465,-0.777125,-0.387568,0.80423,0.153205,0.0
18.4295,0.210539,0.318313,-0.777125,-0.387568,0.808611,0.153205,0.0
18.4798,0.210539,0.287578,-0.777125,-0.387568,0.810775,0.153205,0.0
18.5301,0.210539,0.253527,-0.777125,-0.390029,0.814598,0.153205,0.0
18.5807,0.210539,0.226509,-0.777125,-0.390029,0.816971,0.153205,0.0
18.6312,0.210539,0.201184,-0.777125,-0.390029,0.821614,0.153205,0.0
18.6815,0.210539,0.178076,-0.777125,-0.387673,0.821614,0.153205,0.0
18.7318,0.210539,0.157725,-0.777125,-0.387673,0.821614,0.153205,0.0
18.7821,0.210539,0.139295,-0.777125,-0.387673,0.821614,0.153205,0.0
18.8324,0.208776,0.118124,-0.777125,-0.387673,0.821614,0.153205,0.0
18.8829,0.206472,0.098489,-0.777125,-0.387673,0.821614,0.153205,0.0
18.9332,0.199229,0.075241,-0.777125,-0.387673,0.821614,0.153205,0.0
18.9834,0.193295,0.05496,-0.777125,-0.387673,0.824668,0.153205,0.0
19.0337,0.184185,0.034435,-0.777125,-0.387673,0.832086,0.153205,0.0
19.084,0.181322,0.012933,-0.777125,-0.387673,0.852401,0.153205,0.0
19.1343,0.181183,-0.009146,-0.777125,-0.387673,0.872228,0.153205,0.0
19.1846,0.181183,-0.033231,-0.777125,-0.387673,0.885266,0.153205,0.0
19.2348,0.179437,-0.042237,-0.778906,-0.386014,0.906664,0.153205,0.0
19.2851,0.179437,-0.0403,-0.776706,-0.385945,0.911219,0.153205,0.0
19.3355,0.177203,-0.0403,-0.76311,-0.377986,0.901777,0.153205,0.0
19.3859,0.174847,-0.0403,-0.74749,-0.355454,0.891776,0.153205,0.0
19.4362,0.174847,-0.0403,-0.717889,-0.337983,0.863222,0.153205,0.0
19.4865,0.174847,-0.0403,-0.682982,-0.32231,0.821928,0.153205,0.0
19.5369,0.174847,-0.0403,-0.634584,-0.30531,0.767718,0.153205,0.0
19.5872,0.174847,-0.038467,-0.588246,-0.303548,0.711483,0.153205,0.0
19.6375,0.172892,-0.038467,-0.541227,-0.303548,0.655581,0.153205,0.0
19.6878,0.172892,-0.038467,-0.494783,-0.303548,0.598683,0.153205,0.0
19.7382,0.172892,-0.036652,-0.449806,-0.303548,0.531226,0.153205,0.0
19.7885,0.172892,-0.036652,-0.401356,-0.303548,0.474363,0.153205,0.0
19.8386,0.172892,-0.035709,-0.362784,-0.305345,0.42394,0.153205,0.0
19.8889,0.172892,-0.035709,-0.328366,-0.305345,0.395387,0.153205,0.0
19.939,0.172892,-0.035709,-0.292692,-0.305345,0.371284,0.153205,0.0
19.9894,0.172892,-0.034383,-0.264033,-0.305345,0.349153,0.153205,0.0
20.0397,0.172892,-0.034383,-0.239861,-0.305345,0.342748,0.153205,0.0
20.0901,0.172892,-0.034383,-0.219318,-0.307963,0.340653,0.153205,0.0
20.1405,0.172892,-0.034383,-0.200434,-0.307963,0.340653,0.153205,0.0
20.1912,0.172892,-0.034383,-0.181881,-0.307963,0.340653,0.153205,0.0
20.2413,0.172892,-0.034383,-0.163817,-0.307963,0.338402,0.153205,0.0
20.2916,0.172892,-0.033283,-0.143693,-0.311925,0.334161,0.153205,0.0
20.342,0.172892,-0.033283,-0.128753,-0.311925,0.334161,0.153205,0.0
20.3922,0.172892,-0.033283,-0.115419,-0.311925,0.334161,0.153205,0.0
20.4425,0.172892,-0.033283,-0.102276,-0.316585,0.334161,0.153205,0.0
20.4931,0.172892,-0.033283,-0.088436,-0.343655,0.334161,0.153205,0.0
20.5432,0.172892,-0.033283,-0.072833,-0.365681,0.334161,0.153205,0.0
20.5937,0.172892,-0.033283,-0.060284,-0.371563,0.334161,0.153205,0.0
20.6439,0.168773,-0.033283,-0.050772,-0.381424,0.329832,0.153205,0.0
20.6943,0.162892,-0.033283,-0.041888,-0.381424,0.327651,0.153205,0.0
20.7447,0.15619,-0.033283,-0.042167,-0.381424,0.327651,0.153205,0.0
20.795,0.143588,-0.033283,-0.042167,-0.381424,0.327651,0.153205,0.0
20.8454,0.129067,-0.033283,-0.042167,-0.381424,0.327651,0.153205,0.0
20.8958,0.11041,-0.033283,-0.042167,-0.381424,0.327651,0.155195,0.0
20.9461,0.094998,-0.033283,-0.041591,-0.381424,0.327651,0.155195,0.0
20.9964,0.085067,-0.033283,-0.037856,-0.381424,0.327651,0.155195,0.0
21.0468,0.080739,-0.033283,-0.029548,-0.381424,0.317039,0.157411,0.0
21.097,0.080739,-0.033283,-0.018099,-0.37727,0.294978,0.157411,0.0
21.1474,0.080739,-0.033283,-0.011729,-0.363674,0.268222,0.157411,0.0
21.1977,0.082798,-0.033283,-0.009931,-0.342503,0.242234,0.157411,0.0
21.248,0.082798,-0.033283,-0.009931,-0.313234,0.213471,0.157411,0.0
21.2985,0.082798,-0.033283,-0.009931,-0.29044,0.206856,0.157411,0.0
21.3486,0.082798,-0.033283,-0.007418,-0.273284,0.206856,0.157411,0.0
21.399,0.082798,-0.033283,-8.7e-05,-0.273284,0.206856,0.157411,0.0
21.4493,0.082798,-0.033283,0.001484,-0.269269,0.208811,0.157411,0.0
21.4996,0.082798,-0.033283,0.0,-0.261328,0.206734,0.157411,0.0
21.5498,0.082798,-0.033283,-0.000908,-0.258937,0.199037,0.157411,0.0
21.6001,0.082798,-0.033283,-0.000908,-0.258937,0.190136,0.157411,0.0
21.6504,0.0869,-0.033283,-0.000908,-0.251868,0.181619,0.159017,0.0
21.7008,0.094946,-0.033283,-0.000908,-0.251868,0.174341,0.159017,0.0
21.7512,0.103987,-0.033283,-0.000908,-0.251868,0.169576,0.159017,0.0
21.8017,0.113603,-0.033283,-0.000908,-0.251868,0.164497,0.159017,0.0
21.8523,0.118473,-0.033283,-0.000908,-0.251868,0.154619,0.159017,0.0
21.9027,0.122662,-0.033283,-0.000908,-0.251868,0.139522,0.159017,0.0
21.9531,0.122662,-0.032062,-0.000908,-0.251868,0.11781,0.159017,0.0
22.0035,0.122662,-0.032062,-0.000908,-0.251868,0.103062,0.159017,0.0
22.0538,0.122662,-0.032062,-0.000908,-0.251868,0.088977,0.159017,0.0
22.1041,0.122662,-0.032062,-0.000908,-0.251868,0.077091,0.159017,0.0
22.1544,0.122662,-0.032062,-0.000908,-0.251868,0.061191,0.159017,0.0
22.2049,0.122662,-0.032062,-0.000908,-0.251868,0.046461,0.159017,0.0
22.2555,0.122662,-0.032062,-0.000908,-0.251868,0.03447,0.159017,0.0
22.3059,0.122662,-0.032062,-0.000908,-0.251868,0.029042,0.159017,0.0
22.3562,0.122662,-0.032062,-0.005376,-0.251868,0.027262,0.159017,0.0
22.4066,0.122662,-0.032062,-0.01206,-0.251868,0.027262,0.159017,0.0
22.4568,0.122662,-0.032062,-0.018692,-0.251868,0.027262,0.159017,0.0
22.5071,0.122662,-0.032062,-0.0233,-0.251868,0.025115,0.159017,0.0
22.5576,0.122662,-0.032062,-0.027471,-0.251868,0.017383,0.159017,0.0
22.6078,0.122662,-0.032062,-0.027262,-0.251868,0.005864,0.159017,0.0
22.6581,0.122662,-0.032062,-0.027262,-0.251868,0.0,0.159017,0.0
22.7084,0.122662,-0.032062,-0.027262,-0.251868,-0.011275,0.159017,0.0
22.7588,0.122662,-0.032062,-0.027262,-0.251868,-0.011275,0.159017,0.0
22.8091,0.122662,-0.032062,-0.027262,-0.251868,-0.011275,0.159017,0.0
22.8594,0.126676,-0.032062,-0.027262,-0.251868,-0.011275,0.159017,0.0
22.9098,0.128858,-0.032062,-0.023248,-0.251868,-0.016022,0.159017,0.0
22.9603,0.133465,-0.032062,-0.006807,-0.251868,-0.0355,0.159017,0.0
23.0105,0.142419,-0.032062,0.014626,-0.251868,-0.063966,0.159017,0.0
23.0606,0.149156,-0.032062,0.0196,-0.245201,-0.068993,0.159017,0.0
23.111,0.153711,-0.032062,0.0196,-0.2278,-0.076655,0.159017,0.0
23.1613,0.153711,-0.032062,0.0196,-0.220383,-0.093899,0.159017,0.0
23.2119,0.153711,-0.032062,0.0196,-0.220383,-0.108891,0.159017,0.0
23.2624,0.153711,-0.032062,0.0196,-0.220383,-0.122662,0.159017,0.0
23.3128,0.153711,-0.032062,0.0196,-0.218602,-0.123063,0.159017,0.0
23.363,0.153711,-0.032062,0.0196,-0.219039,-0.123063,0.159017,0.0
23.4133,0.153711,-0.032062,0.017436,-0.219039,-0.123063,0.159017,0.0
23.4639,0.153711,-0.032062,0.010873,-0.219039,-0.123063,0.159017,0.0
23.5141,0.153711,-0.032062,-0.000506,-0.219039,-0.123063,0.159017,0.0
23.5647,0.153711,-0.032062,-0.00939,-0.219039,-0.123063,0.159017,0.0
23.615,0.153711,-0.032062,-0.019757,-0.219039,-0.123063,0.159017,0.0
23.6653,0.153711,-0.032062,-0.024993,-0.219039,-0.123063,0.159017,0.0
23.7158,0.153711,-0.032062,-0.029583,-0.219039,-0.123063,0.159017,0.0
23.7661,0.153711,-0.032062,-0.032097,-0.219039,-0.123063,0.159017,0.0
23.8166,0.153711,-0.032062,-0.032097,-0.219039,-0.123063,0.159017,0.0
23.867,0.153711,-0.032062,-0.032097,-0.219039,-0.123063,0.159017,0.0
23.9172,0.153711,-0.032062,-0.032097,-0.219039,-0.123063,0.159017,0.0
23.9673,0.153711,-0.032062,-0.032097,-0.219039,-0.123063,0.159017,0.0
24.0177,0.153711,-0.032062,-0.032097,-0.219039,-0.123063,0.159017,0.0
24.0678,0.153711,-0.032062,-0.032097,-0.219039,-0.123063,0.159017,0.0
24.1181,0.153711,-0.032062,-0.032097,-0.219039,-0.123063,0.159017,0.0
24.1686,0.153711,-0.032062,-0.032097,-0.219039,-0.123063,0.159017,0.0
24.2188,0.153711,-0.032062,-0.032097,-0.219039,-0.123063,0.159017,0.0
24.2692,0.153711,-0.032062,-0.032097,-0.219039,-0.123063,0.159017,0.0
24.3195,0.153711,-0.032062,-0.032097,-0.219039,-0.123063,0.159017,0.0
24.3698,0.153711,-0.032062,-0.032097,-0.219039,-0.123063,0.159017,0.0
24.4202,0.153711,-0.032062,-0.032097,-0.219039,-0.123063,0.159017,0.0
24.4705,0.153711,-0.032062,-0.032097,-0.219039,-0.123063,0.159017,0.0
24.5209,0.153711,-0.032062,-0.032097,-0.219039,-0.123063,0.159017,0.0
24.5713,0.153711,-0.032062,-0.032097,-0.219039,-0.123063,0.159017,0.0
24.6216,0.153711,-0.032062,-0.032097,-0.219039,-0.123063,0.159017,0.0
24.6718,0.153711,-0.032062,-0.032097,-0.219039,-0.123063,0.159017,0.0
24.7222,0.153711,-0.032062,-0.032097,-0.219039,-0.123063,0.159017,0.0
24.7724,0.153711,-0.032062,-0.032097,-0.219039,-0.123063,0.159017,0.0
24.8228,0.153711,-0.032062,-0.032097,-0.219039,-0.123063,0.159017,0.0
24.8729,0.153711,-0.032062,-0.032097,-0.219039,-0.123063,0.159017,0.0
24.9235,0.153711,-0.032062,-0.032097,-0.219039,-0.123063,0.159017,0.0
24.9737,0.153711,-0.032062,-0.032097,-0.219039,-0.123063,0.159017,0.0
25.024,0.153711,-0.032062,-0.032097,-0.219039,-0.123063,0.159017,0.0
25.0743,0.153711,-0.032062,-0.032097,-0.219039,-0.123063,0.159017,0.0
25.1246,0.153711,-0.032062,-0.032097,-0.219039,-0.123063,0.159017,0.0
25.1751,0.153711,-0.032062,-0.032097,-0.219039,-0.123063,0.159017,0.0
25.2255,0.153711,-0.032062,-0.032097,-0.219039,-0.123063,0.159017,0.0
25.2756,0.153711,-0.032062,-0.032097,-0.219039,-0.123063,0.159017,0.0
25.3258,0.153711,-0.032062,-0.032097,-0.219039,-0.123063,0.159017,0.0
25.3761,0.153711,-0.032062,-0.032097,-0.219039,-0.123063,0.159017,0.0
25.4264,0.153711,-0.032062,-0.032097,-0.219039,-0.123063,0.159017,0.0
25.4768,0.153711,-0.032062,-0.032097,-0.219039,-0.123063,0.159017,0.0
25.527,0.153711,-0.032062,-0.032097,-0.219039,-0.123063,0.159017,0.0
25.5775,0.153711,-0.032062,-0.032097,-0.219039,-0.123063,0.159017,0.0
25.6279,0.153711,-0.032062,-0.032097,-0.219039,-0.123063,0.159017,0.0
25.6781,0.153711,-0.032062,-0.032097,-0.219039,-0.123063,0.159017,0.0
25.7283,0.153711,-0.032062,-0.032097,-0.219039,-0.123063,0.159017,0.0
25.7787,0.153711,-0.032062,-0.032097,-0.219039,-0.123063,0.159017,0.0
25.829,0.153711,-0.032062,-0.032097,-0.219039,-0.123063,0.159017,0.0
25.8795,0.153711,-0.032062,-0.032097,-0.219039,-0.123063,0.159017,0.0
25.9301,0.153711,-0.032062,-0.032097,-0.219039,-0.123063,0.159017,0.0
25.9805,0.153711,-0.032062,-0.032097,-0.219039,-0.123063,0.159017,0.0
26.0308,0.153711,-0.032062,-0.032097,-0.219039,-0.123063,0.159017,0.0
26.0811,0.153711,-0.032062,-0.032097,-0.219039,-0.123063,0.159017,0.0
26.1315,0.153711,-0.032062,-0.032097,-0.219039,-0.123063,0.159017,0.0
26.182,0.153711,-0.032062,-0.032097,-0.219039,-0.123063,0.159017,0.0
26.2322,0.153711,-0.032062,-0.032097,-0.219039,-0.123063,0.159017,0.0
26.2826,0.153711,-0.032062,-0.032097,-0.219039,-0.123063,0.159017,0.0
26.3328,0.153711,-0.032062,-0.032097,-0.219039,-0.123063,0.159017,0.0
26.3833,0.153711,-0.032062,-0.032097,-0.219039,-0.123063,0.159017,0.0
26.4336,0.153711,-0.032062,-0.032097,-0.219039,-0.123063,0.159017,0.0
26.4839,0.153711,-0.032062,-0.032097,-0.219039,-0.123063,0.159017,0.0
26.534,0.153711,-0.032062,-0.032097,-0.219039,-0.123063,0.159017,0.0
26.5844,0.153711,-0.032062,-0.032097,-0.219039,-0.123063,0.159017,0.0
26.6347,0.153711,-0.032062,-0.032097,-0.219039,-0.123063,0.159017,0.0
26.685,0.153711,-0.032062,-0.032097,-0.219039,-0.123063,0.159017,0.0
26.7354,0.153711,-0.032062,-0.032097,-0.219039,-0.123063,0.159017,0.0
26.7859,0.153711,-0.032062,-0.032097,-0.219039,-0.123063,0.159017,0.0
26.8363,0.153711,-0.032062,-0.032097,-0.219039,-0.123063,0.159017,0.0
26.8866,0.153711,-0.032062,-0.032097,-0.219039,-0.123063,0.159017,0.0
26.9369,0.153711,-0.032062,-0.032097,-0.219039,-0.123063,0.159017,0.0
26.9876,0.153711,-0.032062,-0.032097,-0.219039,-0.123063,0.159017,0.0
27.0377,0.153711,-0.032062,-0.032097,-0.219039,-0.123063,0.159017,0.0
27.0881,0.153711,-0.032062,-0.032097,-0.219039,-0.123063,0.159017,0.0
27.1385,0.153711,-0.032062,-0.032097,-0.219039,-0.123063,0.159017,0.0
27.1891,0.153711,-0.032062,-0.032097,-0.219039,-0.123063,0.159017,0.0
27.2394,0.153711,-0.032062,-0.032097,-0.219039,-0.123063,0.159017,0.0
27.2897,0.153711,-0.032062,-0.032097,-0.219039,-0.123063,0.159017,0.0
27.3397,0.153711,-0.032062,-0.032097,-0.219039,-0.123063,0.159017,0.0
27.3902,0.153711,-0.032062,-0.032097,-0.219039,-0.123063,0.159017,0.0
27.4405,0.153711,-0.032062,-0.032097,-0.219039,-0.123063,0.159017,0.0
27.4909,0.153711,-0.032062,-0.032097,-0.219039,-0.123063,0.159017,0.0
27.5411,0.153711,-0.032062,-0.032097,-0.219039,-0.123063,0.159017,0.0
27.5915,0.153711,-0.032062,-0.032097,-0.219039,-0.123063,0.159017,0.0
27.6418,0.153711,-0.032062,-0.032097,-0.219039,-0.123063,0.159017,0.0
27.6923,0.153711,-0.032062,-0.032097,-0.219039,-0.123063,0.159017,0.0
27.7424,0.153711,-0.032062,-0.032097,-0.219039,-0.123063,0.159017,0.0
27.7928,0.153711,-0.032062,-0.032097,-0.219039,-0.123063,0.159017,0.0
27.8432,0.153711,-0.032062,-0.032097,-0.219039,-0.123063,0.159017,0.0
27.8935,0.153711,-0.032062,-0.032097,-0.219039,-0.123063,0.159017,0.0
27.9437,0.153711,-0.032062,-0.032097,-0.219039,-0.123063,0.159017,0.0
27.9941,0.153711,-0.032062,-0.032097,-0.219039,-0.123063,0.159017,0.0
28.0445,0.153711,-0.032062,-0.032097,-0.219039,-0.123063,0.159017,0.0
28.0947,0.153711,-0.032062,-0.032097,-0.219039,-0.123063,0.159017,0.0
28.1451,0.153711,-0.032062,-0.032097,-0.219039,-0.123063,0.159017,0.0
28.1954,0.153711,-0.032062,-0.032097,-0.219039,-0.123063,0.159017,0.0
28.2457,0.153711,-0.032062,-0.032097,-0.219039,-0.123063,0.159017,0.0
28.2961,0.153711,-0.032062,-0.032097,-0.219039,-0.123063,0.159017,0.0
28.3462,0.153711,-0.032062,-0.032097,-0.219039,-0.123063,0.159017,0.0
28.3966,0.153711,-0.032062,-0.032097,-0.219039,-0.123063,0.159017,0.0
28.4471,0.153711,-0.032062,-0.032097,-0.219039,-0.123063,0.159017,0.0
28.4975,0.153711,-0.032062,-0.032097,-0.219039,-0.123063,0.159017,0.0
28.5477,0.153711,-0.032062,-0.032097,-0.219039,-0.123063,0.159017,0.0
28.5979,0.153711,-0.032062,-0.032097,-0.219039,-0.123063,0.159017,0.0
28.6485,0.153711,-0.032062,-0.032097,-0.219039,-0.123063,0.159017,0.0
28.6992,0.153711,-0.032062,-0.032097,-0.219039,-0.123063,0.159017,0.0
28.7495,0.153711,-0.032062,-0.032097,-0.219039,-0.123063,0.159017,0.0
