diyakadadi/agilex-hackathon/recordings/trajectory_20260524_142946.csv
dt,j1,j2,j3,j4,j5,j6,gripper_m
0.0461,-0.060022,-0.028414,-0.068242,-0.017925,-0.221308,0.023684,0.0
0.0964,-0.060022,-0.028414,-0.068242,-0.017925,-0.221308,0.023684,0.0
0.1467,-0.060022,-0.028414,-0.068242,-0.017925,-0.221308,0.023684,0.0
0.197,-0.060022,-0.028414,-0.068242,-0.017925,-0.221308,0.023684,0.0
0.2473,-0.060022,-0.028414,-0.068242,-0.017925,-0.221308,0.023684,0.0
0.2977,-0.060022,-0.028414,-0.068242,-0.017925,-0.221308,0.023684,0.0
0.3479,-0.060022,-0.028414,-0.068242,-0.017925,-0.221308,0.023684,0.0
0.3982,-0.060022,-0.028414,-0.068242,-0.017925,-0.221308,0.023684,0.0
0.4486,-0.060022,-0.028414,-0.068242,-0.017925,-0.221308,0.023684,0.0
0.4989,-0.060022,-0.028414,-0.068242,-0.017925,-0.221308,0.023684,0.0
0.5492,-0.060022,-0.028414,-0.068242,-0.017925,-0.221308,0.023684,0.0
0.5996,-0.060022,-0.028414,-0.068242,-0.017925,-0.221308,0.023684,0.0
0.6501,-0.060022,-0.028414,-0.068242,-0.017925,-0.221308,0.023684,0.0
0.7002,-0.060022,-0.028414,-0.068242,-0.017925,-0.221308,0.023684,0.0
0.7507,-0.060022,-0.028414,-0.068242,-0.017925,-0.221308,0.023684,0.0
0.8009,-0.060022,-0.028414,-0.068242,-0.017925,-0.221308,0.023684,0.0
0.8511,-0.060022,-0.028414,-0.068242,-0.017925,-0.221308,0.023684,0.0
0.9014,-0.060022,-0.028414,-0.068242,-0.017925,-0.221308,0.023684,0.0
0.9518,-0.060022,-0.028414,-0.068242,-0.017925,-0.221308,0.023684,0.0
1.0021,-0.060022,-0.028414,-0.068242,-0.017925,-0.221308,0.023684,0.0
1.0524,-0.060022,-0.028414,-0.068242,-0.017925,-0.221308,0.023684,0.0
1.1027,-0.060022,-0.028414,-0.068242,-0.017925,-0.221308,0.023684,0.0
1.153,-0.060022,-0.028414,-0.068242,-0.017925,-0.221308,0.023684,0.0
1.2032,-0.060022,-0.028414,-0.068242,-0.017925,-0.221308,0.023684,0.0
1.2536,-0.060022,-0.028414,-0.068242,-0.017925,-0.221308,0.023684,0.0
1.3039,-0.060022,-0.028414,-0.068242,-0.017925,-0.221308,0.023684,0.0
1.3542,-0.060022,-0.028414,-0.068242,-0.017925,-0.221308,0.023684,0.0
1.4046,-0.060022,-0.028414,-0.068242,-0.017925,-0.221308,0.023684,0.0
1.455,-0.060022,-0.028414,-0.068242,-0.017925,-0.221308,0.023684,0.0
1.5055,-0.060022,-0.028414,-0.068242,-0.017925,-0.221308,0.023684,0.0
1.5558,-0.060022,-0.028414,-0.068242,-0.017925,-0.221308,0.023684,0.0
1.6061,-0.060022,-0.028414,-0.068242,-0.017925,-0.221308,0.023684,0.0
1.6565,-0.060022,-0.028414,-0.068242,-0.017925,-0.221308,0.023684,0.0
1.7068,-0.060022,-0.028414,-0.068242,-0.017925,-0.221308,0.023684,0.0
1.7572,-0.060022,-0.028414,-0.068242,-0.017925,-0.221308,0.023684,0.0
1.8075,-0.060022,-0.028414,-0.068242,-0.017925,-0.221308,0.023684,0.0
1.858,-0.060022,-0.028414,-0.068242,-0.017925,-0.221308,0.023684,0.0
1.9083,-0.060022,-0.028414,-0.068242,-0.017925,-0.221308,0.023684,0.0
1.9585,-0.060022,-0.028414,-0.068242,-0.017925,-0.221308,0.023684,0.0
2.0089,-0.060022,-0.028414,-0.068242,-0.017925,-0.221308,0.023684,0.0
2.0592,-0.060022,-0.028414,-0.068242,-0.017925,-0.221308,0.023684,0.0
2.1096,-0.060022,-0.028414,-0.068242,-0.017925,-0.221308,0.023684,0.0
2.16,-0.060022,-0.028414,-0.068242,-0.017925,-0.221308,0.023684,0.0
2.2105,-0.060022,-0.028414,-0.068242,-0.017925,-0.221308,0.023684,0.0
2.2607,-0.060022,-0.028414,-0.068242,-0.017925,-0.221308,0.023684,0.0
2.3111,-0.060022,-0.028414,-0.068242,-0.017925,-0.221308,0.023684,0.0
2.3615,-0.060022,-0.028414,-0.068242,-0.017925,-0.221308,0.023684,0.0
2.4118,-0.060022,-0.028414,-0.068242,-0.017925,-0.221308,0.023684,0.0
2.462,-0.060022,-0.028414,-0.068242,-0.017925,-0.221308,0.023684,0.0
2.5124,-0.060022,-0.028414,-0.068242,-0.017925,-0.221308,0.023684,0.0
2.5628,-0.060022,-0.028414,-0.068242,-0.017925,-0.221308,0.023684,0.0
2.6131,-0.060022,-0.028414,-0.068242,-0.017925,-0.221308,0.023684,0.0
2.6635,-0.060022,-0.028414,-0.068242,-0.017925,-0.221308,0.023684,0.0
2.7139,-0.060022,-0.028414,-0.068242,-0.017925,-0.221308,0.023684,0.0
2.7642,-0.060022,-0.028414,-0.068242,-0.017925,-0.221308,0.023684,0.0
2.8147,-0.060022,-0.028414,-0.068242,-0.017925,-0.221308,0.023684,0.0
2.8651,-0.060022,-0.028414,-0.068242,-0.017925,-0.221308,0.023684,0.0
2.9154,-0.060022,-0.028414,-0.068242,-0.017925,-0.221308,0.023684,0.0
2.9659,-0.060022,-0.028414,-0.068242,-0.017925,-0.221308,0.023684,0.0
3.0164,-0.060022,-0.028414,-0.068242,-0.017925,-0.221308,0.023684,0.0
3.0666,-0.060022,-0.028414,-0.068242,-0.017925,-0.221308,0.023684,0.0
3.1169,-0.060022,-0.028414,-0.068242,-0.017925,-0.221308,0.023684,0.0
3.1673,-0.060022,-0.028414,-0.068242,-0.017925,-0.221308,0.023684,0.0
3.2175,-0.060022,-0.028414,-0.068242,-0.017925,-0.221308,0.023684,0.0
3.2679,-0.060022,-0.028414,-0.068242,-0.017925,-0.221308,0.023684,0.0
3.3181,-0.060022,-0.028414,-0.068242,-0.017925,-0.221308,0.023684,0.0
3.3685,-0.060022,-0.028414,-0.068242,-0.017925,-0.221308,0.023684,0.0
3.4188,-0.060022,-0.028414,-0.068242,-0.017925,-0.221308,0.023684,0.0
3.4692,-0.060022,-0.028414,-0.068242,-0.017925,-0.221308,0.023684,0.0
3.5194,-0.060022,-0.028414,-0.068242,-0.017925,-0.221308,0.023684,0.0
3.5698,-0.060022,-0.028414,-0.068242,-0.017925,-0.221308,0.023684,0.0
3.62,-0.060022,-0.028414,-0.068242,-0.017925,-0.221308,0.023684,0.0
3.6705,-0.060022,-0.028414,-0.068242,-0.017925,-0.221308,0.023684,0.0
3.7208,-0.060022,-0.028414,-0.068242,-0.017925,-0.221308,0.023684,0.0
3.7711,-0.060022,-0.028414,-0.068242,-0.017925,-0.221308,0.023684,0.0
3.8215,-0.060022,-0.028414,-0.068242,-0.017925,-0.221308,0.023684,0.0
3.8719,-0.060022,-0.028414,-0.068242,-0.017925,-0.221308,0.023684,0.0
3.9221,-0.060022,-0.028414,-0.068242,-0.017925,-0.221308,0.023684,0.0
3.9726,-0.060022,-0.028414,-0.068242,-0.017925,-0.221308,0.023684,0.0
4.0229,-0.060022,-0.028414,-0.068242,-0.017925,-0.221308,0.023684,0.0
4.0733,-0.060022,-0.028414,-0.068242,-0.017925,-0.221308,0.023684,0.0
4.1236,-0.060022,-0.028414,-0.068242,-0.017925,-0.221308,0.023684,0.0
4.1739,-0.060022,-0.028414,-0.068242,-0.017925,-0.221308,0.023684,0.0
4.224,-0.060022,-0.028414,-0.068242,-0.017925,-0.221308,0.023684,0.0
4.2744,-0.060022,-0.028414,-0.068242,-0.017925,-0.221308,0.023684,0.0
4.3247,-0.060022,-0.028414,-0.068242,-0.017925,-0.221308,0.023684,0.0
4.3752,-0.060022,-0.028414,-0.068242,-0.017925,-0.221308,0.023684,0.0
4.4254,-0.060022,-0.028414,-0.072885,-0.017925,-0.221308,0.023684,0.0
4.4757,-0.060022,-0.028414,-0.088855,-0.017925,-0.213401,0.023684,0.0
4.5261,-0.060022,-0.028414,-0.119241,-0.017925,-0.187501,0.023684,0.0
4.5765,-0.060022,-0.026564,-0.166155,-0.017925,-0.122121,0.023684,0.0
4.6267,-0.060022,-0.018256,-0.225252,-0.012793,-0.034558,0.023684,0.0
4.6772,-0.060022,-0.001152,-0.298539,-0.012793,0.054332,0.023684,0.0
4.7274,-0.060022,0.019565,-0.364826,-0.012793,0.151023,0.023684,0.0
4.7777,-0.060022,0.048014,-0.431184,-0.012793,0.229127,0.023684,0.0
4.8279,-0.060022,0.083287,-0.496197,-0.012793,0.306742,0.023684,0.0
4.8783,-0.060022,0.125035,-0.567564,-0.012793,0.375874,0.023684,0.0
4.9286,-0.060022,0.178338,-0.626242,-0.012793,0.430381,0.023684,0.0
4.979,-0.060022,0.229598,-0.680277,-0.012793,0.472234,0.023684,0.0
5.0293,-0.060022,0.282726,-0.728064,-0.012793,0.503021,0.023684,0.0
5.0797,-0.060022,0.337425,-0.770511,-0.012793,0.520544,0.023684,0.0
5.1301,-0.060022,0.391687,-0.805382,-0.012793,0.521627,0.023684,0.0
5.1805,-0.060022,0.444012,-0.83514,-0.012793,0.521627,0.023684,0.0
5.2308,-0.060022,0.494085,-0.861529,-0.012793,0.521627,0.023684,0.0
5.281,-0.060022,0.547265,-0.878145,-0.012793,0.521627,0.023684,0.0
5.3313,-0.060022,0.591352,-0.890642,-0.012793,0.521627,0.023684,0.0
5.3818,-0.060022,0.631652,-0.898216,-0.012793,0.521627,0.023684,0.0
5.4322,-0.060022,0.672598,-0.898722,-0.012793,0.521627,0.023684,0.0
5.4825,-0.060022,0.704013,-0.898722,-0.012793,0.527351,0.023684,0.0
5.5328,-0.060022,0.731276,-0.898722,-0.012793,0.545764,0.023684,0.0
5.5831,-0.060022,0.753528,-0.898722,-0.012793,0.575644,0.023684,0.0
5.6335,-0.060022,0.77456,-0.898722,-0.012793,0.613396,0.023684,0.0
5.6839,-0.060022,0.794195,-0.898722,-0.012793,0.659089,0.023684,0.0
5.7343,-0.060022,0.814772,-0.898722,-0.012793,0.710838,0.023684,0.0
5.7847,-0.060022,0.832906,-0.898722,-0.012793,0.77552,0.023684,0.0
5.8348,-0.060022,0.851616,-0.898722,-0.012793,0.830271,0.023684,0.0
5.8853,-0.060022,0.872438,-0.898722,-0.012793,0.879175,0.023684,0.0
5.9356,-0.060022,0.893504,-0.898722,-0.012793,0.918567,0.023684,0.0
5.9857,-0.060022,0.91553,-0.898722,-0.012793,0.946143,0.023684,0.0
6.036,-0.060022,0.94178,-0.898722,-0.012793,0.962514,0.023684,0.0
6.0864,-0.060022,0.96679,-0.898722,-0.012793,0.964347,0.023684,0.0
6.1367,-0.060022,0.993703,-0.898722,-0.012793,0.964347,0.023684,0.0
6.187,-0.060022,1.026795,-0.898722,-0.012793,0.964347,0.023684,0.0
6.2374,-0.060022,1.058211,-0.898722,-0.012793,0.964347,0.023684,0.0
6.2876,-0.060022,1.091162,-0.898722,-0.012793,0.964347,0.023684,0.0
6.338,-0.060022,1.125545,-0.898722,-0.012793,0.964347,0.023684,0.0
6.3882,-0.060022,1.161325,-0.898722,-0.012793,0.964347,0.023684,0.0
6.4386,-0.060022,1.197052,-0.900293,-0.012793,0.964347,0.023684,0.0
6.4888,-0.060022,1.237421,-0.900293,-0.012793,0.964347,0.023684,0.0
6.5392,-0.060022,1.272275,-0.900293,-0.012793,0.964347,0.023684,0.0
6.5896,-0.060022,1.30582,-0.900293,-0.012793,0.964347,0.023684,0.0
6.64,-0.060022,1.338982,-0.900293,-0.012793,0.962567,0.023684,0.0
6.6903,-0.060022,1.371707,-0.900293,-0.012793,0.962567,0.023684,0.0
6.7407,-0.060022,1.402581,-0.900293,-0.012793,0.962567,0.023684,0.0
6.7908,-0.060022,1.431537,-0.900293,-0.012793,0.96131,0.023684,0.0
6.8413,-0.060022,1.462342,-0.900293,-0.012793,0.96131,0.023684,0.0
6.8916,-0.060022,1.486794,-0.900293,-0.012793,0.96131,0.023684,0.0
6.9419,-0.060022,1.508872,-0.900293,-0.012793,0.96131,0.023684,0.0
6.9921,-0.060022,1.530985,-0.900293,-0.014696,0.96131,0.023684,0.0
7.0424,-0.060022,1.547287,-0.900293,-0.019722,0.96131,0.023684,0.0
7.093,-0.060022,1.562576,-0.900293,-0.019722,0.96042,0.023684,0.0
7.1432,-0.060022,1.576783,-0.900293,-0.019722,0.953613,0.023684,0.0
7.1935,-0.060022,1.59085,-0.900293,-0.019722,0.946073,0.023684,0.0
7.2439,-0.060022,1.603591,-0.900293,-0.019722,0.944014,0.023684,0.0
7.2942,-0.060022,1.615093,-0.900293,-0.019722,0.944014,0.023684,0.0
7.3446,-0.060022,1.628253,-0.900293,-0.019722,0.940122,0.023684,0.0
7.395,-0.060022,1.639231,-0.900293,-0.019722,0.932564,0.023684,0.0
7.4453,-0.060022,1.649511,-0.900293,-0.019722,0.92026,0.023684,0.0
7.4957,-0.060022,1.662042,-0.900293,-0.019722,0.904342,0.023684,0.0
7.5461,-0.060022,1.673596,-0.900293,-0.019722,0.88483,0.023684,0.0
7.5963,-0.060022,1.68077,-0.900293,-0.019722,0.865613,0.023684,0.0
7.6466,-0.060022,1.687611,-0.900293,-0.019722,0.846642,0.023684,0.0
7.6971,-0.060022,1.687733,-0.900293,-0.019722,0.838247,0.023684,0.0
7.7474,-0.060022,1.687733,-0.900293,-0.021485,0.836362,0.023684,0.0
7.7977,-0.060022,1.687733,-0.900293,-0.021328,0.836362,0.023684,0.0
7.848,-0.061942,1.687733,-0.900293,-0.023353,0.836362,0.023684,0.0
7.8983,-0.061942,1.687733,-0.900293,-0.042813,0.836362,0.023684,0.0
7.9487,-0.061942,1.687733,-0.900293,-0.068365,0.836362,0.023684,0.0
7.9992,-0.061942,1.687733,-0.900293,-0.099641,0.836362,0.023684,0.0
8.0495,-0.061942,1.687733,-0.900293,-0.128317,0.836362,0.023684,0.0
8.0998,-0.061942,1.687733,-0.900293,-0.14207,0.836362,0.023684,0.0
8.1501,-0.061942,1.687733,-0.900293,-0.149051,0.833849,0.023684,0.0
8.2005,-0.061942,1.687733,-0.900293,-0.149051,0.833953,0.023684,0.0
8.2508,-0.061942,1.687733,-0.900293,-0.149051,0.833953,0.023684,0.0
8.3011,-0.061942,1.687733,-0.900293,-0.149051,0.833953,0.023684,0.0
8.3513,-0.061942,1.687733,-0.900293,-0.149051,0.833953,0.023684,0.0
8.4016,-0.061942,1.687733,-0.900293,-0.149051,0.833953,0.023684,0.0
8.452,-0.061942,1.687733,-0.900293,-0.149051,0.833953,0.023684,0.0
8.5023,-0.061942,1.687733,-0.900293,-0.149051,0.82596,0.023684,0.0
8.5527,-0.061942,1.689252,-0.900293,-0.149051,0.814022,0.023684,0.0
8.6031,-0.061942,1.694627,-0.900293,-0.140935,0.810095,0.023684,0.0
8.6532,-0.061942,1.705012,-0.900293,-0.115995,0.807616,0.023684,0.0
8.7036,-0.060092,1.718381,-0.900293,-0.089535,0.809536,0.023684,0.0
8.7539,-0.060092,1.732187,-0.900293,-0.071192,0.809536,0.023684,0.0
8.8043,-0.060092,1.740547,-0.900293,-0.066043,0.809536,0.023684,0.0
8.8547,-0.060092,1.743374,-0.900293,-0.066043,0.809536,0.023684,0.0
8.9051,-0.060092,1.743374,-0.900293,-0.066043,0.809536,0.023684,0.0
8.9554,-0.060092,1.743374,-0.900293,-0.066043,0.809536,0.023684,0.0
9.0058,-0.060092,1.743374,-0.900293,-0.066043,0.809536,0.023684,0.0
9.056,-0.060092,1.743374,-0.900293,-0.071017,0.809536,0.023684,0.0
9.1064,-0.060092,1.743374,-0.900293,-0.081036,0.809536,0.023684,0.0
9.1568,-0.060092,1.743374,-0.900293,-0.088802,0.809536,0.023684,0.0
9.207,-0.060092,1.746778,-0.900293,-0.103219,0.809536,0.023684,0.0
9.2574,-0.060092,1.753986,-0.900293,-0.11582,0.809536,0.023684,0.0
9.3077,-0.060092,1.77013,-0.900939,-0.126501,0.809536,0.023684,0.0
9.358,-0.060092,1.786187,-0.900939,-0.126501,0.802642,0.023684,0.0
9.4083,-0.060092,1.795071,-0.900939,-0.126501,0.786533,0.023684,0.0
9.4589,-0.060092,1.798893,-0.900939,-0.126501,0.775659,0.023684,0.0
9.509,-0.060092,1.800499,-0.900939,-0.126501,0.773914,0.023684,0.0
9.5595,-0.060092,1.800499,-0.900939,-0.126501,0.774123,0.023684,0.0
9.6098,-0.060092,1.800499,-0.900939,-0.126501,0.774123,0.023684,0.0
9.6601,-0.060092,1.800499,-0.900939,-0.126501,0.774123,0.023684,0.0
9.7105,-0.060092,1.800499,-0.900939,-0.126501,0.774123,0.023684,0.0
9.761,-0.060092,1.800499,-0.900939,-0.126501,0.774123,0.023684,0.0
9.8112,-0.060092,1.800499,-0.900939,-0.126501,0.774123,0.023684,0.0
9.8617,-0.060092,1.800499,-0.900939,-0.126501,0.774123,0.023684,0.0
9.9119,-0.060092,1.800499,-0.900939,-0.126501,0.774123,0.023684,0.0
9.9621,-0.060092,1.800499,-0.900939,-0.126501,0.774123,0.023684,0.0
10.0125,-0.060092,1.800499,-0.900939,-0.126501,0.774123,0.023684,0.0
10.0628,-0.060092,1.800499,-0.900939,-0.126501,0.774123,0.023684,0.0
10.1131,-0.060092,1.800499,-0.900939,-0.126501,0.774123,0.023684,0.0
10.1635,-0.060092,1.800499,-0.900939,-0.126501,0.774123,0.023684,0.0
10.214,-0.060092,1.800499,-0.900939,-0.126501,0.774123,0.023684,0.0
10.2644,-0.060092,1.800499,-0.900939,-0.126501,0.774123,0.023684,0.0
10.3147,-0.060092,1.800499,-0.900939,-0.126501,0.774123,0.023684,0.0
10.365,-0.060092,1.800499,-0.900939,-0.126501,0.774123,0.023684,0.0
10.4152,-0.060092,1.800499,-0.900939,-0.126501,0.774123,0.023684,0.0
10.4658,-0.060092,1.800499,-0.900939,-0.126501,0.774123,0.023684,0.0
10.5159,-0.060092,1.800499,-0.900939,-0.126501,0.774123,0.023684,0.0
10.5663,-0.060092,1.800499,-0.900939,-0.126501,0.774123,0.023684,0.0
10.6166,-0.060092,1.800499,-0.900939,-0.126501,0.774123,0.023684,0.0
10.667,-0.060092,1.800499,-0.900939,-0.126501,0.774123,0.023684,0.0
10.7172,-0.060092,1.800499,-0.900939,-0.117897,0.774123,0.023684,0.0
10.7675,-0.060092,1.800499,-0.900939,-0.110514,0.774123,0.023684,0.0
10.8178,-0.060092,1.800499,-0.900939,-0.108647,0.774123,0.023684,0.0
10.8682,-0.060092,1.800499,-0.900939,-0.108647,0.776986,0.023684,0.0
10.9186,-0.060092,1.800499,-0.900939,-0.108647,0.774996,0.023684,0.0
10.9689,-0.060092,1.800499,-0.900939,-0.108647,0.77339,0.023684,0.0
11.0194,-0.060092,1.800499,-0.900939,-0.108647,0.77339,0.023684,0.0
11.0697,-0.060092,1.800499,-0.900939,-0.108647,0.77339,0.023684,0.0
11.1201,-0.060092,1.800499,-0.900939,-0.108647,0.77339,0.023684,0.0
11.1704,-0.060092,1.800499,-0.900939,-0.108647,0.77339,0.023684,0.0
11.2207,-0.060092,1.800499,-0.900939,-0.108647,0.77339,0.023684,0.0
11.271,-0.060092,1.800499,-0.900939,-0.108647,0.77339,0.023684,0.0
11.3212,-0.060092,1.800499,-0.900939,-0.108647,0.77339,0.023684,0.0
11.3715,-0.060092,1.800499,-0.900939,-0.11479,0.77339,0.023684,0.0
11.4218,-0.060092,1.800499,-0.900939,-0.125681,0.77339,0.023684,0.0
11.472,-0.060092,1.800499,-0.900939,-0.125681,0.77339,0.023684,0.0
11.5223,-0.060092,1.800499,-0.900939,-0.135944,0.77339,0.023684,0.0
11.5726,-0.060092,1.800499,-0.900939,-0.147969,0.77339,0.023684,0.0
11.6229,-0.060092,1.800499,-0.900939,-0.1505,0.775502,0.023684,0.0
11.6733,-0.060092,1.800499,-0.900939,-0.1505,0.775502,0.023684,0.0
11.7236,-0.060092,1.800499,-0.900939,-0.1505,0.775502,0.023684,0.0
11.7742,-0.060092,1.800499,-0.900939,-0.1505,0.775502,0.023684,0.0
11.8246,-0.060092,1.800499,-0.900939,-0.1505,0.775502,0.023684,0.0
11.8751,-0.060092,1.800499,-0.900939,-0.1505,0.775502,0.023684,0.0
11.9254,-0.060092,1.800499,-0.900939,-0.1505,0.775502,0.023684,0.0
11.9757,-0.060092,1.800499,-0.900939,-0.154479,0.775502,0.023684,0.0
12.0259,-0.060092,1.800499,-0.900939,-0.158842,0.775502,0.023684,0.0
12.0762,-0.060092,1.800499,-0.900939,-0.158842,0.775502,0.023684,0.0
12.1265,-0.060092,1.800499,-0.900939,-0.158842,0.775502,0.023684,0.0
12.1769,-0.060092,1.800499,-0.900939,-0.158842,0.775502,0.023684,0.0
12.2271,-0.060092,1.800499,-0.900939,-0.15694,0.775502,0.023684,0.0
12.2775,-0.060092,1.800499,-0.900939,-0.15694,0.775502,0.023684,0.0
12.3277,-0.060092,1.800499,-0.900939,-0.15694,0.775502,0.023684,0.0
12.3781,-0.060092,1.800499,-0.900939,-0.15694,0.775502,0.023684,0.0
12.4285,-0.060092,1.800499,-0.900939,-0.15694,0.775502,0.023684,0.0
12.4789,-0.060092,1.800499,-0.900939,-0.15694,0.775502,0.023684,0.0
12.5293,-0.060092,1.800499,-0.900939,-0.15694,0.775502,0.023684,0.0
12.5795,-0.060092,1.800499,-0.900939,-0.15694,0.775502,0.023684,0.0
12.6299,-0.060092,1.800499,-0.900939,-0.15694,0.775502,0.023684,0.0
12.6801,-0.060092,1.800499,-0.900939,-0.158895,0.775502,0.023684,0.0
12.7304,-0.060092,1.800499,-0.900939,-0.158895,0.775502,0.023684,0.0
12.7807,-0.060092,1.800499,-0.900939,-0.158895,0.775502,0.023684,0.0
12.8309,-0.060092,1.800499,-0.900939,-0.158895,0.775502,0.023684,0.0
12.8813,-0.060092,1.800499,-0.900939,-0.158895,0.775502,0.023684,0.0
12.9316,-0.060092,1.800499,-0.900939,-0.158895,0.775502,0.023684,0.0
12.9821,-0.060092,1.800499,-0.900939,-0.158895,0.775502,0.023684,0.0
13.0323,-0.060092,1.800499,-0.900939,-0.158895,0.775502,0.023684,0.0
13.0826,-0.060092,1.800499,-0.900939,-0.158895,0.775502,0.023684,0.0
13.133,-0.060092,1.800499,-0.900939,-0.158895,0.775502,0.023684,0.0
13.1832,-0.060092,1.800499,-0.900939,-0.158895,0.777544,0.023684,0.0
13.2335,-0.060092,1.800499,-0.900939,-0.158895,0.777544,0.023684,0.0
13.2839,-0.060092,1.800499,-0.900939,-0.158895,0.779342,0.023684,0.0
13.3343,-0.060092,1.800499,-0.900939,-0.158895,0.779342,0.023684,0.0
13.3847,-0.060092,1.800499,-0.900939,-0.158895,0.779342,0.023684,0.0
13.435,-0.060092,1.800499,-0.900939,-0.158895,0.781244,0.023684,0.0
13.4854,-0.060092,1.800499,-0.900939,-0.158895,0.781279,0.023684,0.0
13.5357,-0.060092,1.800499,-0.900939,-0.158895,0.783147,0.023684,0.0
13.5862,-0.060092,1.800499,-0.900939,-0.158895,0.783234,0.023684,0.0
13.6365,-0.060092,1.800499,-0.900939,-0.158895,0.783234,0.023684,0.0
13.6869,-0.060092,1.800499,-0.900939,-0.160815,0.78477,0.023684,0.0
13.7372,-0.060092,1.800499,-0.900939,-0.160815,0.787283,0.023684,0.0
13.7875,-0.060092,1.800499,-0.900939,-0.160815,0.789168,0.023684,0.0
13.8378,-0.060092,1.800499,-0.900939,-0.160815,0.789168,0.023684,0.0
13.8881,-0.060092,1.800499,-0.900939,-0.160815,0.789168,0.023684,0.0
13.9385,-0.060092,1.800499,-0.900939,-0.160815,0.791053,0.023684,0.0
13.9888,-0.060092,1.800499,-0.900939,-0.160815,0.791053,0.023684,0.0
14.0393,-0.060092,1.800499,-0.900939,-0.160815,0.791053,0.023684,0.0
14.0896,-0.060092,1.800499,-0.900939,-0.160815,0.791053,0.023684,0.0
14.1398,-0.060092,1.800499,-0.900939,-0.160815,0.792886,0.023684,0.0
14.19,-0.060092,1.800499,-0.900939,-0.160815,0.792955,0.023684,0.0
14.2405,-0.060092,1.798754,-0.900939,-0.160815,0.794474,0.023684,0.0
14.2908,-0.060092,1.796816,-0.900939,-0.160815,0.79683,0.023684,0.0
14.3412,-0.060092,1.792314,-0.900939,-0.160815,0.811002,0.023684,0.0
14.3915,-0.060092,1.788282,-0.900939,-0.162926,0.9071,0.023684,0.0
14.4419,-0.060092,1.784006,-0.900939,-0.179402,1.026411,0.013387,0.0
14.4923,-0.060092,1.784006,-0.900939,-0.199439,1.105142,0.0,0.0
14.5426,-0.060092,1.77959,-0.900939,-0.204064,1.114567,0.0,0.0
14.593,-0.060092,1.77945,-0.900939,-0.204064,1.098074,0.0,0.0
14.6432,-0.060092,1.777792,-0.900939,-0.204064,1.078421,0.0,0.0
14.6936,-0.060092,1.777792,-0.900939,-0.199858,1.071039,0.0,0.0
14.7439,-0.060092,1.777792,-0.900939,-0.199875,1.071039,0.0,0.0
14.7942,-0.060092,1.777792,-0.900939,-0.199875,1.071039,0.0,0.0
14.8447,-0.060092,1.777792,-0.900939,-0.199875,1.071039,0.0,0.0
14.8951,-0.060092,1.777792,-0.900939,-0.199875,1.074966,0.0,0.0
14.9454,-0.060092,1.777792,-0.900939,-0.199875,1.076257,0.0,0.0
14.9957,-0.060092,1.777792,-0.900939,-0.199875,1.076257,0.0,0.0
15.046,-0.060092,1.777792,-0.900939,-0.199875,1.076257,0.0,0.0
15.0964,-0.060092,1.777792,-0.900939,-0.199875,1.074303,0.0,0.0
15.1467,-0.060092,1.777792,-0.900939,-0.199875,1.07418,0.0,0.0
15.1971,-0.060092,1.777792,-0.900939,-0.199875,1.07418,0.0,0.0
15.2473,-0.060092,1.777792,-0.900939,-0.199875,1.076135,0.0,0.0
15.2978,-0.060092,1.777792,-0.900939,-0.199875,1.07617,0.0,0.0
15.3481,-0.060092,1.777792,-0.900939,-0.199875,1.07617,0.0,0.0
15.3984,-0.060092,1.777792,-0.900939,-0.199875,1.07617,0.0,0.0
15.4488,-0.060092,1.777792,-0.900939,-0.199875,1.07617,0.0,0.0
15.499,-0.060092,1.777792,-0.900939,-0.199875,1.07617,0.0,0.0
15.5494,-0.060092,1.777792,-0.900939,-0.199875,1.07617,0.0,0.0
15.5999,-0.060092,1.777792,-0.900939,-0.199875,1.07617,0.0,0.0
15.6502,-0.060092,1.777792,-0.900939,-0.199875,1.07617,0.0,0.0
15.7005,-0.060092,1.777792,-0.900939,-0.201847,1.07617,0.0,0.0
15.751,-0.060092,1.777792,-0.900939,-0.20368,1.07617,0.0,0.0
15.8012,-0.060092,1.777792,-0.900939,-0.205722,1.07617,0.0,0.0
15.8515,-0.060092,1.777792,-0.900939,-0.207939,1.07617,0.0,0.0
15.9017,-0.060092,1.777792,-0.900939,-0.207939,1.07617,0.0,0.0
15.9521,-0.060092,1.777792,-0.900939,-0.207939,1.07617,0.0,0.0
16.0024,-0.060092,1.777792,-0.900939,-0.207939,1.07816,0.0,0.0
16.0526,-0.060092,1.777792,-0.900939,-0.207939,1.07816,0.0,0.0
16.1031,-0.060092,1.777792,-0.900939,-0.207939,1.07816,0.0,0.0
16.1534,-0.060092,1.777792,-0.900939,-0.211883,1.07816,0.0,0.0
16.2038,-0.060092,1.777792,-0.900939,-0.211883,1.07816,0.0,0.0
16.2542,-0.060092,1.777792,-0.900939,-0.214169,1.07816,0.0,0.0
16.3045,-0.060092,1.777792,-0.900939,-0.222372,1.07816,0.0,0.0
16.3548,-0.060092,1.777792,-0.900939,-0.222355,1.076257,0.0,0.0
16.4052,-0.060092,1.777792,-0.900939,-0.222355,1.076257,0.0,0.0
16.4553,-0.060092,1.777792,-0.900939,-0.222355,1.076257,0.0,0.0
16.5056,-0.060092,1.777792,-0.900939,-0.224362,1.076257,0.0,0.0
16.5559,-0.060092,1.777792,-0.900939,-0.224362,1.076257,0.0,0.0
16.6063,-0.060092,1.777792,-0.900939,-0.229581,1.076257,0.0,0.0
16.6567,-0.060092,1.777792,-0.900939,-0.229581,1.076257,0.0,0.0
16.7073,-0.060092,1.777792,-0.900939,-0.229581,1.074111,0.0,0.0
16.7575,-0.060092,1.777792,-0.900939,-0.231274,1.066763,0.0,0.0
16.8078,-0.060092,1.777792,-0.900939,-0.231274,1.059153,0.0,0.0
16.8582,-0.060092,1.777792,-0.900939,-0.233263,1.055069,0.0,0.0
16.9086,-0.060092,1.777792,-0.900939,-0.235235,1.05102,0.0,0.0
16.9589,-0.060092,1.777792,-0.900939,-0.238342,1.046814,0.0,0.0
17.009,-0.060092,1.777792,-0.900939,-0.238342,1.044702,0.0,0.0
17.0594,-0.060092,1.777792,-0.900939,-0.240367,1.044702,0.0,0.0
17.1097,-0.060092,1.777792,-0.900939,-0.241868,1.044702,0.0,0.0
17.16,-0.060092,1.777792,-0.900939,-0.241868,1.044702,0.0,0.0
17.2104,-0.060092,1.777792,-0.900939,-0.244206,1.044702,0.0,0.0
17.2608,-0.060092,1.777792,-0.900939,-0.244206,1.044702,0.0,0.0
17.3111,-0.060092,1.777792,-0.900939,-0.244206,1.044702,0.0,0.0
17.3615,-0.060092,1.777792,-0.900939,-0.244206,1.044702,0.0,0.0
17.4118,-0.060092,1.777792,-0.900939,-0.244206,1.044702,0.0,0.0
17.462,-0.060092,1.777792,-0.900939,-0.244206,1.044702,0.0,0.0
17.5123,-0.060092,1.777792,-0.900939,-0.244206,1.046447,0.0,0.0
17.5626,-0.060092,1.777792,-0.900939,-0.244206,1.048,0.0,0.0
17.613,-0.060092,1.777792,-0.900939,-0.244206,1.055575,0.0,0.0
17.6633,-0.060092,1.777792,-0.900939,-0.244206,1.06404,0.0,0.0
17.7136,-0.060092,1.777792,-0.903313,-0.244206,1.079224,0.0,0.0
17.764,-0.060092,1.775628,-0.911935,-0.244206,1.094479,0.0,0.0
17.8144,-0.060092,1.771195,-0.923087,-0.241292,1.112578,0.0,0.0
17.8647,-0.060092,1.768752,-0.944502,-0.229685,1.141602,0.0,0.0
17.9153,-0.060092,1.76383,-0.966022,-0.220103,1.174816,0.0,0.0
17.9656,-0.060092,1.758681,-0.988345,-0.210417,1.215395,0.0,0.0
18.0158,-0.060092,1.752049,-1.009464,-0.20197,1.247893,0.0,0.0
18.0663,-0.060092,1.748,-1.026917,-0.200469,1.275731,0.0,0.0
18.1165,-0.060092,1.738906,-1.040914,-0.198339,1.304093,0.0,0.0
18.1667,-0.060092,1.732693,-1.053969,-0.19326,1.322419,0.0,0.0
18.2171,-0.060092,1.721279,-1.057914,-0.186506,1.322419,0.0,0.0
18.2675,-0.060092,1.71318,-1.059432,-0.184202,1.322419,0.0,0.0
18.3177,-0.060092,1.704384,-1.061439,-0.1775,1.322419,0.0,0.0
18.3681,-0.060092,1.695535,-1.061439,-0.176051,1.322419,0.0,0.0
18.4183,-0.060092,1.681939,-1.061439,-0.175144,1.322419,0.0,0.0
18.4687,-0.060092,1.668971,-1.061439,-0.175144,1.322419,0.0,0.0
18.5191,-0.060092,1.65274,-1.061439,-0.175144,1.322419,0.0,0.0
18.5693,-0.060092,1.632948,-1.065454,-0.173538,1.322419,0.0,0.0
18.6197,-0.060092,1.612806,-1.07514,-0.173538,1.323675,0.0,0.0
18.6702,-0.060092,1.591444,-1.083884,-0.171077,1.323675,0.0,0.0
18.7204,-0.060092,1.569959,-1.09303,-0.171077,1.324548,0.0,0.0
18.7706,-0.060092,1.548439,-1.106172,-0.171077,1.324548,0.0,0.0
18.8211,-0.060092,1.526238,-1.115283,-0.171077,1.324548,0.0,0.0
18.8714,-0.060092,1.501803,-1.126418,-0.171077,1.324548,0.0,0.0
18.9216,-0.060092,1.48236,-1.135476,-0.171077,1.324548,0.0,0.0
18.9721,-0.060092,1.463232,-1.149439,-0.171077,1.324548,0.0,0.0
19.0224,-0.060092,1.447646,-1.159352,-0.171077,1.324548,0.0,0.0
19.0727,-0.060092,1.43302,-1.169563,-0.171077,1.324548,0.0,0.0
19.1231,-0.060092,1.421326,-1.176963,-0.171077,1.324548,0.0,0.0
19.1736,-0.060092,1.41061,-1.188918,-0.171077,1.324548,0.0,0.0
19.2241,-0.060092,1.399492,-1.19946,-0.171077,1.324548,0.0,0.0
19.2745,-0.060092,1.391342,-1.209147,-0.171077,1.324548,0.0,0.0
19.3248,-0.060092,1.381864,-1.22475,-0.171077,1.319242,0.0,0.0
19.3752,-0.060092,1.376628,-1.240214,-0.171077,1.312348,0.0,0.0
19.4256,-0.060092,1.37031,-1.256044,-0.171077,1.312348,0.0,0.0
19.4758,-0.060092,1.368513,-1.271996,-0.169611,1.310166,0.0,0.0
19.5261,-0.060092,1.368513,-1.288716,-0.166888,1.310166,0.0,0.0
19.5764,-0.060092,1.368513,-1.302941,-0.161967,1.306012,0.0,0.0
19.6268,-0.060092,1.368513,-1.314128,-0.152455,1.304232,0.0,0.0
19.6769,-0.060092,1.368513,-1.323099,-0.148109,1.301701,0.0,0.0
19.7273,-0.060092,1.368513,-1.329801,-0.148109,1.29945,0.0,0.0
19.7777,-0.060092,1.368513,-1.336905,-0.148109,1.299467,0.0,0.0
19.828,-0.060092,1.368513,-1.338894,-0.148109,1.297059,0.0,0.0
19.8784,-0.060092,1.368513,-1.338894,-0.143553,1.282992,0.0,0.0
19.9286,-0.060092,1.368513,-1.338894,-0.135804,1.264666,0.0,0.0
19.9789,-0.060092,1.368513,-1.338894,-0.122732,1.240755,0.0,0.0
20.0294,-0.060092,1.368513,-1.338894,-0.109624,1.210927,0.0,0.0
20.0797,-0.060092,1.368513,-1.338894,-0.089727,1.17534,0.0,0.0
20.1301,-0.060092,1.368513,-1.338894,-0.061017,1.132352,0.0,0.0
20.1805,-0.060092,1.368513,-1.338894,-0.034104,1.083239,0.0,0.0
20.2308,-0.060092,1.368513,-1.338894,0.0,1.02395,0.0,0.0
20.281,-0.060092,1.368513,-1.338894,0.026913,0.972585,0.0,0.0
20.3313,-0.060092,1.368513,-1.338894,0.05681,0.924815,0.0,0.0
20.3817,-0.060092,1.370275,-1.338894,0.086202,0.882281,0.0,0.0
20.432,-0.060092,1.370275,-1.338894,0.112347,0.845385,0.0,0.0
20.4822,-0.060092,1.370275,-1.338894,0.128543,0.813306,0.0,0.0
20.5325,-0.060092,1.370275,-1.338894,0.151163,0.789919,0.0,0.0
20.583,-0.060092,1.372073,-1.338894,0.164759,0.769446,0.0,0.0
20.6331,-0.060092,1.372073,-1.338894,0.167045,0.753546,0.0,0.0
20.6835,-0.060092,1.373539,-1.338894,0.167045,0.745901,0.0,0.0
20.7337,-0.060092,1.373539,-1.338894,0.165126,0.744261,0.0,0.0
20.7841,-0.060092,1.373539,-1.336975,0.165126,0.744261,0.0,0.0
20.8345,-0.060092,1.373539,-1.33694,0.165126,0.744261,0.0,0.0
20.8848,-0.060092,1.378985,-1.33694,0.165126,0.744261,0.0,0.0
20.9352,-0.060092,1.390766,-1.33694,0.165126,0.744261,0.0,0.0
20.9855,-0.060092,1.405549,-1.33694,0.165126,0.746058,0.0,0.0
21.036,-0.060092,1.421431,-1.33694,0.165126,0.746058,0.0,0.0
21.0867,-0.060092,1.437488,-1.33694,0.165126,0.746058,0.0,0.0
21.1368,-0.060092,1.452428,-1.33694,0.165126,0.746058,0.0,0.0
21.1874,-0.0588,1.46379,-1.33694,0.165126,0.746058,0.0,0.0
21.2376,-0.0588,1.474594,-1.33694,0.165126,0.746058,0.0,0.0
21.288,-0.0588,1.490057,-1.33694,0.165126,0.749881,0.0,0.0
21.3383,-0.0588,1.5021,-1.33694,0.165126,0.754628,0.0,0.0
21.3886,-0.0588,1.512153,-1.33694,0.165126,0.758398,0.0,0.0
21.4389,-0.0588,1.524964,-1.33694,0.165126,0.76058,0.0,0.0
21.4893,-0.0588,1.53575,-1.33694,0.165126,0.766863,0.0,0.0
21.5396,-0.0588,1.545716,-1.33694,0.165126,0.791489,0.0,0.0
21.59,-0.0588,1.560743,-1.33694,0.165126,0.817233,0.0,0.0
21.6404,-0.0588,1.573659,-1.33694,0.165126,0.844425,0.0,0.0
21.6908,-0.0588,1.584619,-1.33694,0.165126,0.871059,0.0,0.0
21.7411,-0.0588,1.595615,-1.33694,0.165126,0.892387,0.0,0.0
21.7914,-0.0588,1.604673,-1.33694,0.165126,0.909997,0.0,0.0
21.8418,-0.053651,1.612108,-1.33694,0.165126,0.923244,0.0,0.0
21.8921,-0.041399,1.618287,-1.33694,0.162071,0.928829,0.0,0.0
21.9423,-0.028693,1.619945,-1.33694,0.160012,0.928829,0.0,0.0
21.9928,-0.015272,1.625128,-1.33694,0.160012,0.928829,0.0,0.0
22.0431,-0.002147,1.62717,-1.33694,0.159383,0.931255,0.0,0.0
22.0934,0.011938,1.629544,-1.33694,0.153973,0.943996,0.0,0.0
22.1437,0.024138,1.631621,-1.33694,0.150395,0.961554,0.0,0.0
22.1943,0.037839,1.633925,-1.33694,0.150692,0.987647,0.0,0.0
22.2447,0.052988,1.633925,-1.33694,0.150692,1.014368,0.0,0.0
22.2951,0.068138,1.633925,-1.33694,0.149906,1.04074,0.0,0.0
22.3453,0.08402,1.633925,-1.33694,0.144217,1.06137,0.0,0.0
22.3957,0.098245,1.633925,-1.33694,0.136747,1.069381,0.0,0.0
22.4461,0.110305,1.633925,-1.33694,0.13727,1.069381,0.0,0.0
22.4965,0.114284,1.633925,-1.33694,0.13727,1.069381,0.0,0.0
22.5468,0.114284,1.633925,-1.33694,0.13727,1.069381,0.0,0.0
22.5972,0.114284,1.633925,-1.33694,0.128893,1.069381,0.0,0.0
22.6476,0.114284,1.633925,-1.33694,0.102416,1.069381,0.0,0.0
22.698,0.114284,1.633925,-1.33694,0.078854,1.069381,0.0,0.0
22.7483,0.114284,1.633925,-1.33694,0.04187,1.069381,0.0,0.0
22.7987,0.114284,1.633925,-1.33694,0.018588,1.069381,0.0,0.0
22.8489,0.114284,1.633925,-1.33694,-0.006039,1.069381,0.0,0.0
22.8993,0.114284,1.633925,-1.33694,-0.022759,1.069381,0.0,0.0
22.9496,0.114284,1.638114,-1.33694,-0.027978,1.069381,0.0,0.0
23.0002,0.114284,1.650471,-1.33694,-0.028397,1.069381,0.0,0.0
23.0505,0.114284,1.667365,-1.33694,-0.028397,1.069381,0.0,0.0
23.1007,0.114284,1.691556,-1.33694,-0.028397,1.069869,0.0,0.0
23.1511,0.114284,1.716147,-1.33694,-0.028397,1.069869,0.0,0.0
23.2014,0.114284,1.741891,-1.33694,-0.028397,1.06589,0.0,0.0
23.2518,0.114284,1.768856,-1.33694,-0.028397,1.057443,0.0,0.0
23.3021,0.114284,1.799208,-1.33694,-0.028397,1.040949,0.0,0.0
23.3524,0.114284,1.820972,-1.33694,-0.023073,1.02676,0.0,0.0
23.4028,0.114284,1.842911,-1.33694,-0.021171,1.00051,0.0,0.0
23.4532,0.114284,1.862964,-1.33694,-0.021171,0.97166,0.0,0.0
23.5036,0.114284,1.87396,-1.33694,-0.021171,0.953107,0.0,0.0
23.5541,0.114284,1.880348,-1.33694,-0.021171,0.941239,0.0,0.0
23.6043,0.114284,1.880522,-1.33694,-0.021171,0.941535,0.0,0.0
23.6546,0.114284,1.880522,-1.33694,-0.021171,0.94349,0.0,0.0
23.705,0.114284,1.880522,-1.33694,-0.021171,0.94349,0.0,0.0
23.7552,0.114284,1.880522,-1.33694,-0.021171,0.94349,0.0,0.0
23.8056,0.114284,1.880522,-1.33694,-0.021171,0.94349,0.0,0.0
23.856,0.114284,1.880522,-1.33694,-0.021171,0.94349,0.0,0.0
23.9062,0.114284,1.880522,-1.33694,-0.021171,0.941605,0.0,0.0
23.9566,0.114284,1.880522,-1.33694,-0.021171,0.939807,0.0,0.0
24.0069,0.114284,1.880522,-1.33694,-0.021171,0.939807,0.0,0.0
24.0572,0.114284,1.880522,-1.33694,-0.021171,0.939807,0.0,0.0
24.1076,0.114284,1.880522,-1.33694,-0.021171,0.939807,0.0,0.0
24.158,0.114284,1.880522,-1.33694,-0.021171,0.939807,0.0,0.0
24.2083,0.114284,1.880522,-1.33694,-0.021171,0.937347,0.0,0.0
24.2586,0.114284,1.880522,-1.33694,-0.021171,0.930906,0.0,0.0
24.309,0.114284,1.880522,-1.33694,-0.025656,0.930802,0.0,0.0
24.3593,0.114284,1.880522,-1.33694,-0.033266,0.930802,0.0,0.0
24.4096,0.114284,1.880522,-1.33694,-0.040631,0.930802,0.0,0.0
24.4599,0.114284,1.880522,-1.33694,-0.046059,0.932844,0.0,0.0
24.5102,0.114284,1.880522,-1.33694,-0.050876,0.932844,0.0,0.0
24.5605,0.114284,1.880522,-1.33694,-0.050876,0.930749,0.0,0.0
24.611,0.114284,1.880522,-1.33694,-0.050876,0.930749,0.0,0.0
24.6612,0.114284,1.880522,-1.33694,-0.05339,0.930749,0.0,0.0
24.7114,0.114284,1.88232,-1.33694,-0.055362,0.932582,0.0,0.0
24.7618,0.114284,1.884676,-1.33694,-0.055362,0.934519,0.0,0.0
24.8121,0.114284,1.891762,-1.33694,-0.055362,0.939615,0.0,0.0
24.8626,0.114284,1.901449,-1.33694,-0.055362,0.943542,0.0,0.0
24.9129,0.114284,1.915569,-1.33694,-0.055362,0.947766,0.0,0.0
24.9632,0.114284,1.930648,-1.33694,-0.055362,0.95,0.0,0.0
25.0134,0.114284,1.947177,-1.33694,-0.055362,0.95,0.0,0.0
25.0637,0.114284,1.956758,-1.33694,-0.055362,0.95,0.0,0.0
25.1142,0.114284,1.96826,-1.33694,-0.055362,0.95,0.0,0.0
25.1644,0.114284,1.97004,-1.33694,-0.049986,0.95,0.0,0.0
25.2147,0.114284,1.97004,-1.33694,-0.047717,0.95,0.0,0.0
25.265,0.114284,1.97004,-1.33694,-0.047717,0.95,0.0,0.0
25.3155,0.114284,1.97004,-1.33694,-0.047717,0.95,0.0,0.0
25.3657,0.114284,1.97004,-1.33694,-0.047717,0.95,0.0,0.0
25.416,0.114284,1.97004,-1.33694,-0.047717,0.95,0.0,0.0
25.4663,0.114284,1.97004,-1.33694,-0.047717,0.95,0.0,0.0
25.5167,0.114284,1.97004,-1.33694,-0.047717,0.95,0.0,0.0
25.5669,0.114284,1.97004,-1.33694,-0.047717,0.95,0.0,0.0
25.6173,0.114284,1.97004,-1.33694,-0.047717,0.95,0.0,0.0
25.6676,0.114284,1.971943,-1.33694,-0.047717,0.95,0.0,0.0
25.718,0.114284,1.974421,-1.33694,-0.047717,0.95,0.0,0.0
25.7682,0.114284,1.984754,-1.33694,-0.050213,0.95,0.0,0.0
25.8187,0.114284,1.999135,-1.33694,-0.050213,0.95,0.0,0.0
25.8691,0.114284,2.014354,-1.33694,-0.051592,0.95,0.0,0.0
25.9194,0.114284,2.025786,-1.33694,-0.053983,0.95,0.0,0.0
25.9698,0.114284,2.035892,-1.33694,-0.053983,0.945864,0.0,0.0
26.0201,0.114284,2.04008,-1.33694,-0.053983,0.940959,0.0,0.0
26.0703,0.114284,2.04008,-1.33694,-0.053983,0.932582,0.0,0.0
26.1208,0.114284,2.04008,-1.33694,-0.053983,0.922808,0.0,0.0
26.171,0.114284,2.04008,-1.33694,-0.053983,0.915408,0.0,0.0
26.2212,0.114284,2.04008,-1.33694,-0.053983,0.906873,0.0,0.0
26.2715,0.114284,2.04008,-1.33694,-0.053983,0.897553,0.0,0.0
26.3219,0.114284,2.04008,-1.33694,-0.053983,0.886592,0.0,0.0
26.3722,0.114284,2.04008,-1.33694,-0.053983,0.88017,0.0,0.0
26.4225,0.114284,2.04008,-1.33694,-0.053983,0.878302,0.0,0.0
26.4729,0.114284,2.04008,-1.33694,-0.053983,0.878302,0.0,0.0
26.5233,0.114284,2.04008,-1.33694,-0.053983,0.878302,0.0,0.0
26.5735,0.114284,2.04008,-1.33694,-0.053983,0.878302,0.0,0.0
26.6238,0.114284,2.04008,-1.33694,-0.053983,0.878302,0.0,0.0
26.6741,0.114284,2.04008,-1.33694,-0.053983,0.878302,0.0,0.0
26.7245,0.114284,2.04008,-1.33694,-0.053983,0.878302,0.0,0.0
26.7749,0.114284,2.04008,-1.33694,-0.053983,0.878302,0.0,0.0
26.8254,0.114284,2.04008,-1.33694,-0.053983,0.878302,0.0,0.0
26.8757,0.114284,2.04008,-1.33694,-0.053983,0.878302,0.0,0.0
26.926,0.114284,2.04008,-1.33694,-0.053983,0.878302,0.0,0.0
26.9765,0.114284,2.04008,-1.33694,-0.053983,0.878302,0.0,0.0
27.0267,0.114284,2.04008,-1.33694,-0.053983,0.878302,0.0,0.0
27.0771,0.114284,2.04008,-1.33694,-0.053983,0.878302,0.0,0.0
27.1274,0.114284,2.04008,-1.33694,-0.053983,0.878302,0.0,0.0
27.1778,0.114284,2.04008,-1.33694,-0.053983,0.878302,0.0,0.0
27.2281,0.114284,2.04008,-1.33694,-0.053983,0.878302,0.0,0.0
27.2784,0.114284,2.04008,-1.33694,-0.053983,0.878302,0.0,0.0
27.3286,0.114284,2.04008,-1.33694,-0.042534,0.878302,0.0,0.0
27.3788,0.114284,2.04008,-1.33694,-0.03749,0.878302,0.0,0.0
27.4293,0.114284,2.04008,-1.33694,-0.03749,0.878302,0.0,0.0
27.4796,0.114284,2.04008,-1.33694,-0.03749,0.878302,0.0,0.0
27.5301,0.114284,2.04008,-1.33694,-0.039392,0.878302,0.0,0.0
27.5804,0.114284,2.04008,-1.33694,-0.039392,0.878302,0.0,0.0
27.6307,0.114284,2.04008,-1.33694,-0.039392,0.878302,0.0,0.0
27.6809,0.114284,2.04008,-1.33694,-0.039392,0.878302,0.0,0.0
27.7313,0.114284,2.04008,-1.33694,-0.039392,0.878302,0.0,0.0
27.7818,0.114284,2.04008,-1.33694,-0.039392,0.878302,0.0,0.0
27.832,0.114284,2.04008,-1.33694,-0.039392,0.878302,0.0,0.0
27.8823,0.114284,2.04008,-1.33694,-0.039392,0.878302,0.0,0.0
27.9326,0.114284,2.04008,-1.33694,-0.039392,0.878302,0.0,0.0
27.983,0.114284,2.04008,-1.33694,-0.039392,0.878302,0.0,0.0
28.0333,0.114284,2.04008,-1.33694,-0.039392,0.878302,0.0,0.0
28.0836,0.114284,2.04008,-1.33694,-0.039392,0.878302,0.0,0.0
28.1339,0.114284,2.04008,-1.33694,-0.039392,0.878302,0.0,0.0
28.1843,0.114284,2.04008,-1.33694,-0.039392,0.878302,0.0,0.0
28.2347,0.114284,2.04008,-1.33694,-0.039392,0.878302,0.0,0.0
28.2849,0.114284,2.04008,-1.33694,-0.039392,0.878302,0.0,0.0
28.3354,0.114284,2.04008,-1.33694,-0.039392,0.878302,0.0,0.0
28.3857,0.114284,2.04008,-1.33694,-0.039392,0.878302,0.0,0.0
28.4361,0.114284,2.04008,-1.33694,-0.039392,0.878302,0.0,0.0
28.4865,0.114284,2.04008,-1.33694,-0.039392,0.878302,0.0,0.0
28.5368,0.114284,2.04008,-1.33694,-0.039392,0.878302,0.0,0.0
28.5872,0.114284,2.04008,-1.33694,-0.041556,0.878302,0.0,0.0
28.6375,0.114284,2.04008,-1.33694,-0.043354,0.878302,0.0,0.0
28.6878,0.114284,2.04008,-1.33694,-0.043354,0.878302,0.0,0.0
28.7381,0.114284,2.04008,-1.33694,-0.043354,0.878302,0.0,0.0
28.7886,0.114284,2.04008,-1.33694,-0.043354,0.878302,0.0,0.0
28.8389,0.114284,2.04008,-1.33694,-0.043354,0.878302,0.0,0.0
28.8892,0.114284,2.04008,-1.33694,-0.043354,0.878302,0.0,0.0
28.9396,0.114284,2.04008,-1.33694,-0.043354,0.878302,0.0,0.0
28.99,0.114284,2.04008,-1.33694,-0.043354,0.878302,0.0,0.0
29.0404,0.114284,2.04008,-1.33694,-0.043354,0.878302,0.0,0.0
29.0906,0.114284,2.04008,-1.33694,-0.043354,0.878302,0.0,0.0
29.141,0.114284,2.04008,-1.33694,-0.043354,0.878302,0.0,0.0
29.1913,0.114284,2.04008,-1.33694,-0.043354,0.878302,0.0,0.0
29.2417,0.114284,2.04008,-1.33694,-0.043354,0.878302,0.0,0.0
29.292,0.114284,2.04008,-1.33694,-0.043354,0.878302,0.0,0.0
29.3424,0.114284,2.04008,-1.33694,-0.043354,0.878302,0.0,0.0
29.3929,0.114284,2.04008,-1.33694,-0.043354,0.878302,0.0,0.0
29.4431,0.114284,2.04008,-1.33694,-0.043354,0.878302,0.0,0.0
29.4933,0.114284,2.04008,-1.33694,-0.043354,0.878302,0.0,0.0
29.5435,0.114284,2.04008,-1.33694,-0.043354,0.878302,0.0,0.0
29.5938,0.114284,2.04008,-1.33694,-0.043354,0.878302,0.0,0.0
29.6442,0.114284,2.04008,-1.33694,-0.043354,0.878302,0.0,0.0
29.6946,0.114284,2.04008,-1.33694,-0.043354,0.878302,0.0,0.0
29.7449,0.114284,2.04008,-1.33694,-0.04482,0.878302,0.0,0.0
29.7953,0.114284,2.035019,-1.33694,-0.045466,0.878302,0.0,0.0
29.8456,0.114284,2.023133,-1.33694,-0.047194,0.878302,0.0,0.0
29.896,0.114284,2.01322,-1.340448,-0.047194,0.878302,0.0,0.0
29.9463,0.114284,1.994894,-1.34811,-0.047194,0.878302,0.0,0.0
29.9964,0.114284,1.970599,-1.357098,-0.047194,0.878302,0.0,0.0
30.0468,0.114284,1.948416,-1.361566,-0.047647,0.878302,0.0,0.0
30.0971,0.114284,1.931015,-1.365964,-0.047647,0.878302,0.0,0.0
30.1474,0.114284,1.915359,-1.367745,-0.047647,0.878302,0.0,0.0
30.1977,0.114284,1.90569,-1.367745,-0.047647,0.880641,0.0,0.0
30.248,0.114284,1.900943,-1.367745,-0.047647,0.887989,0.0,0.0
30.2983,0.114284,1.899355,-1.367745,-0.047647,0.897501,0.0,0.0
30.3487,0.114284,1.899355,-1.367745,-0.047647,0.911952,0.0,0.0
30.3989,0.114284,1.899355,-1.367745,-0.047647,0.922686,0.0,0.0
30.4492,0.114284,1.899355,-1.367745,-0.049794,0.932111,0.0,0.0
30.4997,0.114284,1.899355,-1.367745,-0.050335,0.939842,0.0,0.0
30.5503,0.114284,1.899355,-1.367745,-0.054192,0.949965,0.0,0.0
30.6004,0.114284,1.897243,-1.367745,-0.059167,0.958011,0.0,0.0
30.6508,0.114284,1.890226,-1.367745,-0.065694,0.963177,0.0,0.0
30.7011,0.114284,1.88225,-1.367745,-0.065694,0.962706,0.0,0.0
30.7513,0.114284,1.866682,-1.367745,-0.065694,0.964312,0.0,0.0
30.8017,0.114284,1.850834,-1.367745,-0.065694,0.964905,0.0,0.0
30.8521,0.114284,1.830711,-1.367745,-0.07114,0.964905,0.0,0.0
30.9023,0.114284,1.81036,-1.367745,-0.07381,0.966598,0.0,0.0
30.9527,0.112486,1.788613,-1.367745,-0.076184,0.966598,0.0,0.0
31.003,0.112486,1.767635,-1.367745,-0.077685,0.966598,0.0,0.0
31.0532,0.112486,1.749535,-1.367745,-0.077685,0.966598,0.0,0.0
31.1038,0.112486,1.736149,-1.367745,-0.065328,0.966598,0.0,0.0
31.154,0.112486,1.729098,-1.367745,-0.062064,0.968675,0.0,0.0
31.2044,0.112486,1.729307,-1.367745,-0.066061,0.968675,0.0,0.0
31.2546,0.112486,1.729307,-1.367745,-0.066096,0.968675,0.0,0.0
31.305,0.112486,1.731192,-1.367745,-0.066096,0.968675,0.0,0.0
31.3554,0.112486,1.733531,-1.367745,-0.066096,0.968675,0.0,0.0
31.4057,0.112486,1.733531,-1.367745,-0.066096,0.968675,0.0,0.0
31.4561,0.112486,1.733531,-1.367745,-0.066096,0.968675,0.0,0.0
31.5064,0.112486,1.733531,-1.367745,-0.066096,0.968675,0.0,0.0
31.5565,0.112486,1.733531,-1.367745,-0.066096,0.968675,0.0,0.0
31.6069,0.112486,1.733531,-1.367745,-0.066096,0.968675,0.0,0.0
31.6573,0.112486,1.733531,-1.367745,-0.066096,0.968675,0.0,0.0
31.7076,0.112486,1.733531,-1.367745,-0.066096,0.968675,0.0,0.0
31.7578,0.112486,1.733531,-1.367745,-0.066096,0.968675,0.0,0.0
31.8081,0.112486,1.733531,-1.367745,-0.066096,0.968675,0.0,0.0
31.8585,0.112486,1.733531,-1.367745,-0.066096,0.968675,0.0,0.0
31.9089,0.112486,1.733531,-1.367745,-0.066096,0.968675,0.0,0.0
31.9593,0.112486,1.733531,-1.367745,-0.066096,0.968675,0.0,0.0
32.0097,0.112486,1.733531,-1.367745,-0.066096,0.968675,0.0,0.0
32.0599,0.112486,1.733531,-1.367745,-0.066096,0.968675,0.0,0.0
32.1104,0.112486,1.733531,-1.367745,-0.066096,0.970613,0.0,0.0
32.1607,0.112486,1.733531,-1.367745,-0.066096,0.972044,0.0,0.0
32.211,0.112486,1.733531,-1.367745,-0.066096,0.9781,0.0,0.0
32.2612,0.112486,1.733531,-1.367745,-0.066096,0.990736,0.0,0.0
32.3116,0.112486,1.733531,-1.367745,-0.066096,1.009167,0.0,0.0
32.3619,0.112486,1.733531,-1.367745,-0.066096,1.033043,0.0,0.0
32.4122,0.112486,1.729272,-1.367745,-0.066096,1.063324,0.0,0.0
32.4625,0.112486,1.72154,-1.367745,-0.066096,1.088632,0.0,0.0
32.5127,0.112486,1.709288,-1.367745,-0.066096,1.111862,0.0,0.0
32.5631,0.112486,1.693772,-1.367745,-0.066096,1.127884,0.0,0.0
32.6134,0.112486,1.678082,-1.367745,-0.066096,1.142126,0.0,0.0
32.6638,0.112486,1.651815,-1.367745,-0.066096,1.165409,0.0,0.0
32.7143,0.112486,1.629876,-1.367745,-0.066096,1.184223,0.0,0.0
32.7648,0.112486,1.607117,-1.367745,-0.066096,1.204836,0.0,0.0
32.8151,0.112486,1.584183,-1.367745,-0.066096,1.227054,0.0,0.0
32.8654,0.112486,1.561494,-1.367745,-0.066096,1.255415,0.0,0.0
32.9158,0.112486,1.539031,-1.367745,-0.066096,1.277476,0.0,0.0
32.9662,0.112486,1.519833,-1.367745,-0.066096,1.300794,0.0,0.0
33.0165,0.112486,1.501472,-1.367745,-0.066096,1.323954,0.0,0.0
33.0669,0.112486,1.476269,-1.367745,-0.066096,1.323867,0.0,0.0
33.1172,0.112486,1.455936,-1.367745,-0.066096,1.323867,0.0,0.0
33.1675,0.112486,1.434591,-1.367745,-0.066096,1.323867,0.0,0.0
33.218,0.112486,1.413123,-1.367745,-0.066096,1.323867,0.0,0.0
33.2684,0.112486,1.394658,-1.367745,-0.066096,1.323867,0.0,0.0
33.3186,0.112486,1.365127,-1.367745,-0.066096,1.325647,0.0,0.0
33.369,0.112486,1.347831,-1.367745,-0.068155,1.32563,0.0,0.0
33.4193,0.112486,1.314547,-1.367745,-0.073077,1.32563,0.0,0.0
33.4696,0.112486,1.285819,-1.367745,-0.073077,1.32563,0.0,0.0
33.52,0.112486,1.240423,-1.367745,-0.075102,1.327445,0.0,0.0
33.5706,0.112486,1.206232,-1.367745,-0.077318,1.327445,0.0,0.0
33.621,0.112486,1.171884,-1.367745,-0.081559,1.327445,0.0,0.0
33.6714,0.112486,1.134865,-1.367745,-0.088628,1.327445,0.0,0.0
33.7219,0.112486,1.10776,-1.367745,-0.088628,1.329086,0.0,0.0
33.7722,0.112486,1.08467,-1.367745,-0.086795,1.329086,0.0,0.0
33.8227,0.112486,1.068002,-1.367745,-0.078976,1.329086,0.0,0.0
33.8729,0.112486,1.052765,-1.367745,-0.073129,1.329086,0.0,0.0
33.9232,0.112486,1.03978,-1.367745,-0.071314,1.329086,0.0,0.0
33.9737,0.112486,1.032258,-1.367745,-0.071314,1.329086,0.0,0.0
34.0239,0.112486,1.030512,-1.367745,-0.071314,1.329086,0.0,0.0
34.0742,0.112486,1.030512,-1.367745,-0.071314,1.329086,0.0,0.0
34.1246,0.112486,1.030512,-1.367745,-0.071314,1.329086,0.0,0.0
34.1749,0.112486,1.032519,-1.367745,-0.071314,1.329086,0.0,0.0
34.2253,0.112486,1.032519,-1.367745,-0.071314,1.329086,0.0,0.0
34.2756,0.112486,1.032519,-1.367745,-0.071942,1.329086,0.0,0.0
34.3258,0.112486,1.030093,-1.365842,-0.062326,1.329086,0.0,0.0
34.3762,0.112486,1.030093,-1.363713,-0.062326,1.329086,0.0,0.0
34.4266,0.112486,1.022588,-1.356959,-0.062326,1.329086,0.0,0.0
34.4768,0.112486,1.009743,-1.344776,-0.062326,1.324967,0.0,0.0
34.5271,0.112486,0.988258,-1.323134,-0.062326,1.319451,0.0,0.0
34.5775,0.112486,0.965464,-1.300061,-0.062326,1.317357,0.0,0.0
34.6278,0.112486,0.946283,-1.277354,-0.062326,1.317375,0.0,0.0
34.6782,0.112486,0.912109,-1.251471,-0.062326,1.317375,0.0,0.0
34.7286,0.112486,0.877709,-1.217105,-0.062326,1.315612,0.0,0.0
34.7788,0.112486,0.835925,-1.178516,-0.062326,1.313535,0.0,0.0
34.8291,0.112486,0.78484,-1.128774,-0.062326,1.313482,0.0,0.0
34.8794,0.112486,0.747158,-1.095561,-0.062326,1.313482,0.0,0.0
34.9298,0.112486,0.692023,-1.032781,-0.062326,1.311789,0.0,0.0
34.9801,0.112486,0.652561,-0.983301,-0.062326,1.309294,0.0,0.0
35.0304,0.112486,0.604303,-0.918375,-0.062326,1.271158,0.0,0.0
35.0809,0.112486,0.570042,-0.860098,-0.062326,1.212218,0.0,0.0
35.131,0.112486,0.538748,-0.817303,-0.062326,1.132195,0.0,0.0
35.1814,0.112486,0.508868,-0.763983,-0.062326,1.02676,0.0,0.0
35.2317,0.112486,0.490036,-0.727017,-0.064211,0.947941,0.0,0.0
35.2823,0.112486,0.469773,-0.683628,-0.064211,0.85303,0.0,0.0
35.3326,0.112486,0.45958,-0.653626,-0.066288,0.789674,0.0,0.0
35.3828,0.112486,0.453297,-0.629907,-0.066288,0.740194,0.0,0.0
35.4331,0.112486,0.450923,-0.610167,-0.066288,0.703088,0.0,0.0
35.4833,0.112486,0.450923,-0.597723,-0.066288,0.680399,0.0,0.0
35.5338,0.112486,0.450243,-0.58198,-0.066288,0.665389,0.0,0.0
35.5841,0.112486,0.450243,-0.560268,-0.066288,0.646016,0.0,0.0
35.6344,0.112486,0.450243,-0.533408,-0.066288,0.615229,0.0,0.0
35.6848,0.112486,0.450243,-0.508257,-0.066288,0.591318,0.0,0.0
35.7351,0.112486,0.450243,-0.476859,-0.066288,0.560547,0.0,0.0
35.7855,0.112486,0.450243,-0.438723,-0.066288,0.522203,0.0,0.0
35.8359,0.112486,0.450243,-0.404777,-0.066288,0.487278,0.0,0.0
35.8863,0.112486,0.450243,-0.375211,-0.066288,0.454676,0.0,0.0
35.9366,0.112486,0.450243,-0.330548,-0.066288,0.403136,0.0,0.0
35.9869,0.112486,0.450243,-0.295624,-0.066288,0.360917,0.0,0.0
36.0372,0.112486,0.450243,-0.254993,-0.066288,0.31573,0.0,0.0
36.0876,0.112486,0.450243,-0.221046,-0.066288,0.267262,0.0,0.0
36.1379,0.112486,0.450243,-0.188426,-0.066288,0.224467,0.0,0.0
36.1882,0.112486,0.450243,-0.15708,-0.066288,0.182404,0.0,0.0
36.2384,0.112486,0.450243,-0.127287,-0.066288,0.137183,0.0,0.0
36.2888,0.112486,0.450243,-0.093201,-0.066288,0.074334,0.0,0.0
36.3391,0.112486,0.450243,-0.064822,-0.066288,0.016197,0.0,0.0
36.3894,0.112486,0.450243,-0.040544,-0.066288,-0.032289,0.0,0.0
36.4398,0.112486,0.450243,-0.019844,-0.066288,-0.0858,0.0,0.0
36.4902,0.112486,0.450243,-0.005603,-0.066288,-0.11685,0.0,0.0
36.5407,0.112486,0.450243,0.0,-0.066288,-0.126711,0.0,0.0
36.5908,0.112486,0.450243,-0.00096,-0.066288,-0.126624,0.0,0.0
36.6411,0.112486,0.450243,-0.00096,-0.066288,-0.131214,0.0,0.0
36.6914,0.112486,0.450243,-0.00096,-0.066288,-0.133413,0.0,0.0
36.7418,0.112486,0.450243,-0.00096,-0.066288,-0.133413,0.0,0.0
36.7922,0.112486,0.450243,-0.00096,-0.066288,-0.138073,0.0,0.0
36.8426,0.112486,0.445513,-0.00096,-0.066288,-0.141651,0.0,0.0
36.893,0.112486,0.437763,-0.00096,-0.066288,-0.141651,0.0,0.0
36.9434,0.112486,0.424464,-0.00096,-0.066288,-0.141651,0.0,0.0
36.9935,0.112486,0.398022,-0.00096,-0.066288,-0.143937,0.0,0.0
37.044,0.112486,0.361562,-0.00096,-0.066288,-0.145683,0.0,0.0
37.0942,0.112486,0.324788,-0.00096,-0.066288,-0.145683,0.0,0.0
37.1445,0.112486,0.284297,-0.00096,-0.066288,-0.145683,0.0,0.0
37.1949,0.112486,0.234939,-0.00096,-0.066288,-0.145683,0.0,0.0
37.2454,0.112486,0.190171,-0.00096,-0.066288,-0.145683,0.0,0.0
37.2956,0.112486,0.14495,-0.00096,-0.066288,-0.145683,0.0,0.0
37.3459,0.112486,0.098978,-0.00096,-0.06449,-0.145683,0.0,0.0
37.3962,0.112486,0.054035,-0.00096,-0.06449,-0.145683,0.0,0.0
37.4466,0.112486,0.002409,-0.00096,-0.06449,-0.145683,0.0,0.0
37.4969,0.112486,-0.037367,-0.00096,-0.06449,-0.145683,0.0,0.0
37.5472,0.112486,-0.022375,-0.00096,-0.054384,-0.180868,0.0,0.0
37.5976,0.112486,-0.017436,-0.00096,-0.035605,-0.192841,0.0,0.0
37.6479,0.112486,-0.024574,-0.00096,-0.035605,-0.192841,0.0,0.0
37.6982,0.112486,-0.032114,0.001553,-0.035605,-0.192841,0.0,0.0
37.7485,0.112486,-0.032114,0.001553,-0.035605,-0.192841,0.0,0.0
37.7989,0.112486,-0.032114,0.001553,-0.035605,-0.192841,0.0,0.0
37.8493,0.112486,-0.032114,0.001553,-0.035605,-0.192841,0.0,0.0
37.8995,0.112486,-0.032114,0.001553,-0.035605,-0.192841,0.0,0.0
37.95,0.112486,-0.032114,0.001553,-0.035605,-0.192841,0.0,0.0
38.0003,0.112486,-0.032114,0.001553,-0.035605,-0.192841,0.0,0.0
38.0507,0.112486,-0.032114,0.001553,-0.035605,-0.192841,0.0,0.0
38.101,0.112486,-0.032114,0.001553,-0.035605,-0.192841,0.0,0.0
38.1513,0.112486,-0.032114,0.001553,-0.035605,-0.192841,0.0,0.0
38.2016,0.112486,-0.032114,0.001553,-0.035605,-0.192841,0.0,0.0
38.2519,0.112486,-0.032114,0.001553,-0.035605,-0.192841,0.0,0.0
38.3024,0.112486,-0.032114,0.001553,-0.035605,-0.192841,0.0,0.0
38.353,0.112486,-0.032114,0.001553,-0.035605,-0.192841,0.0,0.0
38.4032,0.112486,-0.032114,0.001553,-0.035605,-0.192841,0.0,0.0
38.4536,0.112486,-0.032114,0.001553,-0.035605,-0.192841,0.0,0.0
38.504,0.112486,-0.032114,0.001553,-0.035605,-0.192841,0.0,0.0
38.5543,0.112486,-0.032114,0.001553,-0.035605,-0.192841,0.0,0.0
38.6048,0.112486,-0.032114,0.001553,-0.035605,-0.192841,0.0,0.0
38.6552,0.112486,-0.032114,0.001553,-0.035605,-0.192841,0.0,0.0
38.7057,0.112486,-0.032114,0.001553,-0.035605,-0.192841,0.0,0.0
38.7559,0.112486,-0.032114,0.001553,-0.035605,-0.192841,0.0,0.0
38.8064,0.112486,-0.032114,0.001553,-0.035605,-0.192841,0.0,0.0
38.8567,0.112486,-0.032114,0.001553,-0.035605,-0.192841,0.0,0.0
38.907,0.112486,-0.032114,0.001553,-0.035605,-0.192841,0.0,0.0
38.9574,0.112486,-0.032114,0.001553,-0.035605,-0.192841,0.0,0.0
39.0076,0.112486,-0.032114,0.001553,-0.035605,-0.192841,0.0,0.0
39.0579,0.112486,-0.032114,0.001553,-0.035605,-0.192841,0.0,0.0
39.1083,0.112486,-0.032114,0.001553,-0.035605,-0.192841,0.0,0.0
39.1585,0.112486,-0.032114,0.001553,-0.035605,-0.192841,0.0,0.0
39.2089,0.112486,-0.032114,0.001553,-0.035605,-0.192841,0.0,0.0
39.2592,0.112486,-0.032114,0.001553,-0.035605,-0.192841,0.0,0.0
39.3096,0.112486,-0.032114,0.001553,-0.035605,-0.192841,0.0,0.0
39.3599,0.112486,-0.032114,0.001553,-0.035605,-0.192841,0.0,0.0
39.4105,0.112486,-0.032114,0.001553,-0.035605,-0.192841,0.0,0.0
39.4611,0.112486,-0.032114,0.001553,-0.035605,-0.192841,0.0,0.0
39.5115,0.112486,-0.032114,0.001553,-0.035605,-0.192841,0.0,0.0
39.5618,0.112486,-0.032114,0.001553,-0.035605,-0.192841,0.0,0.0
39.612,0.112486,-0.032114,0.001553,-0.035605,-0.192841,0.0,0.0
39.6626,0.112486,-0.032114,0.001553,-0.035605,-0.192841,0.0,0.0
39.7128,0.112486,-0.032114,0.001553,-0.035605,-0.192841,0.0,0.0
39.7631,0.112486,-0.032114,0.001553,-0.035605,-0.192841,0.0,0.0
39.8134,0.112486,-0.032114,0.001553,-0.035605,-0.192841,0.0,0.0
39.8638,0.112486,-0.032114,0.001553,-0.035605,-0.192841,0.0,0.0
39.914,0.112486,-0.032114,0.001553,-0.035605,-0.192841,0.0,0.0
39.9643,0.112486,-0.032114,0.001553,-0.035605,-0.192841,0.0,0.0
40.0147,0.112486,-0.032114,0.001553,-0.035605,-0.192841,0.0,0.0
40.0651,0.112486,-0.032114,0.001553,-0.035605,-0.192841,0.0,0.0
40.1155,0.112486,-0.032114,0.001553,-0.035605,-0.192841,0.0,0.0
40.1658,0.112486,-0.032114,0.001553,-0.035605,-0.192841,0.0,0.0
40.216,0.112486,-0.032114,0.001553,-0.035605,-0.192841,0.0,0.0
40.2663,0.112486,-0.032114,0.006144,-0.035605,-0.192841,0.0,0.0
40.3167,0.112486,-0.032114,0.014347,-0.018972,-0.197048,0.0,0.0
40.3671,0.112486,-0.032114,0.020752,0.0,-0.197048,0.0,0.0
40.4176,0.112486,-0.032114,0.020316,0.011868,-0.197048,0.0,0.0
40.4677,0.112486,-0.032114,0.020316,0.011868,-0.205006,0.0,0.0
40.5181,0.112486,-0.032114,0.020316,0.011868,-0.205879,0.0,0.0
40.5685,0.112486,-0.032114,0.020316,0.011868,-0.205879,0.0,0.0
40.6188,0.112486,-0.032114,0.020316,0.011868,-0.205879,0.0,0.0
40.6692,0.112486,-0.032114,0.020316,0.015795,-0.205879,0.0,0.0
40.7194,0.112486,-0.032114,0.020316,0.015795,-0.205879,0.0,0.0
40.7699,0.112486,-0.032114,0.020316,0.021363,-0.205879,0.0,0.0
40.8202,0.112486,-0.032114,0.020316,0.044907,-0.205879,0.0,0.0
40.8705,0.112486,-0.032114,0.020316,0.063251,-0.208427,0.0,0.0
40.9208,0.112486,-0.032114,0.020316,0.069359,-0.212284,0.0,0.0
40.971,0.112486,-0.032114,0.020316,0.069359,-0.212284,0.0,0.0
41.0212,0.112486,-0.032114,0.020316,0.069359,-0.212284,0.0,0.0
41.0716,0.112486,-0.032114,0.020316,0.069359,-0.212284,0.0,0.0
41.1219,0.112486,-0.032114,0.020316,0.069359,-0.212284,0.0,0.0
41.1722,0.112486,-0.032114,0.020316,0.069359,-0.212284,0.0,0.0
41.2225,0.112486,-0.032114,0.020316,0.069359,-0.212284,0.0,0.0
41.2728,0.112486,-0.032114,0.020316,0.069359,-0.212284,0.0,0.0
41.3231,0.112486,-0.032114,0.020316,0.069359,-0.212284,0.0,0.0
41.3734,0.112486,-0.032114,0.020316,0.069359,-0.212284,0.0,0.0
41.4237,0.112486,-0.032114,0.020316,0.069359,-0.212284,0.0,0.0
41.474,0.112486,-0.032114,0.020316,0.069359,-0.212284,0.0,0.0
41.5246,0.112486,-0.032114,0.020316,0.069359,-0.212284,0.0,0.0
41.575,0.112486,-0.032114,0.020316,0.069359,-0.212284,0.0,0.0
41.6253,0.112486,-0.032114,0.020316,0.069359,-0.212284,0.0,0.0
41.6757,0.112486,-0.032114,0.020316,0.069359,-0.212284,0.0,0.0
41.726,0.112486,-0.032114,0.020316,0.069359,-0.212284,0.0,0.0
41.7762,0.112486,-0.032114,0.020316,0.069359,-0.212284,0.0,0.0
41.8266,0.112486,-0.032114,0.020316,0.069359,-0.212284,0.0,0.0
41.8768,0.112486,-0.032114,0.020316,0.069359,-0.212284,0.0,0.0
41.9271,0.112486,-0.032114,0.020316,0.069359,-0.212284,0.0,0.0
41.9775,0.112486,-0.032114,0.020316,0.069359,-0.212284,0.0,0.0
42.0279,0.112486,-0.032114,0.020316,0.069359,-0.212284,0.0,0.0
42.0781,0.112486,-0.032114,0.020316,0.069359,-0.212284,0.0,0.0
42.1285,0.112486,-0.032114,0.020316,0.069359,-0.212284,0.0,0.0
42.1788,0.112486,-0.032114,0.020316,0.069359,-0.212284,0.0,0.0
42.2291,0.112486,-0.032114,0.021206,0.069359,-0.214658,0.0,0.0
42.2795,0.112486,-0.032114,0.021206,0.069359,-0.214658,0.0,0.0
42.3303,0.112486,-0.032114,0.021206,0.069359,-0.214658,0.0,0.0
42.3806,0.112486,-0.032114,0.021206,0.069359,-0.214658,0.0,0.0
42.4309,0.112486,-0.032114,0.021206,0.069359,-0.214658,0.0,0.0
42.4812,0.112486,-0.032114,0.021206,0.069359,-0.214658,0.0,0.0
42.5317,0.112486,-0.032114,0.021206,0.069359,-0.214658,0.0,0.0
42.5819,0.112486,-0.032114,0.021206,0.069359,-0.214658,0.0,0.0
42.6323,0.112486,-0.032114,0.021206,0.069359,-0.214658,0.0,0.0
42.6825,0.112486,-0.032114,0.021206,0.069359,-0.214658,0.0,0.0
42.7327,0.112486,-0.032114,0.021206,0.069359,-0.214658,0.0,0.0
42.783,0.112486,-0.032114,0.021206,0.069359,-0.214658,0.0,0.0
42.8332,0.112486,-0.032114,0.021206,0.069359,-0.214658,0.0,0.0
42.8835,0.112486,-0.032114,0.021206,0.069359,-0.214658,0.0,0.0
42.9338,0.112486,-0.032114,0.021206,0.069359,-0.214658,0.0,0.0
42.9841,0.112486,-0.032114,0.021206,0.069359,-0.214658,0.0,0.0
43.0345,0.112486,-0.032114,0.021206,0.069359,-0.214658,0.0,0.0
43.085,0.112486,-0.032114,0.021206,0.069359,-0.214658,0.0,0.0
43.1352,0.112486,-0.032114,0.021206,0.069359,-0.214658,0.0,0.0
43.1857,0.112486,-0.032114,0.021206,0.069359,-0.214658,0.0,0.0
43.236,0.112486,-0.032114,0.021206,0.069359,-0.214658,0.0,0.0
43.2864,0.112486,-0.032114,0.021206,0.069359,-0.214658,0.0,0.0
43.3365,0.112486,-0.032114,0.021206,0.069359,-0.214658,0.0,0.0
43.3868,0.112486,-0.032114,0.021206,0.069359,-0.214658,0.0,0.0
43.4371,0.112486,-0.032114,0.021206,0.069359,-0.214658,0.0,0.0
43.4875,0.112486,-0.032114,0.021206,0.069359,-0.214658,0.0,0.0
43.5377,0.112486,-0.032114,0.021206,0.069359,-0.214658,0.0,0.0
43.588,0.112486,-0.032114,0.021206,0.069359,-0.214658,0.0,0.0
43.6384,0.112486,-0.032114,0.021206,0.069359,-0.214658,0.0,0.0
43.6886,0.112486,-0.032114,0.021206,0.069359,-0.214658,0.0,0.0
43.739,0.112486,-0.032114,0.021206,0.069359,-0.214658,0.0,0.0
43.7893,0.112486,-0.032114,0.021206,0.069359,-0.214658,0.0,0.0
43.8397,0.112486,-0.032114,0.021206,0.069359,-0.214658,0.0,0.0
43.8902,0.112486,-0.032114,0.021206,0.069359,-0.214658,0.0,0.0
43.9408,0.112486,-0.032114,0.021206,0.069359,-0.214658,0.0,0.0
43.9909,0.112486,-0.032114,0.021206,0.069359,-0.214658,0.0,0.0
44.0413,0.112486,-0.032114,0.021206,0.069359,-0.214658,0.0,0.0
44.0917,0.112486,-0.032114,0.021206,0.069359,-0.214658,0.0,0.0
44.1421,0.112486,-0.032114,0.021206,0.069359,-0.214658,0.0,0.0
44.1924,0.112486,-0.032114,0.021206,0.069359,-0.214658,0.0,0.0
44.2428,0.112486,-0.032114,0.021206,0.069359,-0.214658,0.0,0.0
44.2932,0.112486,-0.032114,0.021206,0.069359,-0.214658,0.0,0.0
44.3436,0.112486,-0.032114,0.021206,0.069359,-0.214658,0.0,0.0
44.3938,0.112486,-0.032114,0.021206,0.069359,-0.214658,0.0,0.0
44.4441,0.112486,-0.032114,0.021206,0.069359,-0.214658,0.0,0.0
44.4944,0.112486,-0.032114,0.021206,0.069359,-0.214658,0.0,0.0
44.545,0.112486,-0.032114,0.021206,0.069359,-0.214658,0.0,0.0
44.5954,0.112486,-0.032114,0.021206,0.069359,-0.214658,0.0,0.0
44.6456,0.112486,-0.032114,0.021206,0.069359,-0.214658,0.0,0.0
44.696,0.112486,-0.032114,0.021206,0.069359,-0.214658,0.0,0.0
44.7463,0.112486,-0.032114,0.021206,0.069359,-0.214658,0.0,0.0
44.7967,0.112486,-0.032114,0.021206,0.069359,-0.214658,0.0,0.0
44.847,0.112486,-0.032114,0.021206,0.069359,-0.214658,0.0,0.0
44.8974,0.112486,-0.032114,0.021206,0.069359,-0.214658,0.0,0.0
44.9476,0.112486,-0.032114,0.021206,0.069359,-0.214658,0.0,0.0
